;FLAVOR:RepRap
;TIME:4331
;Filament used: 2.34049m
;Layer height: 0.1
;Generated with Cura_SteamEngine 3.2.1
T0
M190 S50
M104 S210
M109 S210
M82 ;absolute extrusion mode
G28 ;Home
G1 Z15.0 F6000 ;Move the platform down 15mm
;Prime the extruder
G92 E0
G1 F200 E3
G92 E0
M83 ;relative extrusion mode
;LAYER_COUNT:69
;LAYER:0
M107
G0 F3600 X114.798 Y82.436 Z0.3
;TYPE:SKIRT
G1 F1800 X115.053 Y82.155 E0.01893
G1 X115.362 Y81.935 E0.01892
G1 X115.709 Y81.783 E0.0189
G1 X116.25 Y81.7 E0.02731
G1 X120.25 Y81.7 E0.19956
G1 X120.627 Y81.74 E0.01891
G1 X120.987 Y81.858 E0.0189
G1 X121.314 Y82.048 E0.01887
G1 X121.595 Y82.303 E0.01893
G1 X121.815 Y82.612 E0.01892
G1 X121.967 Y82.959 E0.0189
G1 X122.05 Y83.5 E0.02731
G1 X122.05 Y112.7 E1.45679
G1 X125.95 Y112.7 E0.19457
G1 X125.95 Y83.5 E1.45679
G1 X125.99 Y83.123 E0.01891
G1 X126.108 Y82.763 E0.0189
G1 X126.298 Y82.436 E0.01887
G1 X126.553 Y82.155 E0.01893
G1 X126.862 Y81.935 E0.01892
G1 X127.209 Y81.783 E0.0189
G1 X127.75 Y81.7 E0.02731
G1 X131.75 Y81.7 E0.19956
G1 X132.127 Y81.74 E0.01891
G1 X132.487 Y81.858 E0.0189
G1 X132.814 Y82.048 E0.01887
G1 X133.095 Y82.303 E0.01893
G1 X133.315 Y82.612 E0.01892
G1 X133.467 Y82.959 E0.0189
G1 X133.55 Y83.5 E0.02731
G1 X133.55 Y118.5 E1.74616
G1 X133.51 Y118.877 E0.01891
G1 X133.392 Y119.237 E0.0189
G1 X133.202 Y119.564 E0.01887
G1 X132.947 Y119.845 E0.01893
G1 X132.638 Y120.065 E0.01892
G1 X132.291 Y120.217 E0.0189
G1 X131.75 Y120.3 E0.02731
G1 X116.25 Y120.3 E0.7733
G1 X115.873 Y120.26 E0.01891
G1 X115.513 Y120.142 E0.0189
G1 X115.186 Y119.952 E0.01887
G1 X114.905 Y119.697 E0.01893
G1 X114.685 Y119.388 E0.01892
G1 X114.533 Y119.041 E0.0189
G1 X114.45 Y118.5 E0.02731
G1 X114.45 Y83.5 E1.74616
G1 X114.49 Y83.123 E0.01891
G1 X114.608 Y82.763 E0.0189
G1 X114.798 Y82.436 E0.01887
G0 F3600 X115.195 Y82.579
G1 F1800 X115.443 Y82.356 E0.01664
G1 X115.737 Y82.197 E0.01668
G1 X116.061 Y82.113 E0.0167
G1 X116.25 Y82.1 E0.00945
G1 X120.25 Y82.1 E0.19956
G1 X120.582 Y82.14 E0.01668
G1 X120.894 Y82.257 E0.01662
G1 X121.171 Y82.445 E0.0167
G1 X121.394 Y82.693 E0.01664
G1 X121.553 Y82.987 E0.01668
G1 X121.637 Y83.311 E0.0167
G1 X121.65 Y83.5 E0.00945
G1 X121.65 Y113.1 E1.47675
G1 X126.35 Y113.1 E0.23448
G1 X126.35 Y83.5 E1.47675
G1 X126.39 Y83.168 E0.01668
G1 X126.507 Y82.856 E0.01662
G1 X126.695 Y82.579 E0.0167
G1 X126.943 Y82.356 E0.01664
G1 X127.237 Y82.197 E0.01668
G1 X127.561 Y82.113 E0.0167
G1 X127.75 Y82.1 E0.00945
G1 X131.75 Y82.1 E0.19956
G1 X132.082 Y82.14 E0.01668
G1 X132.394 Y82.257 E0.01662
G1 X132.671 Y82.445 E0.0167
G1 X132.894 Y82.693 E0.01664
G1 X133.053 Y82.987 E0.01668
G1 X133.137 Y83.311 E0.0167
G1 X133.15 Y83.5 E0.00945
G1 X133.15 Y118.5 E1.74616
G1 X133.11 Y118.832 E0.01668
G1 X132.993 Y119.144 E0.01662
G1 X132.805 Y119.421 E0.0167
G1 X132.557 Y119.644 E0.01664
G1 X132.263 Y119.803 E0.01668
G1 X131.939 Y119.887 E0.0167
G1 X131.75 Y119.9 E0.00945
G1 X116.25 Y119.9 E0.7733
G1 X115.918 Y119.86 E0.01668
G1 X115.606 Y119.743 E0.01662
G1 X115.329 Y119.555 E0.0167
G1 X115.106 Y119.307 E0.01664
G1 X114.947 Y119.013 E0.01668
G1 X114.863 Y118.689 E0.0167
G1 X114.85 Y118.5 E0.00945
G1 X114.85 Y83.5 E1.74616
G1 X114.89 Y83.168 E0.01668
G1 X115.007 Y82.856 E0.01662
G1 X115.195 Y82.579 E0.0167
G0 F3600 X115.406 Y82.964
G1 F1800 X115.589 Y82.749 E0.01409
G1 X115.825 Y82.595 E0.01406
G1 X116.095 Y82.512 E0.01409
G1 X116.25 Y82.5 E0.00776
G1 X120.25 Y82.5 E0.19956
G1 X120.529 Y82.54 E0.01406
G1 X120.786 Y82.656 E0.01407
G1 X121.001 Y82.839 E0.01409
G1 X121.155 Y83.075 E0.01406
G1 X121.238 Y83.345 E0.01409
G1 X121.25 Y83.5 E0.00776
G1 X121.25 Y113.5 E1.49671
G1 X126.75 Y113.5 E0.2744
G1 X126.75 Y83.5 E1.49671
G1 X126.79 Y83.221 E0.01406
G1 X126.906 Y82.964 E0.01407
G1 X127.089 Y82.749 E0.01409
G1 X127.325 Y82.595 E0.01406
G1 X127.595 Y82.512 E0.01409
G1 X127.75 Y82.5 E0.00776
G1 X131.75 Y82.5 E0.19956
G1 X132.029 Y82.54 E0.01406
G1 X132.286 Y82.656 E0.01407
G1 X132.501 Y82.839 E0.01409
G1 X132.655 Y83.075 E0.01406
G1 X132.738 Y83.345 E0.01409
G1 X132.75 Y83.5 E0.00776
G1 X132.75 Y118.5 E1.74616
G1 X132.71 Y118.779 E0.01406
G1 X132.594 Y119.036 E0.01407
G1 X132.411 Y119.251 E0.01409
G1 X132.175 Y119.405 E0.01406
G1 X131.905 Y119.488 E0.01409
G1 X131.75 Y119.5 E0.00776
G1 X116.25 Y119.5 E0.7733
G1 X115.971 Y119.46 E0.01406
G1 X115.714 Y119.344 E0.01407
G1 X115.499 Y119.161 E0.01409
G1 X115.345 Y118.925 E0.01406
G1 X115.262 Y118.655 E0.01409
G1 X115.25 Y118.5 E0.00776
G1 X115.25 Y83.5 E1.74616
G1 X115.29 Y83.221 E0.01406
G1 X115.406 Y82.964 E0.01407
G0 F3600 X115.803 Y83.099
G1 F1800 X115.976 Y82.966 E0.01089
G1 X116.25 Y82.9 E0.01406
G1 X120.25 Y82.9 E0.19956
G1 X120.465 Y82.94 E0.01091
G1 X120.651 Y83.053 E0.01086
G1 X120.784 Y83.226 E0.01089
G1 X120.85 Y83.5 E0.01406
G1 X120.85 Y113.9 E1.51666
G1 X127.15 Y113.9 E0.31431
G1 X127.15 Y83.5 E1.51666
G1 X127.19 Y83.285 E0.01091
G1 X127.303 Y83.099 E0.01086
G1 X127.476 Y82.966 E0.01089
G1 X127.75 Y82.9 E0.01406
G1 X131.75 Y82.9 E0.19956
G1 X131.965 Y82.94 E0.01091
G1 X132.151 Y83.053 E0.01086
G1 X132.284 Y83.226 E0.01089
G1 X132.35 Y83.5 E0.01406
G1 X132.35 Y118.5 E1.74616
G1 X132.31 Y118.715 E0.01091
G1 X132.197 Y118.901 E0.01086
G1 X132.024 Y119.034 E0.01089
G1 X131.75 Y119.1 E0.01406
G1 X116.25 Y119.1 E0.7733
G1 X116.035 Y119.06 E0.01091
G1 X115.849 Y118.947 E0.01086
G1 X115.716 Y118.774 E0.01089
G1 X115.65 Y118.5 E0.01406
G1 X115.65 Y83.5 E1.74616
G1 X115.69 Y83.285 E0.01091
G1 X115.803 Y83.099 E0.01086
G0 F3600 X116.089 Y83.381
G1 F1800 X116.25 Y83.3 E0.00899
G1 X120.25 Y83.3 E0.19956
G1 X120.369 Y83.339 E0.00625
G1 X120.45 Y83.5 E0.00899
G1 X120.45 Y114.3 E1.53662
G1 X127.55 Y114.3 E0.35422
G1 X127.55 Y83.5 E1.53662
G1 X127.589 Y83.381 E0.00625
G1 X127.75 Y83.3 E0.00899
G1 X131.75 Y83.3 E0.19956
G1 X131.869 Y83.339 E0.00625
G1 X131.95 Y83.5 E0.00899
G1 X131.95 Y118.5 E1.74616
G1 X131.911 Y118.619 E0.00625
G1 X131.75 Y118.7 E0.00899
G1 X116.25 Y118.7 E0.7733
G1 X116.131 Y118.661 E0.00625
G1 X116.05 Y118.5 E0.00899
G1 X116.05 Y83.5 E1.74616
G1 X116.089 Y83.381 E0.00625
G1 F1500 E-6.5
G0 F3600 X115.585 Y83.381
G0 X112.95 Y80
G1 F1500 E6.5
G1 F1800 X112.95 Y120 E1.99561
G1 X112.91 Y120.377 E0.01891
G1 X112.792 Y120.737 E0.0189
G1 X112.602 Y121.064 E0.01887
G1 X112.347 Y121.345 E0.01893
G1 X112.038 Y121.565 E0.01892
G1 X111.691 Y121.717 E0.0189
G1 X111.15 Y121.8 E0.02731
G1 X88.85 Y121.8 E1.11255
G1 X88.473 Y121.76 E0.01891
G1 X88.113 Y121.642 E0.0189
G1 X87.786 Y121.452 E0.01887
G1 X87.505 Y121.197 E0.01893
G1 X87.285 Y120.888 E0.01892
G1 X87.133 Y120.541 E0.0189
G1 X87.05 Y120 E0.02731
G1 X87.05 Y80 E1.99561
G1 X87.09 Y79.623 E0.01891
G1 X87.208 Y79.263 E0.0189
G1 X87.398 Y78.936 E0.01887
G1 X87.653 Y78.655 E0.01893
G1 X87.962 Y78.435 E0.01892
G1 X88.309 Y78.283 E0.0189
G1 X88.85 Y78.2 E0.02731
G1 X93.85 Y78.2 E0.24945
G1 X94.227 Y78.24 E0.01891
G1 X94.587 Y78.358 E0.0189
G1 X94.914 Y78.548 E0.01887
G1 X95.195 Y78.803 E0.01893
G1 X95.415 Y79.112 E0.01892
G1 X95.567 Y79.459 E0.0189
G1 X95.65 Y80 E0.02731
G1 X95.65 Y84 E0.19956
G1 X95.61 Y84.377 E0.01891
G1 X95.492 Y84.737 E0.0189
G1 X95.302 Y85.064 E0.01887
G1 X95.047 Y85.345 E0.01893
G1 X94.738 Y85.565 E0.01892
G1 X94.65 Y85.604 E0.0048
G1 X94.65 Y114.2 E1.42666
G1 X105.35 Y114.2 E0.53383
G1 X105.35 Y85.605 E1.42661
G1 X105.086 Y85.452 E0.01522
G1 X104.805 Y85.197 E0.01893
G1 X104.585 Y84.888 E0.01892
G1 X104.433 Y84.541 E0.0189
G1 X104.35 Y84 E0.02731
G1 X104.35 Y80 E0.19956
G1 X104.39 Y79.623 E0.01891
G1 X104.508 Y79.263 E0.0189
G1 X104.698 Y78.936 E0.01887
G1 X104.953 Y78.655 E0.01893
G1 X105.262 Y78.435 E0.01892
G1 X105.609 Y78.283 E0.0189
G1 X106.15 Y78.2 E0.02731
G1 X111.15 Y78.2 E0.24945
G1 X111.527 Y78.24 E0.01891
G1 X111.887 Y78.358 E0.0189
G1 X112.214 Y78.548 E0.01887
G1 X112.495 Y78.803 E0.01893
G1 X112.715 Y79.112 E0.01892
G1 X112.867 Y79.459 E0.0189
G1 X112.95 Y80 E0.02731
G0 F3600 X112.55 Y80
G1 F1800 X112.55 Y120 E1.99561
G1 X112.51 Y120.332 E0.01668
G1 X112.393 Y120.644 E0.01662
G1 X112.205 Y120.921 E0.0167
G1 X111.957 Y121.144 E0.01664
G1 X111.663 Y121.303 E0.01668
G1 X111.339 Y121.387 E0.0167
G1 X111.15 Y121.4 E0.00945
G1 X88.85 Y121.4 E1.11255
G1 X88.518 Y121.36 E0.01668
G1 X88.206 Y121.243 E0.01662
G1 X87.929 Y121.055 E0.0167
G1 X87.706 Y120.807 E0.01664
G1 X87.547 Y120.513 E0.01668
G1 X87.463 Y120.189 E0.0167
G1 X87.45 Y120 E0.00945
G1 X87.45 Y80 E1.99561
G1 X87.49 Y79.668 E0.01668
G1 X87.607 Y79.356 E0.01662
G1 X87.795 Y79.079 E0.0167
G1 X88.043 Y78.856 E0.01664
G1 X88.337 Y78.697 E0.01668
G1 X88.661 Y78.613 E0.0167
G1 X88.85 Y78.6 E0.00945
G1 X93.85 Y78.6 E0.24945
G1 X94.182 Y78.64 E0.01668
G1 X94.494 Y78.757 E0.01662
G1 X94.771 Y78.945 E0.0167
G1 X94.994 Y79.193 E0.01664
G1 X95.153 Y79.487 E0.01668
G1 X95.237 Y79.811 E0.0167
G1 X95.25 Y80 E0.00945
G1 X95.25 Y84 E0.19956
G1 X95.21 Y84.332 E0.01668
G1 X95.093 Y84.644 E0.01662
G1 X94.905 Y84.921 E0.0167
G1 X94.657 Y85.144 E0.01664
G1 X94.363 Y85.303 E0.01668
G1 X94.25 Y85.332 E0.00582
G1 X94.25 Y114.6 E1.46019
G1 X105.75 Y114.6 E0.57374
G1 X105.75 Y85.335 E1.46004
G1 X105.506 Y85.243 E0.01301
G1 X105.229 Y85.055 E0.0167
G1 X105.006 Y84.807 E0.01664
G1 X104.847 Y84.513 E0.01668
G1 X104.763 Y84.189 E0.0167
G1 X104.75 Y84 E0.00945
G1 X104.75 Y80 E0.19956
G1 X104.79 Y79.668 E0.01668
G1 X104.907 Y79.356 E0.01662
G1 X105.095 Y79.079 E0.0167
G1 X105.343 Y78.856 E0.01664
G1 X105.637 Y78.697 E0.01668
G1 X105.961 Y78.613 E0.0167
G1 X106.15 Y78.6 E0.00945
G1 X111.15 Y78.6 E0.24945
G1 X111.482 Y78.64 E0.01668
G1 X111.794 Y78.757 E0.01662
G1 X112.071 Y78.945 E0.0167
G1 X112.294 Y79.193 E0.01664
G1 X112.453 Y79.487 E0.01668
G1 X112.537 Y79.811 E0.0167
G1 X112.55 Y80 E0.00945
G0 F3600 X112.15 Y80
G1 F1800 X112.15 Y120 E1.99561
G1 X112.11 Y120.279 E0.01406
G1 X111.994 Y120.536 E0.01407
G1 X111.811 Y120.751 E0.01409
G1 X111.575 Y120.905 E0.01406
G1 X111.305 Y120.988 E0.01409
G1 X111.15 Y121 E0.00776
G1 X88.85 Y121 E1.11255
G1 X88.571 Y120.96 E0.01406
G1 X88.314 Y120.844 E0.01407
G1 X88.099 Y120.661 E0.01409
G1 X87.945 Y120.425 E0.01406
G1 X87.862 Y120.155 E0.01409
G1 X87.85 Y120 E0.00776
G1 X87.85 Y80 E1.99561
G1 X87.89 Y79.721 E0.01406
G1 X88.006 Y79.464 E0.01407
G1 X88.189 Y79.249 E0.01409
G1 X88.425 Y79.095 E0.01406
G1 X88.695 Y79.012 E0.01409
G1 X88.85 Y79 E0.00776
G1 X93.85 Y79 E0.24945
G1 X94.129 Y79.04 E0.01406
G1 X94.386 Y79.156 E0.01407
G1 X94.601 Y79.339 E0.01409
G1 X94.755 Y79.575 E0.01406
G1 X94.838 Y79.845 E0.01409
G1 X94.85 Y80 E0.00776
G1 X94.85 Y84 E0.19956
G1 X94.81 Y84.279 E0.01406
G1 X94.694 Y84.536 E0.01407
G1 X94.511 Y84.751 E0.01409
G1 X94.275 Y84.905 E0.01406
G1 X94.005 Y84.988 E0.01409
G1 X93.85 Y85 E0.00776
G1 X93.85 Y115 E1.49671
G1 X106.15 Y115 E0.61365
G1 X106.15 Y85 E1.49671
G1 X105.871 Y84.96 E0.01406
G1 X105.614 Y84.844 E0.01407
G1 X105.399 Y84.661 E0.01409
G1 X105.245 Y84.425 E0.01406
G1 X105.162 Y84.155 E0.01409
G1 X105.15 Y84 E0.00776
G1 X105.15 Y80 E0.19956
G1 X105.19 Y79.721 E0.01406
G1 X105.306 Y79.464 E0.01407
G1 X105.489 Y79.249 E0.01409
G1 X105.725 Y79.095 E0.01406
G1 X105.995 Y79.012 E0.01409
G1 X106.15 Y79 E0.00776
G1 X111.15 Y79 E0.24945
G1 X111.429 Y79.04 E0.01406
G1 X111.686 Y79.156 E0.01407
G1 X111.901 Y79.339 E0.01409
G1 X112.055 Y79.575 E0.01406
G1 X112.138 Y79.845 E0.01409
G1 X112.15 Y80 E0.00776
G0 F3600 X111.75 Y80
G1 F1800 X111.75 Y120 E1.99561
G1 X111.71 Y120.215 E0.01091
G1 X111.597 Y120.401 E0.01086
G1 X111.424 Y120.534 E0.01089
G1 X111.15 Y120.6 E0.01406
G1 X88.85 Y120.6 E1.11255
G1 X88.635 Y120.56 E0.01091
G1 X88.449 Y120.447 E0.01086
G1 X88.316 Y120.274 E0.01089
G1 X88.25 Y120 E0.01406
G1 X88.25 Y80 E1.99561
G1 X88.29 Y79.785 E0.01091
G1 X88.403 Y79.599 E0.01086
G1 X88.576 Y79.466 E0.01089
G1 X88.85 Y79.4 E0.01406
G1 X93.85 Y79.4 E0.24945
G1 X94.065 Y79.44 E0.01091
G1 X94.251 Y79.553 E0.01086
G1 X94.384 Y79.726 E0.01089
G1 X94.45 Y80 E0.01406
G1 X94.45 Y84 E0.19956
G1 X94.41 Y84.215 E0.01091
G1 X94.297 Y84.401 E0.01086
G1 X94.124 Y84.534 E0.01089
G1 X93.85 Y84.6 E0.01406
G1 X93.45 Y84.6 E0.01996
G1 X93.45 Y115.4 E1.53662
G1 X106.55 Y115.4 E0.65356
G1 X106.55 Y84.6 E1.53662
G1 X106.15 Y84.6 E0.01996
G1 X105.935 Y84.56 E0.01091
G1 X105.749 Y84.447 E0.01086
G1 X105.616 Y84.274 E0.01089
G1 X105.55 Y84 E0.01406
G1 X105.55 Y80 E0.19956
G1 X105.59 Y79.785 E0.01091
G1 X105.703 Y79.599 E0.01086
G1 X105.876 Y79.466 E0.01089
G1 X106.15 Y79.4 E0.01406
G1 X111.15 Y79.4 E0.24945
G1 X111.365 Y79.44 E0.01091
G1 X111.551 Y79.553 E0.01086
G1 X111.684 Y79.726 E0.01089
G1 X111.75 Y80 E0.01406
G0 F3600 X111.35 Y80
G1 F1800 X111.35 Y120 E1.99561
G1 X111.311 Y120.119 E0.00625
G1 X111.15 Y120.2 E0.00899
G1 X88.85 Y120.2 E1.11255
G1 X88.731 Y120.161 E0.00625
G1 X88.65 Y120 E0.00899
G1 X88.65 Y80 E1.99561
G1 X88.689 Y79.881 E0.00625
G1 X88.85 Y79.8 E0.00899
G1 X93.85 Y79.8 E0.24945
G1 X93.969 Y79.839 E0.00625
G1 X94.05 Y80 E0.00899
G1 X94.05 Y84 E0.19956
G1 X94.011 Y84.119 E0.00625
G1 X93.85 Y84.2 E0.00899
G1 X93.05 Y84.2 E0.03991
G1 X93.05 Y115.8 E1.57653
G1 X106.95 Y115.8 E0.69347
G1 X106.95 Y84.2 E1.57653
G1 X106.15 Y84.2 E0.03991
G1 X106.031 Y84.161 E0.00625
G1 X105.95 Y84 E0.00899
G1 X105.95 Y80 E0.19956
G1 X105.989 Y79.881 E0.00625
G1 X106.15 Y79.8 E0.00899
G1 X111.15 Y79.8 E0.24945
G1 X111.269 Y79.839 E0.00625
G1 X111.35 Y80 E0.00899
G1 F1500 E-6.5
G0 F3600 X111.815 Y80
G0 X111.803 Y120.653
G0 X88.197 Y120.653
G0 X86.55 Y84.25
G1 F1500 E6.5
G1 F1800 X86.55 Y125.75 E2.07044
G1 X86.51 Y126.127 E0.01891
G1 X86.392 Y126.487 E0.0189
G1 X86.202 Y126.814 E0.01887
G1 X85.947 Y127.095 E0.01893
G1 X85.638 Y127.315 E0.01892
G1 X85.291 Y127.467 E0.0189
G1 X84.75 Y127.55 E0.02731
G1 X63.25 Y127.55 E1.07264
G1 X62.873 Y127.51 E0.01891
G1 X62.513 Y127.392 E0.0189
G1 X62.186 Y127.202 E0.01887
G1 X61.905 Y126.947 E0.01893
G1 X61.685 Y126.638 E0.01892
G1 X61.533 Y126.291 E0.0189
G1 X61.45 Y125.75 E0.02731
G1 X61.45 Y84.25 E2.07044
G1 X61.49 Y83.873 E0.01891
G1 X61.608 Y83.513 E0.0189
G1 X61.798 Y83.186 E0.01887
G1 X62.053 Y82.905 E0.01893
G1 X62.362 Y82.685 E0.01892
G1 X62.709 Y82.533 E0.0189
G1 X63.25 Y82.45 E0.02731
G1 X67.25 Y82.45 E0.19956
G1 X67.627 Y82.49 E0.01891
G1 X67.987 Y82.608 E0.0189
G1 X68.314 Y82.798 E0.01887
G1 X68.595 Y83.053 E0.01893
G1 X68.815 Y83.362 E0.01892
G1 X68.967 Y83.709 E0.0189
G1 X69.05 Y84.25 E0.02731
G1 X69.05 Y119.95 E1.78108
G1 X78.95 Y119.95 E0.49391
G1 X78.95 Y84.25 E1.78108
G1 X78.99 Y83.873 E0.01891
G1 X79.108 Y83.513 E0.0189
G1 X79.298 Y83.186 E0.01887
G1 X79.553 Y82.905 E0.01893
G1 X79.862 Y82.685 E0.01892
G1 X80.209 Y82.533 E0.0189
G1 X80.75 Y82.45 E0.02731
G1 X84.75 Y82.45 E0.19956
G1 X85.127 Y82.49 E0.01891
G1 X85.487 Y82.608 E0.0189
G1 X85.814 Y82.798 E0.01887
G1 X86.095 Y83.053 E0.01893
G1 X86.315 Y83.362 E0.01892
G1 X86.467 Y83.709 E0.0189
G1 X86.55 Y84.25 E0.02731
G0 F3600 X86.15 Y84.25
G1 F1800 X86.15 Y125.75 E2.07044
G1 X86.11 Y126.082 E0.01668
G1 X85.993 Y126.394 E0.01662
G1 X85.805 Y126.671 E0.0167
G1 X85.557 Y126.894 E0.01664
G1 X85.263 Y127.053 E0.01668
G1 X84.939 Y127.137 E0.0167
G1 X84.75 Y127.15 E0.00945
G1 X63.25 Y127.15 E1.07264
G1 X62.918 Y127.11 E0.01668
G1 X62.606 Y126.993 E0.01662
G1 X62.329 Y126.805 E0.0167
G1 X62.106 Y126.557 E0.01664
G1 X61.947 Y126.263 E0.01668
G1 X61.863 Y125.939 E0.0167
G1 X61.85 Y125.75 E0.00945
G1 X61.85 Y84.25 E2.07044
G1 X61.89 Y83.918 E0.01668
G1 X62.007 Y83.606 E0.01662
G1 X62.195 Y83.329 E0.0167
G1 X62.443 Y83.106 E0.01664
G1 X62.737 Y82.947 E0.01668
G1 X63.061 Y82.863 E0.0167
G1 X63.25 Y82.85 E0.00945
G1 X67.25 Y82.85 E0.19956
G1 X67.582 Y82.89 E0.01668
G1 X67.894 Y83.007 E0.01662
