;FLAVOR:RepRap
;TIME:2626
;Filament used: 1.45362m
;Layer height: 0.1
;Generated with Cura_SteamEngine 3.2.1
T0
M190 S50
M104 S210
M109 S210
M82 ;absolute extrusion mode
G28 ;Home
G1 Z15.0 F6000 ;Move the platform down 15mm
;Prime the extruder
G92 E0
G1 F200 E3
G92 E0
M83 ;relative extrusion mode
;LAYER_COUNT:59
;LAYER:0
M107
G0 F3600 X65.053 Y82.155 Z0.3
;TYPE:SKIRT
G1 F1800 X65.362 Y81.935 E0.01892
G1 X65.709 Y81.783 E0.0189
G1 X66.25 Y81.7 E0.02731
G1 X70.25 Y81.7 E0.19956
G1 X70.627 Y81.74 E0.01891
G1 X70.987 Y81.858 E0.0189
G1 X71.314 Y82.048 E0.01887
G1 X71.595 Y82.303 E0.01893
G1 X71.815 Y82.612 E0.01892
G1 X71.967 Y82.959 E0.0189
G1 X72.05 Y83.5 E0.02731
G1 X72.05 Y112.7 E1.45679
G1 X79.95 Y112.7 E0.39413
G1 X79.95 Y83.5 E1.45679
G1 X79.99 Y83.123 E0.01891
G1 X80.108 Y82.763 E0.0189
G1 X80.298 Y82.436 E0.01887
G1 X80.553 Y82.155 E0.01893
G1 X80.862 Y81.935 E0.01892
G1 X81.209 Y81.783 E0.0189
G1 X81.75 Y81.7 E0.02731
G1 X85.75 Y81.7 E0.19956
G1 X86.127 Y81.74 E0.01891
G1 X86.487 Y81.858 E0.0189
G1 X86.8 Y82.04 E0.01806
G1 X86.8 Y80 E0.10178
G1 X86.84 Y79.623 E0.01891
G1 X86.958 Y79.263 E0.0189
G1 X87.148 Y78.936 E0.01887
G1 X87.403 Y78.655 E0.01893
G1 X87.712 Y78.435 E0.01892
G1 X88.059 Y78.283 E0.0189
G1 X88.6 Y78.2 E0.02731
G1 X93.6 Y78.2 E0.24945
G1 X93.977 Y78.24 E0.01891
G1 X94.337 Y78.358 E0.0189
G1 X94.664 Y78.548 E0.01887
G1 X94.945 Y78.803 E0.01893
G1 X95.165 Y79.112 E0.01892
G1 X95.317 Y79.459 E0.0189
G1 X95.4 Y80 E0.02731
G1 X95.4 Y84 E0.19956
G1 X95.36 Y84.377 E0.01891
G1 X95.242 Y84.737 E0.0189
G1 X95.052 Y85.064 E0.01887
G1 X94.797 Y85.345 E0.01893
G1 X94.488 Y85.565 E0.01892
G1 X94.4 Y85.604 E0.0048
G1 X94.4 Y116.2 E1.52644
G1 X105.6 Y116.2 E0.55877
G1 X105.6 Y85.605 E1.52639
G1 X105.336 Y85.452 E0.01522
G1 X105.055 Y85.197 E0.01893
G1 X104.835 Y84.888 E0.01892
G1 X104.683 Y84.541 E0.0189
G1 X104.6 Y84 E0.02731
G1 X104.6 Y80 E0.19956
G1 X104.64 Y79.623 E0.01891
G1 X104.758 Y79.263 E0.0189
G1 X104.948 Y78.936 E0.01887
G1 X105.203 Y78.655 E0.01893
G1 X105.512 Y78.435 E0.01892
G1 X105.859 Y78.283 E0.0189
G1 X106.4 Y78.2 E0.02731
G1 X111.4 Y78.2 E0.24945
G1 X111.777 Y78.24 E0.01891
G1 X112.137 Y78.358 E0.0189
G1 X112.464 Y78.548 E0.01887
G1 X112.745 Y78.803 E0.01893
G1 X112.965 Y79.112 E0.01892
G1 X113.117 Y79.459 E0.0189
G1 X113.2 Y80 E0.02731
G1 X113.2 Y120 E1.99561
G1 X113.16 Y120.377 E0.01891
G1 X113.042 Y120.737 E0.0189
G1 X112.852 Y121.064 E0.01887
G1 X112.597 Y121.345 E0.01893
G1 X112.288 Y121.565 E0.01892
G1 X111.941 Y121.717 E0.0189
G1 X111.4 Y121.8 E0.02731
G1 X88.6 Y121.8 E1.1375
G1 X88.223 Y121.76 E0.01891
G1 X87.863 Y121.642 E0.0189
G1 X87.536 Y121.452 E0.01887
G1 X87.255 Y121.197 E0.01893
G1 X87.035 Y120.888 E0.01892
G1 X86.883 Y120.541 E0.0189
G1 X86.8 Y120 E0.02731
G1 X86.8 Y119.95 E0.00249
G1 X86.638 Y120.065 E0.00991
G1 X86.291 Y120.217 E0.0189
G1 X85.75 Y120.3 E0.02731
G1 X66.25 Y120.3 E0.97286
G1 X65.873 Y120.26 E0.01891
G1 X65.513 Y120.142 E0.0189
G1 X65.186 Y119.952 E0.01887
G1 X64.905 Y119.697 E0.01893
G1 X64.685 Y119.388 E0.01892
G1 X64.533 Y119.041 E0.0189
G1 X64.45 Y118.5 E0.02731
G1 X64.45 Y83.5 E1.74616
G1 X64.49 Y83.123 E0.01891
G1 X64.608 Y82.763 E0.0189
G1 X64.798 Y82.436 E0.01887
G1 X65.053 Y82.155 E0.01893
G0 F3600 X65.443 Y82.356
G1 F1800 X65.737 Y82.197 E0.01668
G1 X66.061 Y82.113 E0.0167
G1 X66.25 Y82.1 E0.00945
G1 X70.25 Y82.1 E0.19956
G1 X70.582 Y82.14 E0.01668
G1 X70.894 Y82.257 E0.01662
G1 X71.171 Y82.445 E0.0167
G1 X71.394 Y82.693 E0.01664
G1 X71.553 Y82.987 E0.01668
G1 X71.637 Y83.311 E0.0167
G1 X71.65 Y83.5 E0.00945
G1 X71.65 Y113.1 E1.47675
G1 X80.35 Y113.1 E0.43404
G1 X80.35 Y83.5 E1.47675
G1 X80.39 Y83.168 E0.01668
G1 X80.507 Y82.856 E0.01662
G1 X80.695 Y82.579 E0.0167
G1 X80.943 Y82.356 E0.01664
G1 X81.237 Y82.197 E0.01668
G1 X81.561 Y82.113 E0.0167
G1 X81.75 Y82.1 E0.00945
G1 X85.75 Y82.1 E0.19956
G1 X86.082 Y82.14 E0.01668
G1 X86.394 Y82.257 E0.01662
G1 X86.671 Y82.445 E0.0167
G1 X86.894 Y82.693 E0.01664
G1 X87.053 Y82.987 E0.01668
G1 X87.137 Y83.311 E0.0167
G1 X87.15 Y83.5 E0.00945
G1 X87.15 Y118.5 E1.74616
G1 X87.11 Y118.832 E0.01668
G1 X86.993 Y119.144 E0.01662
G1 X86.805 Y119.421 E0.0167
G1 X86.557 Y119.644 E0.01664
G1 X86.263 Y119.803 E0.01668
G1 X85.939 Y119.887 E0.0167
G1 X85.75 Y119.9 E0.00945
G1 X66.25 Y119.9 E0.97286
G1 X65.918 Y119.86 E0.01668
G1 X65.606 Y119.743 E0.01662
G1 X65.329 Y119.555 E0.0167
G1 X65.106 Y119.307 E0.01664
G1 X64.947 Y119.013 E0.01668
G1 X64.863 Y118.689 E0.0167
G1 X64.85 Y118.5 E0.00945
G1 X64.85 Y83.5 E1.74616
G1 X64.89 Y83.168 E0.01668
G1 X65.007 Y82.856 E0.01662
G1 X65.195 Y82.579 E0.0167
G1 X65.443 Y82.356 E0.01664
G0 F3600 X65.589 Y82.749
G1 F1800 X65.825 Y82.595 E0.01406
G1 X66.095 Y82.512 E0.01409
G1 X66.25 Y82.5 E0.00776
G1 X70.25 Y82.5 E0.19956
G1 X70.529 Y82.54 E0.01406
G1 X70.786 Y82.656 E0.01407
G1 X71.001 Y82.839 E0.01409
G1 X71.155 Y83.075 E0.01406
G1 X71.238 Y83.345 E0.01409
G1 X71.25 Y83.5 E0.00776
G1 X71.25 Y113.5 E1.49671
G1 X80.75 Y113.5 E0.47396
G1 X80.75 Y83.5 E1.49671
G1 X80.79 Y83.221 E0.01406
G1 X80.906 Y82.964 E0.01407
G1 X81.089 Y82.749 E0.01409
G1 X81.325 Y82.595 E0.01406
G1 X81.595 Y82.512 E0.01409
G1 X81.75 Y82.5 E0.00776
G1 X85.75 Y82.5 E0.19956
G1 X86.029 Y82.54 E0.01406
G1 X86.286 Y82.656 E0.01407
G1 X86.501 Y82.839 E0.01409
G1 X86.655 Y83.075 E0.01406
G1 X86.738 Y83.345 E0.01409
G1 X86.75 Y83.5 E0.00776
G1 X86.75 Y118.5 E1.74616
G1 X86.71 Y118.779 E0.01406
G1 X86.594 Y119.036 E0.01407
G1 X86.411 Y119.251 E0.01409
G1 X86.175 Y119.405 E0.01406
G1 X85.905 Y119.488 E0.01409
G1 X85.75 Y119.5 E0.00776
G1 X66.25 Y119.5 E0.97286
G1 X65.971 Y119.46 E0.01406
G1 X65.714 Y119.344 E0.01407
G1 X65.499 Y119.161 E0.01409
G1 X65.345 Y118.925 E0.01406
G1 X65.262 Y118.655 E0.01409
G1 X65.25 Y118.5 E0.00776
G1 X65.25 Y83.5 E1.74616
G1 X65.29 Y83.221 E0.01406
G1 X65.406 Y82.964 E0.01407
G1 X65.589 Y82.749 E0.01409
G0 F3600 X65.803 Y83.099
G1 F1800 X65.976 Y82.966 E0.01089
G1 X66.25 Y82.9 E0.01406
G1 X70.25 Y82.9 E0.19956
G1 X70.465 Y82.94 E0.01091
G1 X70.651 Y83.053 E0.01086
G1 X70.784 Y83.226 E0.01089
G1 X70.85 Y83.5 E0.01406
G1 X70.85 Y113.9 E1.51666
G1 X81.15 Y113.9 E0.51387
G1 X81.15 Y83.5 E1.51666
G1 X81.19 Y83.285 E0.01091
G1 X81.303 Y83.099 E0.01086
G1 X81.476 Y82.966 E0.01089
G1 X81.75 Y82.9 E0.01406
G1 X85.75 Y82.9 E0.19956
G1 X85.965 Y82.94 E0.01091
G1 X86.151 Y83.053 E0.01086
G1 X86.284 Y83.226 E0.01089
G1 X86.35 Y83.5 E0.01406
G1 X86.35 Y118.5 E1.74616
G1 X86.31 Y118.715 E0.01091
G1 X86.197 Y118.901 E0.01086
G1 X86.024 Y119.034 E0.01089
G1 X85.75 Y119.1 E0.01406
G1 X66.25 Y119.1 E0.97286
G1 X66.035 Y119.06 E0.01091
G1 X65.849 Y118.947 E0.01086
G1 X65.716 Y118.774 E0.01089
G1 X65.65 Y118.5 E0.01406
G1 X65.65 Y83.5 E1.74616
G1 X65.69 Y83.285 E0.01091
G1 X65.803 Y83.099 E0.01086
G0 F3600 X66.089 Y83.381
G1 F1800 X66.25 Y83.3 E0.00899
G1 X70.25 Y83.3 E0.19956
G1 X70.369 Y83.339 E0.00625
G1 X70.45 Y83.5 E0.00899
G1 X70.45 Y114.3 E1.53662
G1 X81.55 Y114.3 E0.55378
G1 X81.55 Y83.5 E1.53662
G1 X81.589 Y83.381 E0.00625
G1 X81.75 Y83.3 E0.00899
G1 X85.75 Y83.3 E0.19956
G1 X85.869 Y83.339 E0.00625
G1 X85.95 Y83.5 E0.00899
G1 X85.95 Y118.5 E1.74616
G1 X85.911 Y118.619 E0.00625
G1 X85.75 Y118.7 E0.00899
G1 X66.25 Y118.7 E0.97286
G1 X66.131 Y118.661 E0.00625
G1 X66.05 Y118.5 E0.00899
G1 X66.05 Y83.5 E1.74616
G1 X66.089 Y83.381 E0.00625
G1 F1500 E-6.5
G0 F3600 X66.089 Y82.835
G0 X87.2 Y80
G1 F1500 E6.5
G1 F1800 X87.24 Y79.668 E0.01668
G1 X87.357 Y79.356 E0.01662
G1 X87.545 Y79.079 E0.0167
G1 X87.793 Y78.856 E0.01664
G1 X88.087 Y78.697 E0.01668
G1 X88.411 Y78.613 E0.0167
G1 X88.6 Y78.6 E0.00945
G1 X93.6 Y78.6 E0.24945
G1 X93.932 Y78.64 E0.01668
G1 X94.244 Y78.757 E0.01662
G1 X94.521 Y78.945 E0.0167
G1 X94.744 Y79.193 E0.01664
G1 X94.903 Y79.487 E0.01668
G1 X94.987 Y79.811 E0.0167
G1 X95 Y80 E0.00945
G1 X95 Y84 E0.19956
G1 X94.96 Y84.332 E0.01668
G1 X94.843 Y84.644 E0.01662
G1 X94.655 Y84.921 E0.0167
G1 X94.407 Y85.144 E0.01664
G1 X94.113 Y85.303 E0.01668
G1 X94 Y85.332 E0.00582
G1 X94 Y116.6 E1.55997
G1 X106 Y116.6 E0.59868
G1 X106 Y85.335 E1.55982
G1 X105.756 Y85.243 E0.01301
G1 X105.479 Y85.055 E0.0167
G1 X105.256 Y84.807 E0.01664
G1 X105.097 Y84.513 E0.01668
G1 X105.013 Y84.189 E0.0167
G1 X105 Y84 E0.00945
G1 X105 Y80 E0.19956
G1 X105.04 Y79.668 E0.01668
G1 X105.157 Y79.356 E0.01662
G1 X105.345 Y79.079 E0.0167
G1 X105.593 Y78.856 E0.01664
G1 X105.887 Y78.697 E0.01668
G1 X106.211 Y78.613 E0.0167
G1 X106.4 Y78.6 E0.00945
G1 X111.4 Y78.6 E0.24945
G1 X111.732 Y78.64 E0.01668
G1 X112.044 Y78.757 E0.01662
G1 X112.321 Y78.945 E0.0167
G1 X112.544 Y79.193 E0.01664
G1 X112.703 Y79.487 E0.01668
G1 X112.787 Y79.811 E0.0167
G1 X112.8 Y80 E0.00945
G1 X112.8 Y120 E1.99561
G1 X112.76 Y120.332 E0.01668
G1 X112.643 Y120.644 E0.01662
G1 X112.455 Y120.921 E0.0167
G1 X112.207 Y121.144 E0.01664
G1 X111.913 Y121.303 E0.01668
G1 X111.589 Y121.387 E0.0167
G1 X111.4 Y121.4 E0.00945
G1 X88.6 Y121.4 E1.1375
G1 X88.268 Y121.36 E0.01668
G1 X87.956 Y121.243 E0.01662
G1 X87.679 Y121.055 E0.0167
G1 X87.456 Y120.807 E0.01664
G1 X87.297 Y120.513 E0.01668
G1 X87.213 Y120.189 E0.0167
G1 X87.2 Y120 E0.00945
G1 X87.2 Y80 E1.99561
G0 F3600 X87.6 Y80
G1 F1800 X87.64 Y79.721 E0.01406
G1 X87.756 Y79.464 E0.01407
G1 X87.939 Y79.249 E0.01409
G1 X88.175 Y79.095 E0.01406
G1 X88.445 Y79.012 E0.01409
G1 X88.6 Y79 E0.00776
G1 X93.6 Y79 E0.24945
G1 X93.879 Y79.04 E0.01406
G1 X94.136 Y79.156 E0.01407
G1 X94.351 Y79.339 E0.01409
G1 X94.505 Y79.575 E0.01406
G1 X94.588 Y79.845 E0.01409
G1 X94.6 Y80 E0.00776
G1 X94.6 Y84 E0.19956
G1 X94.56 Y84.279 E0.01406
G1 X94.444 Y84.536 E0.01407
G1 X94.261 Y84.751 E0.01409
G1 X94.025 Y84.905 E0.01406
G1 X93.755 Y84.988 E0.01409
G1 X93.6 Y85 E0.00776
G1 X93.6 Y117 E1.59649
G1 X106.4 Y117 E0.63859
G1 X106.4 Y85 E1.59649
G1 X106.121 Y84.96 E0.01406
G1 X105.864 Y84.844 E0.01407
G1 X105.649 Y84.661 E0.01409
G1 X105.495 Y84.425 E0.01406
G1 X105.412 Y84.155 E0.01409
G1 X105.4 Y84 E0.00776
G1 X105.4 Y80 E0.19956
G1 X105.44 Y79.721 E0.01406
G1 X105.556 Y79.464 E0.01407
G1 X105.739 Y79.249 E0.01409
G1 X105.975 Y79.095 E0.01406
G1 X106.245 Y79.012 E0.01409
G1 X106.4 Y79 E0.00776
G1 X111.4 Y79 E0.24945
G1 X111.679 Y79.04 E0.01406
G1 X111.936 Y79.156 E0.01407
G1 X112.151 Y79.339 E0.01409
G1 X112.305 Y79.575 E0.01406
G1 X112.388 Y79.845 E0.01409
G1 X112.4 Y80 E0.00776
G1 X112.4 Y120 E1.99561
G1 X112.36 Y120.279 E0.01406
G1 X112.244 Y120.536 E0.01407
G1 X112.061 Y120.751 E0.01409
G1 X111.825 Y120.905 E0.01406
G1 X111.555 Y120.988 E0.01409
G1 X111.4 Y121 E0.00776
G1 X88.6 Y121 E1.1375
G1 X88.321 Y120.96 E0.01406
G1 X88.064 Y120.844 E0.01407
G1 X87.849 Y120.661 E0.01409
G1 X87.695 Y120.425 E0.01406
G1 X87.612 Y120.155 E0.01409
G1 X87.6 Y120 E0.00776
G1 X87.6 Y80 E1.99561
G0 F3600 X88 Y80
G1 F1800 X88.04 Y79.785 E0.01091
G1 X88.153 Y79.599 E0.01086
G1 X88.326 Y79.466 E0.01089
G1 X88.6 Y79.4 E0.01406
G1 X93.6 Y79.4 E0.24945
G1 X93.815 Y79.44 E0.01091
G1 X94.001 Y79.553 E0.01086
G1 X94.134 Y79.726 E0.01089
G1 X94.2 Y80 E0.01406
G1 X94.2 Y84 E0.19956
G1 X94.16 Y84.215 E0.01091
G1 X94.047 Y84.401 E0.01086
G1 X93.874 Y84.534 E0.01089
G1 X93.6 Y84.6 E0.01406
G1 X93.2 Y84.6 E0.01996
G1 X93.2 Y117.4 E1.6364
G1 X106.8 Y117.4 E0.67851
G1 X106.8 Y84.6 E1.6364
G1 X106.4 Y84.6 E0.01996
G1 X106.185 Y84.56 E0.01091
G1 X105.999 Y84.447 E0.01086
G1 X105.866 Y84.274 E0.01089
G1 X105.8 Y84 E0.01406
G1 X105.8 Y80 E0.19956
G1 X105.84 Y79.785 E0.01091
G1 X105.953 Y79.599 E0.01086
G1 X106.126 Y79.466 E0.01089
G1 X106.4 Y79.4 E0.01406
G1 X111.4 Y79.4 E0.24945
G1 X111.615 Y79.44 E0.01091
G1 X111.801 Y79.553 E0.01086
G1 X111.934 Y79.726 E0.01089
G1 X112 Y80 E0.01406
G1 X112 Y120 E1.99561
G1 X111.96 Y120.215 E0.01091
G1 X111.847 Y120.401 E0.01086
G1 X111.674 Y120.534 E0.01089
G1 X111.4 Y120.6 E0.01406
G1 X88.6 Y120.6 E1.1375
G1 X88.385 Y120.56 E0.01091
G1 X88.199 Y120.447 E0.01086
G1 X88.066 Y120.274 E0.01089
G1 X88 Y120 E0.01406
G1 X88 Y80 E1.99561
G0 F3600 X88.4 Y80
G1 F1800 X88.439 Y79.881 E0.00625
G1 X88.6 Y79.8 E0.00899
G1 X93.6 Y79.8 E0.24945
G1 X93.719 Y79.839 E0.00625
G1 X93.8 Y80 E0.00899
G1 X93.8 Y84 E0.19956
G1 X93.761 Y84.119 E0.00625
G1 X93.6 Y84.2 E0.00899
G1 X92.8 Y84.2 E0.03991
G1 X92.8 Y117.8 E1.67631
G1 X107.2 Y117.8 E0.71842
G1 X107.2 Y84.2 E1.67631
G1 X106.4 Y84.2 E0.03991
G1 X106.281 Y84.161 E0.00625
G1 X106.2 Y84 E0.00899
G1 X106.2 Y80 E0.19956
G1 X106.239 Y79.881 E0.00625
G1 X106.4 Y79.8 E0.00899
G1 X111.4 Y79.8 E0.24945
G1 X111.519 Y79.839 E0.00625
G1 X111.6 Y80 E0.00899
G1 X111.6 Y120 E1.99561
G1 X111.561 Y120.119 E0.00625
G1 X111.4 Y120.2 E0.00899
G1 X88.6 Y120.2 E1.1375
G1 X88.481 Y120.161 E0.00625
G1 X88.4 Y120 E0.00899
G1 X88.4 Y80 E1.99561
G1 F1500 E-6.5
G0 F3600 X87.935 Y80
G0 X85.136 Y82.835
G0 X85.136 Y84.114
G0 X82.378 Y115.128
G0 X69.622 Y115.128
G0 X69.55 Y114.7
G0 X70.05 Y114.7
;TYPE:WALL-OUTER
G1 F1500 E6.5
G1 F1800 X81.95 Y114.7 E0.59369
G1 X81.95 Y83.7 E1.5466
G1 X85.55 Y83.7 E0.1796
G1 X85.55 Y118.3 E1.7262
G1 X66.45 Y118.3 E0.9529
G1 X66.45 Y83.7 E1.7262
G1 X70.05 Y83.7 E0.1796
G1 X70.05 Y114.7 E1.5466
G0 F3600 X70.25 Y114.7
G0 X69.65 Y115.1
;TYPE:WALL-INNER
G1 F1800 X82.35 Y115.1 E0.63361
G1 X82.35 Y84.1 E1.5466
G1 X85.15 Y84.1 E0.13969
G1 X85.15 Y117.9 E1.68629
G1 X66.85 Y117.9 E0.91299
G1 X66.85 Y84.1 E1.68629
G1 X69.65 Y84.1 E0.13969
G1 X69.65 Y115.1 E1.5466
G0 F3600 X69.26 Y115.49
;TYPE:SKIN
G1 F1800 X82.74 Y115.49 E0.67252
G1 X82.74 Y84.49 E1.5466
G1 X84.76 Y84.49 E0.10078
G1 X84.76 Y117.51 E1.64737
G1 X67.24 Y117.51 E0.87408
G1 X67.24 Y84.49 E1.64737
G1 X69.26 Y84.49 E0.10078
G1 X69.26 Y115.49 E1.5466
G0 F3600 X67.548 Y117.328
G0 X67.483 Y117.264
G1 F1800 X67.766 Y116.981 E0.02905
G1 X68.184 Y117.398
G0 F3600 X68.679 Y117.328
G1 F1800 X67.419 Y116.068 E0.0889
G1 X67.349 Y115.998
G0 F3600 X67.419 Y115.503
G1 F1800 X69.245 Y117.328 E0.1288
G1 X69.315 Y117.398
G0 F3600 X69.811 Y117.328
G1 F1800 X67.419 Y114.937 E0.16873
G1 X67.349 Y114.867
G0 F3600 X67.419 Y114.371
G1 F1800 X70.376 Y117.328 E0.20863
G1 X70.446 Y117.398
G0 F3600 X70.942 Y117.328
G1 F1800 X69.283 Y115.669 E0.11705
G1 X69.213 Y115.599
G0 F3600 X69.08 Y115.466
G1 F1800 X67.419 Y113.806 E0.11716
G1 X67.349 Y113.736
G0 F3600 X67.419 Y113.24
G1 F1800 X69.08 Y114.9 E0.11716
G1 X69.15 Y114.97
G0 F3600 X69.08 Y114.334
G1 F1800 X67.419 Y112.674 E0.11716
G1 X67.349 Y112.604
G0 F3600 X67.419 Y112.108
G1 F1800 X69.08 Y113.769 E0.11719
G1 X69.15 Y113.839
G0 F3600 X69.08 Y113.203
G1 F1800 X67.419 Y111.543 E0.11716
G1 X67.349 Y111.473
G0 F3600 X67.419 Y110.977
G1 F1800 X69.08 Y112.637 E0.11716
G1 X69.15 Y112.707
G0 F3600 X69.08 Y112.072
G1 F1800 X67.419 Y110.411 E0.11719
G1 X67.349 Y110.341
G0 F3600 X67.419 Y109.846
G1 F1800 X69.08 Y111.506 E0.11716
G1 X69.15 Y111.576
G0 F3600 X69.08 Y110.94
G1 F1800 X67.419 Y109.28 E0.11716
G1 X67.349 Y109.21
G0 F3600 X67.419 Y108.714
G1 F1800 X69.08 Y110.375 E0.11719
G1 X69.15 Y110.445
G0 F3600 X69.08 Y109.809
G1 F1800 X67.419 Y108.149 E0.11716
G1 X67.349 Y108.079
G0 F3600 X67.419 Y107.583
G1 F1800 X69.08 Y109.243 E0.11716
G1 X69.15 Y109.313
G0 F3600 X69.08 Y108.678
G1 F1800 X67.419 Y107.017 E0.11719
G1 X67.349 Y106.947
G0 F3600 X67.419 Y106.452
G1 F1800 X69.08 Y108.112 E0.11716
G1 X69.15 Y108.182
G0 F3600 X69.08 Y107.546
G1 F1800 X67.419 Y105.886 E0.11716
G1 X67.349 Y105.816
G0 F3600 X67.419 Y105.32
G1 F1800 X69.08 Y106.981 E0.11719
G1 X69.15 Y107.051
G0 F3600 X69.08 Y106.415
G1 F1800 X67.419 Y104.755 E0.11716
G1 X67.349 Y104.685
G0 F3600 X67.419 Y104.189
G1 F1800 X69.08 Y105.849 E0.11716
G1 X69.15 Y105.919
