;FLAVOR:RepRap
;TIME:1124
;Filament used: 1.15901m
;Layer height: 0.2
;Generated with Cura_SteamEngine 3.2.1
T0
M190 S50
M104 S210
M109 S210
M82 ;absolute extrusion mode
G28 ;Home
G1 Z15.0 F6000 ;Move the platform down 15mm
;Prime the extruder
G92 E0
G1 F200 E3
G92 E0
M83 ;relative extrusion mode
;LAYER_COUNT:93
;LAYER:0
M107
G0 F3600 X61.753 Y85.727 Z0.3
;TYPE:SKIRT
G1 F2400 X62.062 Y85.507 E0.01892
G1 X62.409 Y85.355 E0.0189
G1 X62.946 Y85.272 E0.02711
G1 X63.24 Y85.271 E0.01467
G1 X63.308 Y85.063 E0.01092
G1 X63.498 Y84.736 E0.01887
G1 X63.753 Y84.455 E0.01893
G1 X64.062 Y84.235 E0.01892
G1 X64.409 Y84.083 E0.0189
G1 X64.95 Y84 E0.02731
G1 X83.05 Y84 E0.90301
G1 X83.427 Y84.04 E0.01891
G1 X83.787 Y84.158 E0.0189
G1 X84.114 Y84.348 E0.01887
G1 X84.395 Y84.603 E0.01893
G1 X84.615 Y84.912 E0.01892
G1 X84.767 Y85.259 E0.0189
G1 X84.769 Y85.27 E0.00056
G1 X85.06 Y85.272 E0.01452
G1 X85.437 Y85.314 E0.01892
G1 X85.796 Y85.434 E0.01888
G1 X86.122 Y85.626 E0.01888
G1 X86.401 Y85.883 E0.01892
G1 X86.62 Y86.192 E0.0189
G1 X86.65 Y86.262 E0.0038
G1 X86.65 Y79.8 E0.32239
G1 X86.69 Y79.423 E0.01891
G1 X86.808 Y79.063 E0.0189
G1 X86.998 Y78.736 E0.01887
G1 X87.253 Y78.455 E0.01893
G1 X87.562 Y78.235 E0.01892
G1 X87.909 Y78.083 E0.0189
G1 X88.45 Y78 E0.02731
G1 X111.55 Y78 E1.15246
G1 X111.927 Y78.04 E0.01891
G1 X112.287 Y78.158 E0.0189
G1 X112.614 Y78.348 E0.01887
G1 X112.895 Y78.603 E0.01893
G1 X113.115 Y78.912 E0.01892
G1 X113.267 Y79.259 E0.0189
G1 X113.35 Y79.8 E0.02731
G1 X113.35 Y120.2 E2.01556
G1 X113.31 Y120.577 E0.01891
G1 X113.192 Y120.937 E0.0189
G1 X113.002 Y121.264 E0.01887
G1 X112.747 Y121.545 E0.01893
G1 X112.438 Y121.765 E0.01892
G1 X112.091 Y121.917 E0.0189
G1 X111.55 Y122 E0.02731
G1 X88.45 Y122 E1.15246
G1 X88.073 Y121.96 E0.01891
G1 X87.713 Y121.842 E0.0189
G1 X87.386 Y121.652 E0.01887
G1 X87.105 Y121.397 E0.01893
G1 X86.885 Y121.088 E0.01892
G1 X86.733 Y120.741 E0.0189
G1 X86.65 Y120.2 E0.02731
G1 X86.65 Y89.337 E1.53976
G1 X86.502 Y89.592 E0.01471
G1 X86.247 Y89.873 E0.01893
G1 X85.938 Y90.093 E0.01892
G1 X85.591 Y90.245 E0.0189
G1 X85.054 Y90.328 E0.02711
G1 X84.76 Y90.329 E0.01467
G1 X84.692 Y90.537 E0.01092
G1 X84.502 Y90.864 E0.01887
G1 X84.247 Y91.145 E0.01893
G1 X83.938 Y91.365 E0.01892
G1 X83.591 Y91.517 E0.0189
G1 X83.05 Y91.6 E0.02731
G1 X81.655 Y91.6 E0.0696
G1 X81.655 Y118.4 E1.33706
G1 X83.05 Y118.4 E0.0696
G1 X83.427 Y118.44 E0.01891
G1 X83.787 Y118.558 E0.0189
G1 X84.114 Y118.748 E0.01887
G1 X84.395 Y119.003 E0.01893
G1 X84.615 Y119.312 E0.01892
G1 X84.767 Y119.659 E0.0189
G1 X84.769 Y119.67 E0.00056
G1 X85.06 Y119.672 E0.01452
G1 X85.437 Y119.714 E0.01892
G1 X85.796 Y119.834 E0.01888
G1 X86.122 Y120.026 E0.01888
G1 X86.401 Y120.283 E0.01892
G1 X86.62 Y120.592 E0.0189
G1 X86.77 Y120.94 E0.01891
G1 X86.85 Y121.472 E0.02684
G1 X86.85 Y122.927 E0.07259
G1 X86.81 Y123.304 E0.01891
G1 X86.692 Y123.664 E0.0189
G1 X86.502 Y123.991 E0.01887
G1 X86.247 Y124.272 E0.01893
G1 X85.938 Y124.492 E0.01892
G1 X85.591 Y124.644 E0.0189
G1 X85.054 Y124.727 E0.02711
G1 X84.761 Y124.728 E0.01462
G1 X84.692 Y124.937 E0.01098
G1 X84.502 Y125.264 E0.01887
G1 X84.247 Y125.545 E0.01893
G1 X83.938 Y125.765 E0.01892
G1 X83.591 Y125.917 E0.0189
G1 X83.05 Y126 E0.02731
G1 X64.95 Y126 E0.90301
G1 X64.573 Y125.96 E0.01891
G1 X64.213 Y125.842 E0.0189
G1 X63.886 Y125.652 E0.01887
G1 X63.605 Y125.397 E0.01893
G1 X63.385 Y125.088 E0.01892
G1 X63.233 Y124.741 E0.0189
G1 X63.231 Y124.73 E0.00056
G1 X62.94 Y124.728 E0.01452
G1 X62.563 Y124.686 E0.01892
G1 X62.204 Y124.566 E0.01888
G1 X61.878 Y124.374 E0.01888
G1 X61.599 Y124.117 E0.01892
G1 X61.38 Y123.808 E0.0189
G1 X61.23 Y123.46 E0.01891
G1 X61.15 Y122.928 E0.02684
G1 X61.15 Y121.472 E0.07264
G1 X61.19 Y121.095 E0.01891
G1 X61.308 Y120.735 E0.0189
G1 X61.498 Y120.408 E0.01887
G1 X61.753 Y120.127 E0.01893
G1 X62.062 Y119.907 E0.01892
G1 X62.409 Y119.755 E0.0189
G1 X62.946 Y119.672 E0.02711
G1 X63.24 Y119.671 E0.01467
G1 X63.308 Y119.463 E0.01092
G1 X63.498 Y119.136 E0.01887
G1 X63.753 Y118.855 E0.01893
G1 X64.062 Y118.635 E0.01892
G1 X64.409 Y118.483 E0.0189
G1 X64.95 Y118.4 E0.02731
G1 X66.345 Y118.4 E0.0696
G1 X66.345 Y91.6 E1.33706
G1 X64.95 Y91.6 E0.0696
G1 X64.573 Y91.56 E0.01891
G1 X64.213 Y91.442 E0.0189
G1 X63.886 Y91.252 E0.01887
G1 X63.605 Y90.997 E0.01893
G1 X63.385 Y90.688 E0.01892
G1 X63.233 Y90.341 E0.0189
G1 X63.231 Y90.33 E0.00056
G1 X62.94 Y90.328 E0.01452
G1 X62.563 Y90.286 E0.01892
G1 X62.204 Y90.166 E0.01888
G1 X61.878 Y89.974 E0.01888
G1 X61.599 Y89.717 E0.01892
G1 X61.38 Y89.408 E0.0189
G1 X61.23 Y89.06 E0.01891
G1 X61.15 Y88.528 E0.02684
G1 X61.15 Y87.072 E0.07264
G1 X61.19 Y86.695 E0.01891
G1 X61.308 Y86.335 E0.0189
G1 X61.498 Y86.008 E0.01887
G1 X61.753 Y85.727 E0.01893
G0 F3600 X62.143 Y85.928
G1 F2400 X62.437 Y85.769 E0.01668
G1 X62.761 Y85.685 E0.0167
G1 X62.947 Y85.672 E0.0093
G1 X63.566 Y85.671 E0.03088
G1 X63.59 Y85.468 E0.0102
G1 X63.707 Y85.156 E0.01662
G1 X63.895 Y84.879 E0.0167
G1 X64.143 Y84.656 E0.01664
G1 X64.437 Y84.497 E0.01668
G1 X64.761 Y84.413 E0.0167
G1 X64.95 Y84.4 E0.00945
G1 X83.05 Y84.4 E0.90301
G1 X83.382 Y84.44 E0.01668
G1 X83.694 Y84.557 E0.01662
G1 X83.971 Y84.745 E0.0167
G1 X84.194 Y84.993 E0.01664
G1 X84.353 Y85.287 E0.01668
G1 X84.437 Y85.611 E0.0167
G1 X84.441 Y85.669 E0.0029
G1 X85.058 Y85.672 E0.03078
G1 X85.389 Y85.714 E0.01665
G1 X85.701 Y85.833 E0.01666
G1 X85.976 Y86.022 E0.01665
G1 X86.199 Y86.272 E0.01671
G1 X86.356 Y86.567 E0.01667
G1 X86.438 Y86.89 E0.01663
G1 X86.45 Y87.072 E0.0091
G1 X86.45 Y88.528 E0.07264
G1 X86.41 Y88.86 E0.01668
G1 X86.293 Y89.172 E0.01662
G1 X86.105 Y89.449 E0.0167
G1 X85.857 Y89.672 E0.01664
G1 X85.563 Y89.831 E0.01668
G1 X85.239 Y89.915 E0.0167
G1 X85.053 Y89.928 E0.0093
G1 X84.434 Y89.929 E0.03088
G1 X84.41 Y90.132 E0.0102
G1 X84.293 Y90.444 E0.01662
G1 X84.105 Y90.721 E0.0167
G1 X83.857 Y90.944 E0.01664
G1 X83.563 Y91.103 E0.01668
G1 X83.239 Y91.187 E0.0167
G1 X83.05 Y91.2 E0.00945
G1 X81.255 Y91.2 E0.08955
G1 X81.255 Y118.8 E1.37697
G1 X83.05 Y118.8 E0.08955
G1 X83.382 Y118.84 E0.01668
G1 X83.694 Y118.957 E0.01662
G1 X83.971 Y119.145 E0.0167
G1 X84.194 Y119.393 E0.01664
G1 X84.353 Y119.687 E0.01668
G1 X84.437 Y120.011 E0.0167
G1 X84.441 Y120.069 E0.0029
G1 X85.058 Y120.072 E0.03078
G1 X85.389 Y120.114 E0.01665
G1 X85.701 Y120.233 E0.01666
G1 X85.976 Y120.422 E0.01665
G1 X86.199 Y120.672 E0.01671
G1 X86.356 Y120.967 E0.01667
G1 X86.438 Y121.29 E0.01663
G1 X86.45 Y121.472 E0.0091
G1 X86.45 Y122.927 E0.07259
G1 X86.41 Y123.259 E0.01668
G1 X86.293 Y123.571 E0.01662
G1 X86.105 Y123.848 E0.0167
G1 X85.857 Y124.071 E0.01664
G1 X85.563 Y124.23 E0.01668
G1 X85.239 Y124.314 E0.0167
G1 X85.053 Y124.327 E0.0093
G1 X84.435 Y124.329 E0.03083
G1 X84.41 Y124.532 E0.0102
G1 X84.293 Y124.844 E0.01662
G1 X84.105 Y125.121 E0.0167
G1 X83.857 Y125.344 E0.01664
G1 X83.563 Y125.503 E0.01668
G1 X83.239 Y125.587 E0.0167
G1 X83.05 Y125.6 E0.00945
G1 X64.95 Y125.6 E0.90301
G1 X64.618 Y125.56 E0.01668
G1 X64.306 Y125.443 E0.01662
G1 X64.029 Y125.255 E0.0167
G1 X63.806 Y125.007 E0.01664
G1 X63.647 Y124.713 E0.01668
G1 X63.563 Y124.389 E0.0167
G1 X63.559 Y124.331 E0.0029
G1 X62.942 Y124.328 E0.03078
G1 X62.611 Y124.286 E0.01665
G1 X62.299 Y124.167 E0.01666
G1 X62.024 Y123.978 E0.01665
G1 X61.801 Y123.728 E0.01671
G1 X61.644 Y123.433 E0.01667
G1 X61.562 Y123.11 E0.01663
G1 X61.55 Y122.928 E0.0091
G1 X61.55 Y121.472 E0.07264
G1 X61.59 Y121.14 E0.01668
G1 X61.707 Y120.828 E0.01662
G1 X61.895 Y120.551 E0.0167
G1 X62.143 Y120.328 E0.01664
G1 X62.437 Y120.169 E0.01668
G1 X62.761 Y120.085 E0.0167
G1 X62.947 Y120.072 E0.0093
G1 X63.566 Y120.071 E0.03088
G1 X63.59 Y119.868 E0.0102
G1 X63.707 Y119.556 E0.01662
G1 X63.895 Y119.279 E0.0167
G1 X64.143 Y119.056 E0.01664
G1 X64.437 Y118.897 E0.01668
G1 X64.761 Y118.813 E0.0167
G1 X64.95 Y118.8 E0.00945
G1 X66.745 Y118.8 E0.08955
G1 X66.745 Y91.2 E1.37697
G1 X64.95 Y91.2 E0.08955
G1 X64.618 Y91.16 E0.01668
G1 X64.306 Y91.043 E0.01662
G1 X64.029 Y90.855 E0.0167
G1 X63.806 Y90.607 E0.01664
G1 X63.647 Y90.313 E0.01668
G1 X63.563 Y89.989 E0.0167
G1 X63.559 Y89.931 E0.0029
G1 X62.942 Y89.928 E0.03078
G1 X62.611 Y89.886 E0.01665
G1 X62.299 Y89.767 E0.01666
G1 X62.024 Y89.578 E0.01665
G1 X61.801 Y89.328 E0.01671
G1 X61.644 Y89.033 E0.01667
G1 X61.562 Y88.71 E0.01663
G1 X61.55 Y88.528 E0.0091
G1 X61.55 Y87.072 E0.07264
G1 X61.59 Y86.74 E0.01668
G1 X61.707 Y86.428 E0.01662
G1 X61.895 Y86.151 E0.0167
G1 X62.143 Y85.928 E0.01664
G0 F3600 X62.289 Y86.321
G1 F2400 X62.525 Y86.167 E0.01406
G1 X62.795 Y86.084 E0.01409
G1 X62.948 Y86.072 E0.00766
G1 X63.95 Y86.07 E0.04999
G1 X63.95 Y85.8 E0.01347
G1 X63.99 Y85.521 E0.01406
G1 X64.106 Y85.264 E0.01407
G1 X64.289 Y85.049 E0.01409
G1 X64.525 Y84.895 E0.01406
G1 X64.795 Y84.812 E0.01409
G1 X64.95 Y84.8 E0.00776
G1 X83.05 Y84.8 E0.90301
G1 X83.329 Y84.84 E0.01406
G1 X83.586 Y84.956 E0.01407
G1 X83.801 Y85.139 E0.01409
G1 X83.955 Y85.375 E0.01406
G1 X84.038 Y85.645 E0.01409
G1 X84.05 Y85.8 E0.00776
G1 X84.05 Y86.066 E0.01327
G1 X85.055 Y86.072 E0.05014
G1 X85.335 Y86.113 E0.01412
G1 X85.591 Y86.231 E0.01406
G1 X85.804 Y86.416 E0.01408
G1 X85.958 Y86.652 E0.01406
G1 X86.039 Y86.923 E0.01411
G1 X86.05 Y87.072 E0.00745
G1 X86.05 Y88.528 E0.07264
G1 X86.01 Y88.807 E0.01406
G1 X85.894 Y89.064 E0.01407
G1 X85.711 Y89.279 E0.01409
G1 X85.475 Y89.433 E0.01406
G1 X85.205 Y89.516 E0.01409
G1 X85.052 Y89.528 E0.00766
G1 X84.05 Y89.53 E0.04999
G1 X84.05 Y89.8 E0.01347
G1 X84.01 Y90.079 E0.01406
G1 X83.894 Y90.336 E0.01407
G1 X83.711 Y90.551 E0.01409
G1 X83.475 Y90.705 E0.01406
G1 X83.205 Y90.788 E0.01409
G1 X83.05 Y90.8 E0.00776
G1 X80.855 Y90.8 E0.10951
G1 X80.855 Y119.2 E1.41688
G1 X83.05 Y119.2 E0.10951
G1 X83.329 Y119.24 E0.01406
G1 X83.586 Y119.356 E0.01407
G1 X83.801 Y119.539 E0.01409
G1 X83.955 Y119.775 E0.01406
G1 X84.038 Y120.045 E0.01409
G1 X84.05 Y120.2 E0.00776
G1 X84.05 Y120.466 E0.01327
G1 X85.055 Y120.472 E0.05014
G1 X85.335 Y120.513 E0.01412
G1 X85.591 Y120.631 E0.01406
G1 X85.804 Y120.816 E0.01408
G1 X85.958 Y121.052 E0.01406
G1 X86.039 Y121.323 E0.01411
G1 X86.05 Y121.472 E0.00745
G1 X86.05 Y122.927 E0.07259
G1 X86.01 Y123.206 E0.01406
G1 X85.894 Y123.463 E0.01407
G1 X85.711 Y123.678 E0.01409
G1 X85.475 Y123.832 E0.01406
G1 X85.205 Y123.915 E0.01409
G1 X85.052 Y123.927 E0.00766
G1 X84.05 Y123.93 E0.04999
G1 X84.05 Y124.2 E0.01347
G1 X84.01 Y124.479 E0.01406
G1 X83.894 Y124.736 E0.01407
G1 X83.711 Y124.951 E0.01409
G1 X83.475 Y125.105 E0.01406
G1 X83.205 Y125.188 E0.01409
G1 X83.05 Y125.2 E0.00776
G1 X64.95 Y125.2 E0.90301
G1 X64.671 Y125.16 E0.01406
G1 X64.414 Y125.044 E0.01407
G1 X64.199 Y124.861 E0.01409
G1 X64.045 Y124.625 E0.01406
G1 X63.962 Y124.355 E0.01409
G1 X63.95 Y124.2 E0.00776
G1 X63.95 Y123.934 E0.01327
G1 X62.945 Y123.928 E0.05014
G1 X62.665 Y123.887 E0.01412
G1 X62.409 Y123.769 E0.01406
G1 X62.196 Y123.584 E0.01408
G1 X62.042 Y123.348 E0.01406
G1 X61.961 Y123.077 E0.01411
G1 X61.95 Y122.928 E0.00745
G1 X61.95 Y121.472 E0.07264
G1 X61.99 Y121.193 E0.01406
G1 X62.106 Y120.936 E0.01407
G1 X62.289 Y120.721 E0.01409
G1 X62.525 Y120.567 E0.01406
G1 X62.795 Y120.484 E0.01409
G1 X62.948 Y120.472 E0.00766
G1 X63.95 Y120.47 E0.04999
G1 X63.95 Y120.2 E0.01347
G1 X63.99 Y119.921 E0.01406
G1 X64.106 Y119.664 E0.01407
G1 X64.289 Y119.449 E0.01409
G1 X64.525 Y119.295 E0.01406
G1 X64.795 Y119.212 E0.01409
G1 X64.95 Y119.2 E0.00776
G1 X67.145 Y119.2 E0.10951
G1 X67.145 Y90.8 E1.41688
G1 X64.95 Y90.8 E0.10951
G1 X64.671 Y90.76 E0.01406
G1 X64.414 Y90.644 E0.01407
G1 X64.199 Y90.461 E0.01409
G1 X64.045 Y90.225 E0.01406
G1 X63.962 Y89.955 E0.01409
G1 X63.95 Y89.8 E0.00776
G1 X63.95 Y89.534 E0.01327
G1 X62.945 Y89.528 E0.05014
G1 X62.665 Y89.487 E0.01412
G1 X62.409 Y89.369 E0.01406
G1 X62.196 Y89.184 E0.01408
G1 X62.042 Y88.948 E0.01406
G1 X61.961 Y88.677 E0.01411
G1 X61.95 Y88.528 E0.00745
G1 X61.95 Y87.072 E0.07264
G1 X61.99 Y86.793 E0.01406
G1 X62.106 Y86.536 E0.01407
G1 X62.289 Y86.321 E0.01409
G0 F3600 X62.503 Y86.671
G1 F2400 X62.676 Y86.538 E0.01089
G1 X62.949 Y86.472 E0.01401
G1 X64.35 Y86.469 E0.0699
G1 X64.35 Y85.8 E0.03338
G1 X64.39 Y85.585 E0.01091
G1 X64.503 Y85.399 E0.01086
G1 X64.676 Y85.266 E0.01089
G1 X64.95 Y85.2 E0.01406
G1 X83.05 Y85.2 E0.90301
G1 X83.265 Y85.24 E0.01091
G1 X83.451 Y85.353 E0.01086
G1 X83.584 Y85.526 E0.01089
G1 X83.65 Y85.8 E0.01406
G1 X83.65 Y86.464 E0.03313
G1 X85.053 Y86.472 E0.07
G1 X85.268 Y86.513 E0.01092
G1 X85.453 Y86.628 E0.01087
G1 X85.585 Y86.801 E0.01086
G1 X85.65 Y87.072 E0.0139
G1 X85.65 Y88.528 E0.07264
G1 X85.61 Y88.743 E0.01091
G1 X85.497 Y88.929 E0.01086
G1 X85.324 Y89.062 E0.01089
G1 X85.051 Y89.128 E0.01401
G1 X83.65 Y89.131 E0.0699
G1 X83.65 Y89.8 E0.03338
G1 X83.61 Y90.015 E0.01091
G1 X83.497 Y90.201 E0.01086
G1 X83.324 Y90.334 E0.01089
G1 X83.05 Y90.4 E0.01406
G1 X80.455 Y90.4 E0.12947
G1 X80.455 Y119.6 E1.45679
G1 X83.05 Y119.6 E0.12947
G1 X83.265 Y119.64 E0.01091
G1 X83.451 Y119.753 E0.01086
G1 X83.584 Y119.926 E0.01089
G1 X83.65 Y120.2 E0.01406
G1 X83.65 Y120.864 E0.03313
G1 X85.053 Y120.872 E0.07
G1 X85.268 Y120.913 E0.01092
G1 X85.453 Y121.028 E0.01087
G1 X85.585 Y121.201 E0.01086
G1 X85.65 Y121.472 E0.0139
G1 X85.65 Y122.927 E0.07259
G1 X85.61 Y123.142 E0.01091
G1 X85.497 Y123.328 E0.01086
G1 X85.324 Y123.461 E0.01089
G1 X85.051 Y123.527 E0.01401
G1 X83.65 Y123.531 E0.0699
G1 X83.65 Y124.2 E0.03338
G1 X83.61 Y124.415 E0.01091
G1 X83.497 Y124.601 E0.01086
G1 X83.324 Y124.734 E0.01089
G1 X83.05 Y124.8 E0.01406
G1 X64.95 Y124.8 E0.90301
G1 X64.735 Y124.76 E0.01091
G1 X64.549 Y124.647 E0.01086
G1 X64.416 Y124.474 E0.01089
G1 X64.35 Y124.2 E0.01406
G1 X64.35 Y123.536 E0.03313
G1 X62.947 Y123.528 E0.07
G1 X62.732 Y123.487 E0.01092
G1 X62.547 Y123.372 E0.01087
G1 X62.415 Y123.199 E0.01086
G1 X62.35 Y122.928 E0.0139
G1 X62.35 Y121.472 E0.07264
G1 X62.39 Y121.257 E0.01091
G1 X62.503 Y121.071 E0.01086
G1 X62.676 Y120.938 E0.01089
G1 X62.949 Y120.872 E0.01401
G1 X64.35 Y120.869 E0.0699
G1 X64.35 Y120.2 E0.03338
G1 X64.39 Y119.985 E0.01091
G1 X64.503 Y119.799 E0.01086
G1 X64.676 Y119.666 E0.01089
G1 X64.95 Y119.6 E0.01406
G1 X67.545 Y119.6 E0.12947
G1 X67.545 Y90.4 E1.45679
G1 X64.95 Y90.4 E0.12947
G1 X64.735 Y90.36 E0.01091
G1 X64.549 Y90.247 E0.01086
G1 X64.416 Y90.074 E0.01089
G1 X64.35 Y89.8 E0.01406
G1 X64.35 Y89.136 E0.03313
G1 X62.947 Y89.128 E0.07
G1 X62.732 Y89.087 E0.01092
G1 X62.547 Y88.972 E0.01087
G1 X62.415 Y88.799 E0.01086
G1 X62.35 Y88.528 E0.0139
G1 X62.35 Y87.072 E0.07264
G1 X62.39 Y86.857 E0.01091
G1 X62.503 Y86.671 E0.01086
G0 F3600 X62.789 Y86.953
G1 F2400 X62.95 Y86.872 E0.00899
G1 X64.75 Y86.868 E0.0898
G1 X64.75 Y85.8 E0.05328
G1 X64.789 Y85.681 E0.00625
G1 X64.95 Y85.6 E0.00899
G1 X83.05 Y85.6 E0.90301
G1 X83.169 Y85.639 E0.00625
G1 X83.25 Y85.8 E0.00899
G1 X83.25 Y86.862 E0.05298
G1 X85.051 Y86.872 E0.08985
G1 X85.17 Y86.912 E0.00626
G1 X85.25 Y87.072 E0.00892
G1 X85.25 Y88.528 E0.07264
G1 X85.211 Y88.647 E0.00625
G1 X85.05 Y88.728 E0.00899
G1 X83.25 Y88.732 E0.0898
G1 X83.25 Y89.8 E0.05328
G1 X83.211 Y89.919 E0.00625
G1 X83.05 Y90 E0.00899
G1 X80.055 Y90 E0.14942
G1 X80.055 Y120 E1.49671
G1 X83.05 Y120 E0.14942
G1 X83.169 Y120.039 E0.00625
G1 X83.25 Y120.2 E0.00899
G1 X83.25 Y121.262 E0.05298
G1 X85.051 Y121.272 E0.08985
G1 X85.17 Y121.312 E0.00626
G1 X85.25 Y121.472 E0.00892
G1 X85.25 Y122.927 E0.07259
G1 X85.211 Y123.046 E0.00625
G1 X85.05 Y123.127 E0.00899
G1 X83.25 Y123.132 E0.0898
G1 X83.25 Y124.2 E0.05328
G1 X83.211 Y124.319 E0.00625
G1 X83.05 Y124.4 E0.00899
G1 X64.95 Y124.4 E0.90301
