;FLAVOR:RepRap
;TIME:1344
;Filament used: 0.777432m
;Layer height: 0.1
;Generated with Cura_SteamEngine 3.2.1
T0
M190 S50
M104 S210
M109 S210
M82 ;absolute extrusion mode
G28 ;Home
G1 Z15.0 F6000 ;Move the platform down 15mm
;Prime the extruder
G92 E0
G1 F200 E3
G92 E0
M83 ;relative extrusion mode
;LAYER_COUNT:59
;LAYER:0
M107
G0 F3600 X87.298 Y78.936 Z0.3
;TYPE:SKIRT
G1 F1800 X87.553 Y78.655 E0.01893
G1 X87.862 Y78.435 E0.01892
G1 X88.209 Y78.283 E0.0189
G1 X88.75 Y78.2 E0.02731
G1 X93.75 Y78.2 E0.24945
G1 X94.127 Y78.24 E0.01891
G1 X94.487 Y78.358 E0.0189
G1 X94.814 Y78.548 E0.01887
G1 X95.095 Y78.803 E0.01893
G1 X95.315 Y79.112 E0.01892
G1 X95.467 Y79.459 E0.0189
G1 X95.55 Y80 E0.02731
G1 X95.55 Y84 E0.19956
G1 X95.51 Y84.377 E0.01891
G1 X95.392 Y84.737 E0.0189
G1 X95.202 Y85.064 E0.01887
G1 X94.947 Y85.345 E0.01893
G1 X94.638 Y85.565 E0.01892
G1 X94.55 Y85.604 E0.0048
G1 X94.55 Y116.2 E1.52644
G1 X105.45 Y116.2 E0.5438
G1 X105.45 Y85.605 E1.52639
G1 X105.186 Y85.452 E0.01522
G1 X104.905 Y85.197 E0.01893
G1 X104.685 Y84.888 E0.01892
G1 X104.533 Y84.541 E0.0189
G1 X104.45 Y84 E0.02731
G1 X104.45 Y80 E0.19956
G1 X104.49 Y79.623 E0.01891
G1 X104.608 Y79.263 E0.0189
G1 X104.798 Y78.936 E0.01887
G1 X105.053 Y78.655 E0.01893
G1 X105.362 Y78.435 E0.01892
G1 X105.709 Y78.283 E0.0189
G1 X106.25 Y78.2 E0.02731
G1 X111.25 Y78.2 E0.24945
G1 X111.627 Y78.24 E0.01891
G1 X111.987 Y78.358 E0.0189
G1 X112.314 Y78.548 E0.01887
G1 X112.595 Y78.803 E0.01893
G1 X112.815 Y79.112 E0.01892
G1 X112.967 Y79.459 E0.0189
G1 X113.05 Y80 E0.02731
G1 X113.05 Y120 E1.99561
G1 X113.01 Y120.377 E0.01891
G1 X112.892 Y120.737 E0.0189
G1 X112.702 Y121.064 E0.01887
G1 X112.447 Y121.345 E0.01893
G1 X112.138 Y121.565 E0.01892
G1 X111.791 Y121.717 E0.0189
G1 X111.25 Y121.8 E0.02731
G1 X88.75 Y121.8 E1.12253
G1 X88.373 Y121.76 E0.01891
G1 X88.013 Y121.642 E0.0189
G1 X87.686 Y121.452 E0.01887
G1 X87.405 Y121.197 E0.01893
G1 X87.185 Y120.888 E0.01892
G1 X87.033 Y120.541 E0.0189
G1 X86.95 Y120 E0.02731
G1 X86.95 Y80 E1.99561
G1 X86.99 Y79.623 E0.01891
G1 X87.108 Y79.263 E0.0189
G1 X87.298 Y78.936 E0.01887
G0 F3600 X87.695 Y79.079
G1 F1800 X87.943 Y78.856 E0.01664
G1 X88.237 Y78.697 E0.01668
G1 X88.561 Y78.613 E0.0167
G1 X88.75 Y78.6 E0.00945
G1 X93.75 Y78.6 E0.24945
G1 X94.082 Y78.64 E0.01668
G1 X94.394 Y78.757 E0.01662
G1 X94.671 Y78.945 E0.0167
G1 X94.894 Y79.193 E0.01664
G1 X95.053 Y79.487 E0.01668
G1 X95.137 Y79.811 E0.0167
G1 X95.15 Y80 E0.00945
G1 X95.15 Y84 E0.19956
G1 X95.11 Y84.332 E0.01668
G1 X94.993 Y84.644 E0.01662
G1 X94.805 Y84.921 E0.0167
G1 X94.557 Y85.144 E0.01664
G1 X94.263 Y85.303 E0.01668
G1 X94.15 Y85.332 E0.00582
G1 X94.15 Y116.6 E1.55997
G1 X105.85 Y116.6 E0.58372
G1 X105.85 Y85.335 E1.55982
G1 X105.606 Y85.243 E0.01301
G1 X105.329 Y85.055 E0.0167
G1 X105.106 Y84.807 E0.01664
G1 X104.947 Y84.513 E0.01668
G1 X104.863 Y84.189 E0.0167
G1 X104.85 Y84 E0.00945
G1 X104.85 Y80 E0.19956
G1 X104.89 Y79.668 E0.01668
G1 X105.007 Y79.356 E0.01662
G1 X105.195 Y79.079 E0.0167
G1 X105.443 Y78.856 E0.01664
G1 X105.737 Y78.697 E0.01668
G1 X106.061 Y78.613 E0.0167
G1 X106.25 Y78.6 E0.00945
G1 X111.25 Y78.6 E0.24945
G1 X111.582 Y78.64 E0.01668
G1 X111.894 Y78.757 E0.01662
G1 X112.171 Y78.945 E0.0167
G1 X112.394 Y79.193 E0.01664
G1 X112.553 Y79.487 E0.01668
G1 X112.637 Y79.811 E0.0167
G1 X112.65 Y80 E0.00945
G1 X112.65 Y120 E1.99561
G1 X112.61 Y120.332 E0.01668
G1 X112.493 Y120.644 E0.01662
G1 X112.305 Y120.921 E0.0167
G1 X112.057 Y121.144 E0.01664
G1 X111.763 Y121.303 E0.01668
G1 X111.439 Y121.387 E0.0167
G1 X111.25 Y121.4 E0.00945
G1 X88.75 Y121.4 E1.12253
G1 X88.418 Y121.36 E0.01668
G1 X88.106 Y121.243 E0.01662
G1 X87.829 Y121.055 E0.0167
G1 X87.606 Y120.807 E0.01664
G1 X87.447 Y120.513 E0.01668
G1 X87.363 Y120.189 E0.0167
G1 X87.35 Y120 E0.00945
G1 X87.35 Y80 E1.99561
G1 X87.39 Y79.668 E0.01668
G1 X87.507 Y79.356 E0.01662
G1 X87.695 Y79.079 E0.0167
G0 F3600 X87.906 Y79.464
G1 F1800 X88.089 Y79.249 E0.01409
G1 X88.325 Y79.095 E0.01406
G1 X88.595 Y79.012 E0.01409
G1 X88.75 Y79 E0.00776
G1 X93.75 Y79 E0.24945
G1 X94.029 Y79.04 E0.01406
G1 X94.286 Y79.156 E0.01407
G1 X94.501 Y79.339 E0.01409
G1 X94.655 Y79.575 E0.01406
G1 X94.738 Y79.845 E0.01409
G1 X94.75 Y80 E0.00776
G1 X94.75 Y84 E0.19956
G1 X94.71 Y84.279 E0.01406
G1 X94.594 Y84.536 E0.01407
G1 X94.411 Y84.751 E0.01409
G1 X94.175 Y84.905 E0.01406
G1 X93.905 Y84.988 E0.01409
G1 X93.75 Y85 E0.00776
G1 X93.75 Y117 E1.59649
G1 X106.25 Y117 E0.62363
G1 X106.25 Y85 E1.59649
G1 X105.971 Y84.96 E0.01406
G1 X105.714 Y84.844 E0.01407
G1 X105.499 Y84.661 E0.01409
G1 X105.345 Y84.425 E0.01406
G1 X105.262 Y84.155 E0.01409
G1 X105.25 Y84 E0.00776
G1 X105.25 Y80 E0.19956
G1 X105.29 Y79.721 E0.01406
G1 X105.406 Y79.464 E0.01407
G1 X105.589 Y79.249 E0.01409
G1 X105.825 Y79.095 E0.01406
G1 X106.095 Y79.012 E0.01409
G1 X106.25 Y79 E0.00776
G1 X111.25 Y79 E0.24945
G1 X111.529 Y79.04 E0.01406
G1 X111.786 Y79.156 E0.01407
G1 X112.001 Y79.339 E0.01409
G1 X112.155 Y79.575 E0.01406
G1 X112.238 Y79.845 E0.01409
G1 X112.25 Y80 E0.00776
G1 X112.25 Y120 E1.99561
G1 X112.21 Y120.279 E0.01406
G1 X112.094 Y120.536 E0.01407
G1 X111.911 Y120.751 E0.01409
G1 X111.675 Y120.905 E0.01406
G1 X111.405 Y120.988 E0.01409
G1 X111.25 Y121 E0.00776
G1 X88.75 Y121 E1.12253
G1 X88.471 Y120.96 E0.01406
G1 X88.214 Y120.844 E0.01407
G1 X87.999 Y120.661 E0.01409
G1 X87.845 Y120.425 E0.01406
G1 X87.762 Y120.155 E0.01409
G1 X87.75 Y120 E0.00776
G1 X87.75 Y80 E1.99561
G1 X87.79 Y79.721 E0.01406
G1 X87.906 Y79.464 E0.01407
G0 F3600 X88.303 Y79.599
G1 F1800 X88.476 Y79.466 E0.01089
G1 X88.75 Y79.4 E0.01406
G1 X93.75 Y79.4 E0.24945
G1 X93.965 Y79.44 E0.01091
G1 X94.151 Y79.553 E0.01086
G1 X94.284 Y79.726 E0.01089
G1 X94.35 Y80 E0.01406
G1 X94.35 Y84 E0.19956
G1 X94.31 Y84.215 E0.01091
G1 X94.197 Y84.401 E0.01086
G1 X94.024 Y84.534 E0.01089
G1 X93.75 Y84.6 E0.01406
G1 X93.35 Y84.6 E0.01996
G1 X93.35 Y117.4 E1.6364
G1 X106.65 Y117.4 E0.66354
G1 X106.65 Y84.6 E1.6364
G1 X106.25 Y84.6 E0.01996
G1 X106.035 Y84.56 E0.01091
G1 X105.849 Y84.447 E0.01086
G1 X105.716 Y84.274 E0.01089
G1 X105.65 Y84 E0.01406
G1 X105.65 Y80 E0.19956
G1 X105.69 Y79.785 E0.01091
G1 X105.803 Y79.599 E0.01086
G1 X105.976 Y79.466 E0.01089
G1 X106.25 Y79.4 E0.01406
G1 X111.25 Y79.4 E0.24945
G1 X111.465 Y79.44 E0.01091
G1 X111.651 Y79.553 E0.01086
G1 X111.784 Y79.726 E0.01089
G1 X111.85 Y80 E0.01406
G1 X111.85 Y120 E1.99561
G1 X111.81 Y120.215 E0.01091
G1 X111.697 Y120.401 E0.01086
G1 X111.524 Y120.534 E0.01089
G1 X111.25 Y120.6 E0.01406
G1 X88.75 Y120.6 E1.12253
G1 X88.535 Y120.56 E0.01091
G1 X88.349 Y120.447 E0.01086
G1 X88.216 Y120.274 E0.01089
G1 X88.15 Y120 E0.01406
G1 X88.15 Y80 E1.99561
G1 X88.19 Y79.785 E0.01091
G1 X88.303 Y79.599 E0.01086
G0 F3600 X88.589 Y79.881
G1 F1800 X88.75 Y79.8 E0.00899
G1 X93.75 Y79.8 E0.24945
G1 X93.869 Y79.839 E0.00625
G1 X93.95 Y80 E0.00899
G1 X93.95 Y84 E0.19956
G1 X93.911 Y84.119 E0.00625
G1 X93.75 Y84.2 E0.00899
G1 X92.95 Y84.2 E0.03991
G1 X92.95 Y117.8 E1.67631
G1 X107.05 Y117.8 E0.70345
G1 X107.05 Y84.2 E1.67631
G1 X106.25 Y84.2 E0.03991
G1 X106.131 Y84.161 E0.00625
G1 X106.05 Y84 E0.00899
G1 X106.05 Y80 E0.19956
G1 X106.089 Y79.881 E0.00625
G1 X106.25 Y79.8 E0.00899
G1 X111.25 Y79.8 E0.24945
G1 X111.369 Y79.839 E0.00625
G1 X111.45 Y80 E0.00899
G1 X111.45 Y120 E1.99561
G1 X111.411 Y120.119 E0.00625
G1 X111.25 Y120.2 E0.00899
G1 X88.75 Y120.2 E1.12253
G1 X88.631 Y120.161 E0.00625
G1 X88.55 Y120 E0.00899
G1 X88.55 Y80 E1.99561
G1 X88.589 Y79.881 E0.00625
G1 F1500 E-6.5
G0 F3600 X89.364 Y80.614
G0 X92.05 Y83.8
G0 X92.55 Y83.8
;TYPE:WALL-OUTER
G1 F1500 E6.5
G1 F1800 X92.55 Y118.2 E1.71622
G1 X107.45 Y118.2 E0.74336
G1 X107.45 Y83.8 E1.71622
G1 X106.45 Y83.8 E0.04989
G1 X106.45 Y80.2 E0.1796
G1 X111.05 Y80.2 E0.22949
G1 X111.05 Y119.8 E1.97565
G1 X88.95 Y119.8 E1.10257
G1 X88.95 Y80.2 E1.97565
G1 X93.55 Y80.2 E0.22949
G1 X93.55 Y83.8 E0.1796
G1 X92.55 Y83.8 E0.04989
G0 F3600 X92.55 Y84
G0 X92.15 Y83.4
;TYPE:WALL-INNER
G1 F1800 X92.15 Y118.6 E1.75614
G1 X107.85 Y118.6 E0.78328
G1 X107.85 Y83.4 E1.75614
G1 X106.85 Y83.4 E0.04989
G1 X106.85 Y80.6 E0.13969
G1 X110.65 Y80.6 E0.18958
G1 X110.65 Y119.4 E1.93574
G1 X89.35 Y119.4 E1.06266
G1 X89.35 Y80.6 E1.93574
G1 X93.15 Y80.6 E0.18958
G1 X93.15 Y83.4 E0.13969
G1 X92.15 Y83.4 E0.04989
G0 F3600 X91.76 Y83.01
;TYPE:SKIN
G1 F1800 X91.76 Y118.99 E1.79505
G1 X108.24 Y118.99 E0.82219
G1 X108.24 Y83.01 E1.79505
G1 X107.24 Y83.01 E0.04989
G1 X107.24 Y80.99 E0.10078
G1 X110.26 Y80.99 E0.15067
G1 X110.26 Y119.01 E1.89683
G1 X89.74 Y119.01 E1.02375
G1 X89.74 Y80.99 E1.89683
G1 X92.76 Y80.99 E0.15067
G1 X92.76 Y83.01 E0.10078
G1 X91.76 Y83.01 E0.04989
G0 F3600 X89.378 Y119.372
G0 X108.497 Y119.372
G0 X110.079 Y81.229
G0 X110.049 Y81.199
G1 F1800 X109.766 Y81.482 E0.02411
G1 X110.149 Y81.865
G0 F3600 X110.079 Y82.36
G1 F1800 X108.888 Y81.17 E0.084
G1 X108.818 Y81.1
G0 F3600 X108.323 Y81.17
G1 F1800 X110.079 Y82.926 E0.1239
G1 X110.149 Y82.996
G0 F3600 X110.079 Y83.492
G1 F1800 X107.757 Y81.17 E0.16383
G1 X107.687 Y81.1
G0 F3600 X107.419 Y81.397
G1 F1800 X110.079 Y84.058 E0.18771
G1 X110.149 Y84.128
G0 F3600 X110.079 Y84.623
G1 F1800 X108.419 Y82.963 E0.11712
G1 X108.349 Y82.893
G0 F3600 X108.286 Y82.83
G1 F1800 X107.419 Y81.963 E0.06117
G1 X107.349 Y81.893
G0 F3600 X107.419 Y82.529
G1 F1800 X107.72 Y82.83 E0.02124
G0 F3600 X108.419 Y83.529
G1 F1800 X110.079 Y85.189 E0.11712
G1 X110.149 Y85.259
G0 F3600 X110.079 Y85.755
G1 F1800 X108.419 Y84.094 E0.11716
G1 X108.349 Y84.024
G0 F3600 X108.419 Y84.66
G1 F1800 X110.079 Y86.32 E0.11712
G1 X110.149 Y86.39
G0 F3600 X110.079 Y86.886
G1 F1800 X108.419 Y85.226 E0.11712
G1 X108.349 Y85.156
G0 F3600 X108.419 Y85.791
G1 F1800 X110.079 Y87.452 E0.11716
G1 X110.149 Y87.522
G0 F3600 X110.079 Y88.017
G1 F1800 X108.419 Y86.357 E0.11712
G1 X108.349 Y86.287
G0 F3600 X108.419 Y86.923
G1 F1800 X110.079 Y88.583 E0.11712
G1 X110.149 Y88.653
G0 F3600 X110.079 Y89.149
G1 F1800 X108.419 Y87.488 E0.11716
G1 X108.349 Y87.418
G0 F3600 X108.419 Y88.054
G1 F1800 X110.079 Y89.714 E0.11712
G1 X110.149 Y89.784
G0 F3600 X110.079 Y90.28
G1 F1800 X108.419 Y88.62 E0.11712
G1 X108.349 Y88.55
G0 F3600 X108.419 Y89.185
G1 F1800 X110.079 Y90.846 E0.11716
G1 X110.149 Y90.916
G0 F3600 X110.079 Y91.411
G1 F1800 X108.419 Y89.751 E0.11712
G1 X108.349 Y89.681
G0 F3600 X108.419 Y90.317
G1 F1800 X110.079 Y91.977 E0.11712
G1 X110.149 Y92.047
G0 F3600 X110.079 Y92.543
G1 F1800 X108.419 Y90.883 E0.11712
G1 X108.349 Y90.813
G0 F3600 X108.419 Y91.448
G1 F1800 X110.079 Y93.108 E0.11712
G1 X110.149 Y93.178
G0 F3600 X110.079 Y93.674
G1 F1800 X108.419 Y92.014 E0.11712
G1 X108.349 Y91.944
G0 F3600 X108.419 Y92.58
G1 F1800 X110.079 Y94.24 E0.11712
G1 X110.149 Y94.31
G0 F3600 X110.079 Y94.806
G1 F1800 X108.419 Y93.145 E0.11716
G1 X108.349 Y93.075
G0 F3600 X108.419 Y93.711
G1 F1800 X110.079 Y95.371 E0.11712
G1 X110.149 Y95.441
G0 F3600 X110.079 Y95.937
G1 F1800 X108.419 Y94.277 E0.11712
G1 X108.349 Y94.207
G0 F3600 X108.419 Y94.842
G1 F1800 X110.079 Y96.503 E0.11716
G1 X110.149 Y96.573
G0 F3600 X110.079 Y97.068
G1 F1800 X108.419 Y95.408 E0.11712
G1 X108.349 Y95.338
G0 F3600 X108.419 Y95.974
G1 F1800 X110.079 Y97.634 E0.11712
G1 X110.149 Y97.704
G0 F3600 X110.079 Y98.2
G1 F1800 X108.419 Y96.539 E0.11716
G1 X108.349 Y96.469
G0 F3600 X108.419 Y97.105
G1 F1800 X110.079 Y98.765 E0.11712
G1 X110.149 Y98.835
G0 F3600 X110.079 Y99.331
G1 F1800 X108.419 Y97.671 E0.11712
G1 X108.349 Y97.601
G0 F3600 X108.419 Y98.236
G1 F1800 X110.079 Y99.897 E0.11716
G1 X110.149 Y99.967
G0 F3600 X110.079 Y100.462
G1 F1800 X108.419 Y98.802 E0.11712
G1 X108.349 Y98.732
G0 F3600 X108.419 Y99.368
G1 F1800 X110.079 Y101.028 E0.11712
G1 X110.149 Y101.098
G0 F3600 X110.079 Y101.594
G1 F1800 X108.419 Y99.933 E0.11716
G1 X108.349 Y99.863
G0 F3600 X108.419 Y100.499
G1 F1800 X110.079 Y102.159 E0.11712
G1 X110.149 Y102.229
G0 F3600 X110.079 Y102.725
G1 F1800 X108.419 Y101.066 E0.11709
G1 X108.349 Y100.996
G0 F3600 X108.419 Y101.631
G1 F1800 X110.079 Y103.291 E0.11712
G1 X110.149 Y103.361
G0 F3600 X110.079 Y103.857
G1 F1800 X108.419 Y102.197 E0.11712
G1 X108.349 Y102.127
G0 F3600 X108.419 Y102.763
G1 F1800 X110.079 Y104.422 E0.11709
G1 X110.149 Y104.492
G0 F3600 X110.079 Y104.988
G1 F1800 X108.419 Y103.328 E0.11712
G1 X108.349 Y103.258
G0 F3600 X108.419 Y103.894
G1 F1800 X110.079 Y105.554 E0.11712
G1 X110.149 Y105.624
G0 F3600 X110.079 Y106.119
G1 F1800 X108.419 Y104.46 E0.11709
G1 X108.349 Y104.39
G0 F3600 X108.419 Y105.025
G1 F1800 X110.079 Y106.685 E0.11712
G1 X110.149 Y106.755
G0 F3600 X110.079 Y107.251
G1 F1800 X108.419 Y105.591 E0.11712
G1 X108.349 Y105.521
G0 F3600 X108.419 Y106.157
G1 F1800 X110.079 Y107.816 E0.11709
G1 X110.149 Y107.886
G0 F3600 X110.079 Y108.382
G1 F1800 X108.419 Y106.722 E0.11712
G1 X108.349 Y106.652
G0 F3600 X108.419 Y107.288
G1 F1800 X110.079 Y108.948 E0.11712
G1 X110.149 Y109.018
G0 F3600 X110.079 Y109.513
G1 F1800 X108.419 Y107.854 E0.11709
G1 X108.349 Y107.784
G0 F3600 X108.419 Y108.419
G1 F1800 X110.079 Y110.079 E0.11712
G1 X110.149 Y110.149
G0 F3600 X110.079 Y110.645
G1 F1800 X108.419 Y108.985 E0.11712
G1 X108.349 Y108.915
G0 F3600 X108.419 Y109.551
G1 F1800 X110.079 Y111.21 E0.11709
G1 X110.149 Y111.28
G0 F3600 X110.079 Y111.776
G1 F1800 X108.419 Y110.117 E0.11709
G1 X108.349 Y110.047
G0 F3600 X108.419 Y110.682
G1 F1800 X110.079 Y112.342 E0.11712
G1 X110.149 Y112.412
G0 F3600 X110.079 Y112.907
G1 F1800 X108.419 Y111.248 E0.11709
G1 X108.349 Y111.178
G0 F3600 X108.419 Y111.814
G1 F1800 X110.079 Y113.473 E0.11709
G1 X110.149 Y113.543
G0 F3600 X110.079 Y114.039
G1 F1800 X108.419 Y112.379 E0.11712
G1 X108.349 Y112.309
G0 F3600 X108.419 Y112.945
G1 F1800 X110.079 Y114.605 E0.11712
G1 X110.149 Y114.675
G0 F3600 X110.079 Y115.17
G1 F1800 X108.419 Y113.511 E0.11709
G1 X108.349 Y113.441
G0 F3600 X108.419 Y114.076
G1 F1800 X110.079 Y115.736 E0.11712
G1 X110.149 Y115.806
G0 F3600 X110.079 Y116.302
G1 F1800 X108.419 Y114.642 E0.11712
G1 X108.349 Y114.572
G0 F3600 X108.419 Y115.208
G1 F1800 X110.079 Y116.867 E0.11709
G1 X110.149 Y116.937
G0 F3600 X110.079 Y117.433
G1 F1800 X108.419 Y115.773 E0.11712
G1 X108.349 Y115.703
G0 F3600 X108.419 Y116.339
G1 F1800 X110.079 Y117.999 E0.11712
G1 X110.149 Y118.069
G0 F3600 X110.079 Y118.564
G1 F1800 X108.419 Y116.905 E0.11709
G1 X108.349 Y116.835
G0 F3600 X108.419 Y117.47
G1 F1800 X109.778 Y118.829 E0.09588
G1 X109.848 Y118.899
G0 F3600 X109.212 Y118.829
G1 F1800 X108.419 Y118.036 E0.05595
G1 X108.349 Y117.966
G0 F3600 X108.419 Y118.602
G1 F1800 X108.646 Y118.829 E0.01602
G0 F3600 X91.58 Y118.733
G1 F1800 X89.919 Y117.072 E0.11719
G1 X89.849 Y117.002
G0 F3600 X89.919 Y117.637
G1 F1800 X91.11 Y118.829 E0.08407
G1 X91.18 Y118.899
G0 F3600 X90.545 Y118.829
G1 F1800 X89.919 Y118.203 E0.04417
G1 X89.849 Y118.133
G0 F3600 X89.919 Y118.769
G1 F1800 X89.979 Y118.829 E0.00423
G0 F3600 X91.58 Y118.167
G1 F1800 X89.919 Y116.506 E0.11719
G1 X89.849 Y116.436
G0 F3600 X89.919 Y115.94
G1 F1800 X91.58 Y117.601 E0.11719
G1 X91.65 Y117.671
G0 F3600 X91.58 Y117.036
G1 F1800 X89.919 Y115.375 E0.11719
G1 X89.849 Y115.305
G0 F3600 X89.919 Y114.809
G1 F1800 X91.58 Y116.47 E0.11719
G1 X91.65 Y116.54
G0 F3600 X91.58 Y115.904
G1 F1800 X89.919 Y114.243 E0.11719
G1 X89.849 Y114.173
G0 F3600 X89.919 Y113.678
G1 F1800 X91.58 Y115.339 E0.11719
G1 X91.65 Y115.409
G0 F3600 X91.58 Y114.773
G1 F1800 X89.919 Y113.112 E0.11719
G1 X89.849 Y113.042
G0 F3600 X89.919 Y112.546
G1 F1800 X91.58 Y114.207 E0.11719
G1 X91.65 Y114.277
G0 F3600 X91.58 Y113.641
