;FLAVOR:RepRap
;TIME:1430
;Filament used: 0.811527m
;Layer height: 0.1
;Generated with Cura_SteamEngine 3.2.1
T0
M190 S50
M104 S210
M109 S210
M82 ;absolute extrusion mode
G28 ;Home
G1 Z15.0 F6000 ;Move the platform down 15mm
;Prime the extruder
G92 E0
G1 F200 E3
G92 E0
M83 ;relative extrusion mode
;LAYER_COUNT:59
;LAYER:0
M107
G0 F3600 X87.798 Y78.186 Z0.3
;TYPE:SKIRT
G1 F1800 X88.053 Y77.905 E0.01893
G1 X88.362 Y77.685 E0.01892
G1 X88.709 Y77.533 E0.0189
G1 X89.25 Y77.45 E0.02731
G1 X94.25 Y77.45 E0.24945
G1 X94.627 Y77.49 E0.01891
G1 X94.987 Y77.608 E0.0189
G1 X95.314 Y77.798 E0.01887
G1 X95.595 Y78.053 E0.01893
G1 X95.815 Y78.362 E0.01892
G1 X95.967 Y78.709 E0.0189
G1 X96.05 Y79.25 E0.02731
G1 X96.05 Y83.25 E0.19956
G1 X96.01 Y83.627 E0.01891
G1 X95.892 Y83.987 E0.0189
G1 X95.702 Y84.314 E0.01887
G1 X95.447 Y84.595 E0.01893
G1 X95.138 Y84.815 E0.01892
G1 X95.05 Y84.854 E0.0048
G1 X95.05 Y114.95 E1.5015
G1 X104.95 Y114.95 E0.49391
G1 X104.95 Y84.855 E1.50145
G1 X104.686 Y84.702 E0.01522
G1 X104.405 Y84.447 E0.01893
G1 X104.185 Y84.138 E0.01892
G1 X104.033 Y83.791 E0.0189
G1 X103.95 Y83.25 E0.02731
G1 X103.95 Y79.25 E0.19956
G1 X103.99 Y78.873 E0.01891
G1 X104.108 Y78.513 E0.0189
G1 X104.298 Y78.186 E0.01887
G1 X104.553 Y77.905 E0.01893
G1 X104.862 Y77.685 E0.01892
G1 X105.209 Y77.533 E0.0189
G1 X105.75 Y77.45 E0.02731
G1 X110.75 Y77.45 E0.24945
G1 X111.127 Y77.49 E0.01891
G1 X111.487 Y77.608 E0.0189
G1 X111.814 Y77.798 E0.01887
G1 X112.095 Y78.053 E0.01893
G1 X112.315 Y78.362 E0.01892
G1 X112.467 Y78.709 E0.0189
G1 X112.55 Y79.25 E0.02731
G1 X112.55 Y120.75 E2.07044
G1 X112.51 Y121.127 E0.01891
G1 X112.392 Y121.487 E0.0189
G1 X112.202 Y121.814 E0.01887
G1 X111.947 Y122.095 E0.01893
G1 X111.638 Y122.315 E0.01892
G1 X111.291 Y122.467 E0.0189
G1 X110.75 Y122.55 E0.02731
G1 X89.25 Y122.55 E1.07264
G1 X88.873 Y122.51 E0.01891
G1 X88.513 Y122.392 E0.0189
G1 X88.186 Y122.202 E0.01887
G1 X87.905 Y121.947 E0.01893
G1 X87.685 Y121.638 E0.01892
G1 X87.533 Y121.291 E0.0189
G1 X87.45 Y120.75 E0.02731
G1 X87.45 Y79.25 E2.07044
G1 X87.49 Y78.873 E0.01891
G1 X87.608 Y78.513 E0.0189
G1 X87.798 Y78.186 E0.01887
G0 F3600 X88.195 Y78.329
G1 F1800 X88.443 Y78.106 E0.01664
G1 X88.737 Y77.947 E0.01668
G1 X89.061 Y77.863 E0.0167
G1 X89.25 Y77.85 E0.00945
G1 X94.25 Y77.85 E0.24945
G1 X94.582 Y77.89 E0.01668
G1 X94.894 Y78.007 E0.01662
G1 X95.171 Y78.195 E0.0167
G1 X95.394 Y78.443 E0.01664
G1 X95.553 Y78.737 E0.01668
G1 X95.637 Y79.061 E0.0167
G1 X95.65 Y79.25 E0.00945
G1 X95.65 Y83.25 E0.19956
G1 X95.61 Y83.582 E0.01668
G1 X95.493 Y83.894 E0.01662
G1 X95.305 Y84.171 E0.0167
G1 X95.057 Y84.394 E0.01664
G1 X94.763 Y84.553 E0.01668
G1 X94.65 Y84.582 E0.00582
G1 X94.65 Y115.35 E1.53502
G1 X105.35 Y115.35 E0.53383
G1 X105.35 Y84.585 E1.53487
G1 X105.106 Y84.493 E0.01301
G1 X104.829 Y84.305 E0.0167
G1 X104.606 Y84.057 E0.01664
G1 X104.447 Y83.763 E0.01668
G1 X104.363 Y83.439 E0.0167
G1 X104.35 Y83.25 E0.00945
G1 X104.35 Y79.25 E0.19956
G1 X104.39 Y78.918 E0.01668
G1 X104.507 Y78.606 E0.01662
G1 X104.695 Y78.329 E0.0167
G1 X104.943 Y78.106 E0.01664
G1 X105.237 Y77.947 E0.01668
G1 X105.561 Y77.863 E0.0167
G1 X105.75 Y77.85 E0.00945
G1 X110.75 Y77.85 E0.24945
G1 X111.082 Y77.89 E0.01668
G1 X111.394 Y78.007 E0.01662
G1 X111.671 Y78.195 E0.0167
G1 X111.894 Y78.443 E0.01664
G1 X112.053 Y78.737 E0.01668
G1 X112.137 Y79.061 E0.0167
G1 X112.15 Y79.25 E0.00945
G1 X112.15 Y120.75 E2.07044
G1 X112.11 Y121.082 E0.01668
G1 X111.993 Y121.394 E0.01662
G1 X111.805 Y121.671 E0.0167
G1 X111.557 Y121.894 E0.01664
G1 X111.263 Y122.053 E0.01668
G1 X110.939 Y122.137 E0.0167
G1 X110.75 Y122.15 E0.00945
G1 X89.25 Y122.15 E1.07264
G1 X88.918 Y122.11 E0.01668
G1 X88.606 Y121.993 E0.01662
G1 X88.329 Y121.805 E0.0167
G1 X88.106 Y121.557 E0.01664
G1 X87.947 Y121.263 E0.01668
G1 X87.863 Y120.939 E0.0167
G1 X87.85 Y120.75 E0.00945
G1 X87.85 Y79.25 E2.07044
G1 X87.89 Y78.918 E0.01668
G1 X88.007 Y78.606 E0.01662
G1 X88.195 Y78.329 E0.0167
G0 F3600 X88.406 Y78.714
G1 F1800 X88.589 Y78.499 E0.01409
G1 X88.825 Y78.345 E0.01406
G1 X89.095 Y78.262 E0.01409
G1 X89.25 Y78.25 E0.00776
G1 X94.25 Y78.25 E0.24945
G1 X94.529 Y78.29 E0.01406
G1 X94.786 Y78.406 E0.01407
G1 X95.001 Y78.589 E0.01409
G1 X95.155 Y78.825 E0.01406
G1 X95.238 Y79.095 E0.01409
G1 X95.25 Y79.25 E0.00776
G1 X95.25 Y83.25 E0.19956
G1 X95.21 Y83.529 E0.01406
G1 X95.094 Y83.786 E0.01407
G1 X94.911 Y84.001 E0.01409
G1 X94.675 Y84.155 E0.01406
G1 X94.405 Y84.238 E0.01409
G1 X94.25 Y84.25 E0.00776
G1 X94.25 Y115.75 E1.57154
G1 X105.75 Y115.75 E0.57374
G1 X105.75 Y84.25 E1.57154
G1 X105.471 Y84.21 E0.01406
G1 X105.214 Y84.094 E0.01407
G1 X104.999 Y83.911 E0.01409
G1 X104.845 Y83.675 E0.01406
G1 X104.762 Y83.405 E0.01409
G1 X104.75 Y83.25 E0.00776
G1 X104.75 Y79.25 E0.19956
G1 X104.79 Y78.971 E0.01406
G1 X104.906 Y78.714 E0.01407
G1 X105.089 Y78.499 E0.01409
G1 X105.325 Y78.345 E0.01406
G1 X105.595 Y78.262 E0.01409
G1 X105.75 Y78.25 E0.00776
G1 X110.75 Y78.25 E0.24945
G1 X111.029 Y78.29 E0.01406
G1 X111.286 Y78.406 E0.01407
G1 X111.501 Y78.589 E0.01409
G1 X111.655 Y78.825 E0.01406
G1 X111.738 Y79.095 E0.01409
G1 X111.75 Y79.25 E0.00776
G1 X111.75 Y120.75 E2.07044
G1 X111.71 Y121.029 E0.01406
G1 X111.594 Y121.286 E0.01407
G1 X111.411 Y121.501 E0.01409
G1 X111.175 Y121.655 E0.01406
G1 X110.905 Y121.738 E0.01409
G1 X110.75 Y121.75 E0.00776
G1 X89.25 Y121.75 E1.07264
G1 X88.971 Y121.71 E0.01406
G1 X88.714 Y121.594 E0.01407
G1 X88.499 Y121.411 E0.01409
G1 X88.345 Y121.175 E0.01406
G1 X88.262 Y120.905 E0.01409
G1 X88.25 Y120.75 E0.00776
G1 X88.25 Y79.25 E2.07044
G1 X88.29 Y78.971 E0.01406
G1 X88.406 Y78.714 E0.01407
G0 F3600 X88.803 Y78.849
G1 F1800 X88.976 Y78.716 E0.01089
G1 X89.25 Y78.65 E0.01406
G1 X94.25 Y78.65 E0.24945
G1 X94.465 Y78.69 E0.01091
G1 X94.651 Y78.803 E0.01086
G1 X94.784 Y78.976 E0.01089
G1 X94.85 Y79.25 E0.01406
G1 X94.85 Y83.25 E0.19956
G1 X94.81 Y83.465 E0.01091
G1 X94.697 Y83.651 E0.01086
G1 X94.524 Y83.784 E0.01089
G1 X94.25 Y83.85 E0.01406
G1 X93.85 Y83.85 E0.01996
G1 X93.85 Y116.15 E1.61145
G1 X106.15 Y116.15 E0.61365
G1 X106.15 Y83.85 E1.61145
G1 X105.75 Y83.85 E0.01996
G1 X105.535 Y83.81 E0.01091
G1 X105.349 Y83.697 E0.01086
G1 X105.216 Y83.524 E0.01089
G1 X105.15 Y83.25 E0.01406
G1 X105.15 Y79.25 E0.19956
G1 X105.19 Y79.035 E0.01091
G1 X105.303 Y78.849 E0.01086
G1 X105.476 Y78.716 E0.01089
G1 X105.75 Y78.65 E0.01406
G1 X110.75 Y78.65 E0.24945
G1 X110.965 Y78.69 E0.01091
G1 X111.151 Y78.803 E0.01086
G1 X111.284 Y78.976 E0.01089
G1 X111.35 Y79.25 E0.01406
G1 X111.35 Y120.75 E2.07044
G1 X111.31 Y120.965 E0.01091
G1 X111.197 Y121.151 E0.01086
G1 X111.024 Y121.284 E0.01089
G1 X110.75 Y121.35 E0.01406
G1 X89.25 Y121.35 E1.07264
G1 X89.035 Y121.31 E0.01091
G1 X88.849 Y121.197 E0.01086
G1 X88.716 Y121.024 E0.01089
G1 X88.65 Y120.75 E0.01406
G1 X88.65 Y79.25 E2.07044
G1 X88.69 Y79.035 E0.01091
G1 X88.803 Y78.849 E0.01086
G0 F3600 X89.089 Y79.131
G1 F1800 X89.25 Y79.05 E0.00899
G1 X94.25 Y79.05 E0.24945
G1 X94.369 Y79.089 E0.00625
G1 X94.45 Y79.25 E0.00899
G1 X94.45 Y83.25 E0.19956
G1 X94.411 Y83.369 E0.00625
G1 X94.25 Y83.45 E0.00899
G1 X93.45 Y83.45 E0.03991
G1 X93.45 Y116.55 E1.65137
G1 X106.55 Y116.55 E0.65356
G1 X106.55 Y83.45 E1.65137
G1 X105.75 Y83.45 E0.03991
G1 X105.631 Y83.411 E0.00625
G1 X105.55 Y83.25 E0.00899
G1 X105.55 Y79.25 E0.19956
G1 X105.589 Y79.131 E0.00625
G1 X105.75 Y79.05 E0.00899
G1 X110.75 Y79.05 E0.24945
G1 X110.869 Y79.089 E0.00625
G1 X110.95 Y79.25 E0.00899
G1 X110.95 Y120.75 E2.07044
G1 X110.911 Y120.869 E0.00625
G1 X110.75 Y120.95 E0.00899
G1 X89.25 Y120.95 E1.07264
G1 X89.131 Y120.911 E0.00625
G1 X89.05 Y120.75 E0.00899
G1 X89.05 Y79.25 E2.07044
G1 X89.089 Y79.131 E0.00625
G1 F1500 E-6.5
G0 F3600 X89.864 Y79.864
G0 X92.55 Y83.05
G0 X93.05 Y83.05
;TYPE:WALL-OUTER
G1 F1500 E6.5
G1 F1800 X93.05 Y116.95 E1.69128
G1 X106.95 Y116.95 E0.69347
G1 X106.95 Y83.05 E1.69128
G1 X105.95 Y83.05 E0.04989
G1 X105.95 Y79.45 E0.1796
G1 X110.55 Y79.45 E0.22949
G1 X110.55 Y120.55 E2.05049
G1 X89.45 Y120.55 E1.05268
G1 X89.45 Y79.45 E2.05049
G1 X94.05 Y79.45 E0.22949
G1 X94.05 Y83.05 E0.1796
G1 X93.05 Y83.05 E0.04989
G0 F3600 X93.05 Y83.25
G0 X92.65 Y82.65
;TYPE:WALL-INNER
G1 F1800 X92.65 Y117.35 E1.73119
G1 X107.35 Y117.35 E0.73339
G1 X107.35 Y82.65 E1.73119
G1 X106.35 Y82.65 E0.04989
G1 X106.35 Y79.85 E0.13969
G1 X110.15 Y79.85 E0.18958
G1 X110.15 Y120.15 E2.01058
G1 X89.85 Y120.15 E1.01277
G1 X89.85 Y79.85 E2.01058
G1 X93.65 Y79.85 E0.18958
G1 X93.65 Y82.65 E0.13969
G1 X92.65 Y82.65 E0.04989
G0 F3600 X92.26 Y82.26
;TYPE:SKIN
G1 F1800 X92.26 Y117.74 E1.7701
G1 X107.74 Y117.74 E0.7723
G1 X107.74 Y82.26 E1.7701
G1 X106.74 Y82.26 E0.04989
G1 X106.74 Y80.24 E0.10078
G1 X109.76 Y80.24 E0.15067
G1 X109.76 Y119.76 E1.97166
G1 X90.24 Y119.76 E0.97386
G1 X90.24 Y80.24 E1.97166
G1 X93.26 Y80.24 E0.15067
G1 X93.26 Y82.26 E0.10078
G1 X92.26 Y82.26 E0.04989
G0 F3600 X89.878 Y120.122
G0 X108.097 Y120.122
G0 X109.579 Y80.729
G1 F1800 X109.269 Y80.419 E0.02187
G0 F3600 X108.704 Y80.419
G1 F1800 X109.579 Y81.295 E0.06177
G1 X109.649 Y81.365
G0 F3600 X109.579 Y81.861
G1 F1800 X108.138 Y80.419 E0.10171
G1 X108.068 Y80.349
G0 F3600 X107.572 Y80.419
G1 F1800 X109.579 Y82.426 E0.1416
G1 X109.649 Y82.496
G0 F3600 X109.579 Y82.992
G1 F1800 X107.007 Y80.419 E0.1815
G1 X106.937 Y80.349
G0 F3600 X106.919 Y80.897
G1 F1800 X109.579 Y83.558 E0.18771
G1 X109.649 Y83.628
G0 F3600 X109.579 Y84.123
G1 F1800 X107.919 Y82.463 E0.11712
G1 X107.849 Y82.393
G0 F3600 X107.536 Y82.08
G1 F1800 X106.919 Y81.463 E0.04353
G1 X106.849 Y81.393
G0 F3600 X107.919 Y83.029
G1 F1800 X109.579 Y84.689 E0.11712
G1 X109.649 Y84.759
G0 F3600 X109.579 Y85.255
G1 F1800 X107.919 Y83.594 E0.11716
G1 X107.849 Y83.524
G0 F3600 X107.919 Y84.16
G1 F1800 X109.579 Y85.82 E0.11712
G1 X109.649 Y85.89
G0 F3600 X109.579 Y86.386
G1 F1800 X107.919 Y84.726 E0.11712
G1 X107.849 Y84.656
G0 F3600 X107.919 Y85.291
G1 F1800 X109.579 Y86.952 E0.11716
G1 X109.649 Y87.022
G0 F3600 X109.579 Y87.517
G1 F1800 X107.919 Y85.857 E0.11712
G1 X107.849 Y85.787
G0 F3600 X107.919 Y86.423
G1 F1800 X109.579 Y88.083 E0.11712
G1 X109.649 Y88.153
G0 F3600 X109.579 Y88.649
G1 F1800 X107.919 Y86.988 E0.11716
G1 X107.849 Y86.918
G0 F3600 X107.919 Y87.554
G1 F1800 X109.579 Y89.214 E0.11712
G1 X109.649 Y89.284
G0 F3600 X109.579 Y89.78
G1 F1800 X107.919 Y88.12 E0.11712
G1 X107.849 Y88.05
G0 F3600 X107.919 Y88.686
G1 F1800 X109.579 Y90.346 E0.11712
G1 X109.649 Y90.416
G0 F3600 X109.579 Y90.912
G1 F1800 X107.919 Y89.251 E0.11716
G1 X107.849 Y89.181
G0 F3600 X107.919 Y89.817
G1 F1800 X109.579 Y91.477 E0.11712
G1 X109.649 Y91.547
G0 F3600 X109.579 Y92.043
G1 F1800 X107.919 Y90.383 E0.11712
G1 X107.849 Y90.313
G0 F3600 X107.919 Y90.948
G1 F1800 X109.579 Y92.609 E0.11716
G1 X109.649 Y92.679
G0 F3600 X109.579 Y93.174
G1 F1800 X107.919 Y91.514 E0.11712
G1 X107.849 Y91.444
G0 F3600 X107.919 Y92.08
G1 F1800 X109.579 Y93.74 E0.11712
G1 X109.649 Y93.81
G0 F3600 X109.579 Y94.306
G1 F1800 X107.919 Y92.645 E0.11716
G1 X107.849 Y92.575
G0 F3600 X107.919 Y93.211
G1 F1800 X109.579 Y94.871 E0.11712
G1 X109.649 Y94.941
G0 F3600 X109.579 Y95.437
G1 F1800 X107.919 Y93.777 E0.11712
G1 X107.849 Y93.707
G0 F3600 X107.919 Y94.342
G1 F1800 X109.579 Y96.003 E0.11716
G1 X109.649 Y96.073
G0 F3600 X109.579 Y96.568
G1 F1800 X107.919 Y94.908 E0.11712
G1 X107.849 Y94.838
G0 F3600 X107.919 Y95.474
G1 F1800 X109.579 Y97.134 E0.11712
G1 X109.649 Y97.204
G0 F3600 X109.579 Y97.7
G1 F1800 X107.919 Y96.039 E0.11716
G1 X107.849 Y95.969
G0 F3600 X107.919 Y96.605
G1 F1800 X109.579 Y98.265 E0.11712
G1 X109.649 Y98.335
G0 F3600 X109.579 Y98.831
G1 F1800 X107.919 Y97.171 E0.11712
G1 X107.849 Y97.101
G0 F3600 X107.919 Y97.737
G1 F1800 X109.579 Y99.397 E0.11712
G1 X109.649 Y99.467
G0 F3600 X109.579 Y99.962
G1 F1800 X107.919 Y98.302 E0.11712
G1 X107.849 Y98.232
G0 F3600 X107.919 Y98.868
G1 F1800 X109.579 Y100.528 E0.11712
G1 X109.649 Y100.598
G0 F3600 X109.579 Y101.094
G1 F1800 X107.919 Y99.434 E0.11712
G1 X107.849 Y99.364
G0 F3600 X107.919 Y99.999
G1 F1800 X109.579 Y101.66 E0.11716
G1 X109.649 Y101.73
G0 F3600 X109.579 Y102.225
G1 F1800 X107.919 Y100.565 E0.11712
G1 X107.849 Y100.495
G0 F3600 X107.919 Y101.131
G1 F1800 X109.579 Y102.791 E0.11712
G1 X109.649 Y102.861
G0 F3600 X109.579 Y103.357
G1 F1800 X107.919 Y101.696 E0.11716
G1 X107.849 Y101.626
G0 F3600 X107.919 Y102.262
G1 F1800 X109.579 Y103.922 E0.11712
G1 X109.649 Y103.992
G0 F3600 X109.579 Y104.488
G1 F1800 X107.919 Y102.828 E0.11712
G1 X107.849 Y102.758
G0 F3600 X107.919 Y103.393
G1 F1800 X109.579 Y105.054 E0.11716
G1 X109.649 Y105.124
G0 F3600 X109.579 Y105.619
G1 F1800 X107.919 Y103.959 E0.11712
G1 X107.849 Y103.889
G0 F3600 X107.919 Y104.525
G1 F1800 X109.579 Y106.185 E0.11712
G1 X109.649 Y106.255
G0 F3600 X109.579 Y106.751
G1 F1800 X107.919 Y105.09 E0.11716
G1 X107.849 Y105.02
G0 F3600 X107.919 Y105.656
G1 F1800 X109.579 Y107.316 E0.11712
G1 X109.649 Y107.386
G0 F3600 X109.579 Y107.882
G1 F1800 X107.919 Y106.222 E0.11712
G1 X107.849 Y106.152
G0 F3600 X107.919 Y106.787
G1 F1800 X109.579 Y108.448 E0.11716
G1 X109.649 Y108.518
G0 F3600 X109.579 Y109.013
G1 F1800 X107.919 Y107.353 E0.11712
G1 X107.849 Y107.283
G0 F3600 X107.919 Y107.919
G1 F1800 X109.579 Y109.579 E0.11712
G1 X109.649 Y109.649
G0 F3600 X109.579 Y110.145
G1 F1800 X107.919 Y108.485 E0.11712
G1 X107.849 Y108.415
G0 F3600 X107.919 Y109.05
G1 F1800 X109.579 Y110.711 E0.11716
G1 X109.649 Y110.781
G0 F3600 X109.579 Y111.276
G1 F1800 X107.919 Y109.616 E0.11712
G1 X107.849 Y109.546
G0 F3600 X107.919 Y110.182
G1 F1800 X109.579 Y111.842 E0.11712
G1 X109.649 Y111.912
G0 F3600 X109.579 Y112.408
G1 F1800 X107.919 Y110.747 E0.11716
G1 X107.849 Y110.677
G0 F3600 X107.919 Y111.313
G1 F1800 X109.579 Y112.973 E0.11712
G1 X109.649 Y113.043
G0 F3600 X109.579 Y113.539
G1 F1800 X107.919 Y111.879 E0.11712
G1 X107.849 Y111.809
G0 F3600 X107.919 Y112.444
G1 F1800 X109.579 Y114.105 E0.11716
G1 X109.649 Y114.175
G0 F3600 X109.579 Y114.67
G1 F1800 X107.919 Y113.01 E0.11712
G1 X107.849 Y112.94
G0 F3600 X107.919 Y113.576
G1 F1800 X109.579 Y115.236 E0.11712
G1 X109.649 Y115.306
G0 F3600 X109.579 Y115.802
G1 F1800 X107.919 Y114.141 E0.11716
G1 X107.849 Y114.071
G0 F3600 X107.919 Y114.707
G1 F1800 X109.579 Y116.367 E0.11712
G1 X109.649 Y116.437
G0 F3600 X109.579 Y116.933
G1 F1800 X107.919 Y115.273 E0.11712
G1 X107.849 Y115.203
G0 F3600 X107.919 Y115.838
G1 F1800 X109.579 Y117.499 E0.11716
G1 X109.649 Y117.569
G0 F3600 X109.579 Y118.064
G1 F1800 X107.919 Y116.404 E0.11712
G1 X107.849 Y116.334
G0 F3600 X107.919 Y116.97
G1 F1800 X109.579 Y118.63 E0.11712
G1 X109.649 Y118.7
G0 F3600 X109.579 Y119.196
G1 F1800 X107.919 Y117.535 E0.11716
G1 X107.849 Y117.465
G0 F3600 X107.736 Y117.919
G1 F1800 X109.397 Y119.579 E0.11716
G1 X109.467 Y119.649
G0 F3600 X108.831 Y119.579
G1 F1800 X107.171 Y117.919 E0.11712
G1 X107.101 Y117.849
G0 F3600 X106.605 Y117.919
G1 F1800 X108.265 Y119.579 E0.11712
G1 X108.335 Y119.649
G0 F3600 X107.7 Y119.579
G1 F1800 X106.039 Y117.919 E0.11716
G1 X105.969 Y117.849
G0 F3600 X105.474 Y117.919
G1 F1800 X107.134 Y119.579 E0.11712
G1 X107.204 Y119.649
G0 F3600 X106.568 Y119.579
G1 F1800 X104.908 Y117.919 E0.11712
G1 X104.838 Y117.849
G0 F3600 X104.342 Y117.919
G1 F1800 X106.003 Y119.579 E0.11716
G1 X106.073 Y119.649
G0 F3600 X105.437 Y119.579
G1 F1800 X103.777 Y117.919 E0.11712
G1 X103.707 Y117.849
G0 F3600 X103.211 Y117.919
G1 F1800 X104.871 Y119.579 E0.11712
G1 X104.941 Y119.649
G0 F3600 X104.306 Y119.579
G1 F1800 X102.645 Y117.919 E0.11716
G1 X102.575 Y117.849
