;FLAVOR:RepRap
;TIME:8120
;Filament used: 2.81089m
;Layer height: 0.1
;Generated with Cura_SteamEngine 3.2.1
T0
M190 S50
M104 S210
M109 S210
M82 ;absolute extrusion mode
G28 ;Home
G1 Z15.0 F6000 ;Move the platform down 15mm
;Prime the extruder
G92 E0
G1 F200 E3
G92 E0
M83 ;relative extrusion mode
;LAYER_COUNT:185
;LAYER:0
M107
G0 F3600 X75.82 Y27.295 Z0.3
;TYPE:SKIRT
G1 F1200 X76.01 Y26.968 E0.01887
G1 X76.265 Y26.687 E0.01893
G1 X76.574 Y26.467 E0.01892
G1 X76.921 Y26.315 E0.0189
G1 X77.472 Y26.232 E0.0278
G1 X77.782 Y26.234 E0.01547
G1 X77.82 Y26.118 E0.00609
G1 X78.01 Y25.791 E0.01887
G1 X78.265 Y25.51 E0.01893
G1 X78.574 Y25.29 E0.01892
G1 X78.921 Y25.138 E0.0189
G1 X79.462 Y25.055 E0.02731
G1 X97.562 Y25.055 E0.90301
G1 X97.939 Y25.095 E0.01891
G1 X98.299 Y25.213 E0.0189
G1 X98.626 Y25.403 E0.01887
G1 X98.907 Y25.658 E0.01893
G1 X99.127 Y25.967 E0.01892
G1 X99.244 Y26.234 E0.01454
G1 X99.551 Y26.232 E0.01532
G1 X99.928 Y26.27 E0.0189
G1 X100.289 Y26.385 E0.0189
G1 X100.618 Y26.574 E0.01893
G1 X100.9 Y26.827 E0.0189
G1 X101.122 Y27.134 E0.0189
G1 X101.275 Y27.481 E0.01892
G1 X101.362 Y28.032 E0.02783
G1 X101.362 Y29.678 E0.08212
G1 X101.322 Y30.055 E0.01891
G1 X101.204 Y30.415 E0.0189
G1 X101.014 Y30.742 E0.01887
G1 X100.759 Y31.023 E0.01893
G1 X100.45 Y31.243 E0.01892
G1 X100.103 Y31.395 E0.0189
G1 X99.553 Y31.478 E0.02775
G1 X99.242 Y31.476 E0.01552
G1 X99.204 Y31.592 E0.00609
G1 X99.014 Y31.919 E0.01887
G1 X98.759 Y32.2 E0.01893
G1 X98.45 Y32.42 E0.01892
G1 X98.103 Y32.572 E0.0189
G1 X97.562 Y32.655 E0.02731
G1 X96.167 Y32.655 E0.0696
G1 X96.167 Y59.455 E1.33706
G1 X97.562 Y59.455 E0.0696
G1 X97.939 Y59.495 E0.01891
G1 X98.299 Y59.613 E0.0189
G1 X98.626 Y59.803 E0.01887
G1 X98.907 Y60.058 E0.01893
G1 X99.127 Y60.367 E0.01892
G1 X99.244 Y60.634 E0.01454
G1 X99.551 Y60.632 E0.01532
G1 X99.928 Y60.67 E0.0189
G1 X100.289 Y60.785 E0.0189
G1 X100.618 Y60.974 E0.01893
G1 X100.9 Y61.227 E0.0189
G1 X101.122 Y61.534 E0.0189
G1 X101.275 Y61.881 E0.01892
G1 X101.362 Y62.432 E0.02783
G1 X101.362 Y64.077 E0.08207
G1 X101.322 Y64.454 E0.01891
G1 X101.204 Y64.814 E0.0189
G1 X101.014 Y65.141 E0.01887
G1 X100.759 Y65.422 E0.01893
G1 X100.45 Y65.642 E0.01892
G1 X100.103 Y65.794 E0.0189
G1 X99.554 Y65.877 E0.0277
G1 X99.242 Y65.876 E0.01557
G1 X99.204 Y65.992 E0.00609
G1 X99.014 Y66.319 E0.01887
G1 X98.759 Y66.6 E0.01893
G1 X98.45 Y66.82 E0.01892
G1 X98.103 Y66.972 E0.0189
G1 X97.562 Y67.055 E0.02731
G1 X79.462 Y67.055 E0.90301
G1 X79.085 Y67.015 E0.01891
G1 X78.725 Y66.897 E0.0189
G1 X78.398 Y66.707 E0.01887
G1 X78.117 Y66.452 E0.01893
G1 X77.897 Y66.143 E0.01892
G1 X77.78 Y65.876 E0.01454
G1 X77.473 Y65.878 E0.01532
G1 X77.096 Y65.84 E0.0189
G1 X76.735 Y65.725 E0.0189
G1 X76.406 Y65.536 E0.01893
G1 X76.124 Y65.283 E0.0189
G1 X75.902 Y64.976 E0.0189
G1 X75.749 Y64.629 E0.01892
G1 X75.662 Y64.078 E0.02783
G1 X75.662 Y62.432 E0.08212
G1 X75.702 Y62.055 E0.01891
G1 X75.82 Y61.695 E0.0189
G1 X76.01 Y61.368 E0.01887
G1 X76.265 Y61.087 E0.01893
G1 X76.574 Y60.867 E0.01892
G1 X76.921 Y60.715 E0.0189
G1 X77.472 Y60.632 E0.0278
G1 X77.782 Y60.634 E0.01547
G1 X77.82 Y60.518 E0.00609
G1 X78.01 Y60.191 E0.01887
G1 X78.265 Y59.91 E0.01893
G1 X78.574 Y59.69 E0.01892
G1 X78.921 Y59.538 E0.0189
G1 X79.462 Y59.455 E0.02731
G1 X80.857 Y59.455 E0.0696
G1 X80.857 Y32.655 E1.33706
G1 X79.462 Y32.655 E0.0696
G1 X79.085 Y32.615 E0.01891
G1 X78.725 Y32.497 E0.0189
G1 X78.398 Y32.307 E0.01887
G1 X78.117 Y32.052 E0.01893
G1 X77.897 Y31.743 E0.01892
G1 X77.78 Y31.476 E0.01454
G1 X77.473 Y31.478 E0.01532
G1 X77.096 Y31.44 E0.0189
G1 X76.735 Y31.325 E0.0189
G1 X76.406 Y31.136 E0.01893
G1 X76.124 Y30.883 E0.0189
G1 X75.902 Y30.576 E0.0189
G1 X75.749 Y30.229 E0.01892
G1 X75.662 Y29.678 E0.02783
G1 X75.662 Y28.032 E0.08212
G1 X75.702 Y27.655 E0.01891
G1 X75.82 Y27.295 E0.0189
G0 F3600 X76.219 Y27.388
G1 F1200 X76.407 Y27.111 E0.0167
G1 X76.655 Y26.888 E0.01664
G1 X76.949 Y26.729 E0.01668
G1 X77.273 Y26.645 E0.0167
G1 X77.47 Y26.632 E0.00985
G1 X78.088 Y26.635 E0.03083
G1 X78.102 Y26.523 E0.00563
G1 X78.219 Y26.211 E0.01662
G1 X78.407 Y25.934 E0.0167
G1 X78.655 Y25.711 E0.01664
G1 X78.949 Y25.552 E0.01668
G1 X79.273 Y25.468 E0.0167
G1 X79.462 Y25.455 E0.00945
G1 X97.562 Y25.455 E0.90301
G1 X97.894 Y25.495 E0.01668
G1 X98.206 Y25.612 E0.01662
G1 X98.483 Y25.8 E0.0167
G1 X98.706 Y26.048 E0.01664
G1 X98.865 Y26.342 E0.01668
G1 X98.941 Y26.636 E0.01515
G1 X99.554 Y26.632 E0.03058
G1 X99.886 Y26.67 E0.01667
G1 X100.199 Y26.785 E0.01664
G1 X100.476 Y26.972 E0.01667
G1 X100.701 Y27.219 E0.01667
G1 X100.862 Y27.512 E0.01668
G1 X100.948 Y27.834 E0.01663
G1 X100.962 Y28.032 E0.0099
G1 X100.962 Y29.678 E0.08212
G1 X100.922 Y30.01 E0.01668
G1 X100.805 Y30.322 E0.01662
G1 X100.617 Y30.599 E0.0167
G1 X100.369 Y30.822 E0.01664
G1 X100.075 Y30.981 E0.01668
G1 X99.751 Y31.065 E0.0167
G1 X99.555 Y31.078 E0.0098
G1 X98.936 Y31.075 E0.03088
G1 X98.922 Y31.187 E0.00563
G1 X98.805 Y31.499 E0.01662
G1 X98.617 Y31.776 E0.0167
G1 X98.369 Y31.999 E0.01664
G1 X98.075 Y32.158 E0.01668
G1 X97.751 Y32.242 E0.0167
G1 X97.562 Y32.255 E0.00945
G1 X95.767 Y32.255 E0.08955
G1 X95.767 Y59.855 E1.37697
G1 X97.562 Y59.855 E0.08955
G1 X97.894 Y59.895 E0.01668
G1 X98.206 Y60.012 E0.01662
G1 X98.483 Y60.2 E0.0167
G1 X98.706 Y60.448 E0.01664
G1 X98.865 Y60.742 E0.01668
G1 X98.941 Y61.036 E0.01515
G1 X99.554 Y61.032 E0.03058
G1 X99.886 Y61.07 E0.01667
G1 X100.199 Y61.185 E0.01664
G1 X100.476 Y61.372 E0.01667
G1 X100.701 Y61.619 E0.01667
G1 X100.862 Y61.912 E0.01668
G1 X100.948 Y62.234 E0.01663
G1 X100.962 Y62.432 E0.0099
G1 X100.962 Y64.077 E0.08207
G1 X100.922 Y64.409 E0.01668
G1 X100.805 Y64.721 E0.01662
G1 X100.617 Y64.998 E0.0167
G1 X100.369 Y65.221 E0.01664
G1 X100.075 Y65.38 E0.01668
G1 X99.751 Y65.464 E0.0167
G1 X99.556 Y65.477 E0.00975
G1 X98.936 Y65.474 E0.03093
G1 X98.922 Y65.587 E0.00568
G1 X98.805 Y65.899 E0.01662
G1 X98.617 Y66.176 E0.0167
G1 X98.369 Y66.399 E0.01664
G1 X98.075 Y66.558 E0.01668
G1 X97.751 Y66.642 E0.0167
G1 X97.562 Y66.655 E0.00945
G1 X79.462 Y66.655 E0.90301
G1 X79.13 Y66.615 E0.01668
G1 X78.818 Y66.498 E0.01662
G1 X78.541 Y66.31 E0.0167
G1 X78.318 Y66.062 E0.01664
G1 X78.159 Y65.768 E0.01668
G1 X78.083 Y65.474 E0.01515
G1 X77.47 Y65.478 E0.03058
G1 X77.138 Y65.44 E0.01667
G1 X76.825 Y65.325 E0.01664
G1 X76.548 Y65.138 E0.01667
G1 X76.323 Y64.891 E0.01667
G1 X76.162 Y64.598 E0.01668
G1 X76.076 Y64.276 E0.01663
G1 X76.062 Y64.078 E0.0099
G1 X76.062 Y62.432 E0.08212
G1 X76.102 Y62.1 E0.01668
G1 X76.219 Y61.788 E0.01662
G1 X76.407 Y61.511 E0.0167
G1 X76.655 Y61.288 E0.01664
G1 X76.949 Y61.129 E0.01668
G1 X77.273 Y61.045 E0.0167
G1 X77.47 Y61.032 E0.00985
G1 X78.088 Y61.035 E0.03083
G1 X78.102 Y60.923 E0.00563
G1 X78.219 Y60.611 E0.01662
G1 X78.407 Y60.334 E0.0167
G1 X78.655 Y60.111 E0.01664
G1 X78.949 Y59.952 E0.01668
G1 X79.273 Y59.868 E0.0167
G1 X79.462 Y59.855 E0.00945
G1 X81.257 Y59.855 E0.08955
G1 X81.257 Y32.255 E1.37697
G1 X79.462 Y32.255 E0.08955
G1 X79.13 Y32.215 E0.01668
G1 X78.818 Y32.098 E0.01662
G1 X78.541 Y31.91 E0.0167
G1 X78.318 Y31.662 E0.01664
G1 X78.159 Y31.368 E0.01668
G1 X78.083 Y31.074 E0.01515
G1 X77.47 Y31.078 E0.03058
G1 X77.138 Y31.04 E0.01667
G1 X76.825 Y30.925 E0.01664
G1 X76.548 Y30.738 E0.01667
G1 X76.323 Y30.491 E0.01667
G1 X76.162 Y30.198 E0.01668
G1 X76.076 Y29.876 E0.01663
G1 X76.062 Y29.678 E0.0099
G1 X76.062 Y28.032 E0.08212
G1 X76.102 Y27.7 E0.01668
G1 X76.219 Y27.388 E0.01662
G0 F3600 X76.502 Y27.753
G1 F1200 X76.618 Y27.496 E0.01407
G1 X76.801 Y27.281 E0.01409
G1 X77.037 Y27.127 E0.01406
G1 X77.307 Y27.044 E0.01409
G1 X77.467 Y27.032 E0.008
G1 X78.462 Y27.037 E0.04964
G1 X78.462 Y26.855 E0.00908
G1 X78.502 Y26.576 E0.01406
G1 X78.618 Y26.319 E0.01407
G1 X78.801 Y26.104 E0.01409
G1 X79.037 Y25.95 E0.01406
G1 X79.307 Y25.867 E0.01409
G1 X79.462 Y25.855 E0.00776
G1 X97.562 Y25.855 E0.90301
G1 X97.841 Y25.895 E0.01406
G1 X98.098 Y26.011 E0.01407
G1 X98.313 Y26.194 E0.01409
G1 X98.467 Y26.43 E0.01406
G1 X98.55 Y26.7 E0.01409
G1 X98.562 Y26.855 E0.00776
G1 X98.562 Y27.038 E0.00913
G1 X99.556 Y27.032 E0.04959
G1 X99.836 Y27.07 E0.0141
G1 X100.093 Y27.185 E0.01405
G1 X100.309 Y27.367 E0.01409
G1 X100.465 Y27.602 E0.01407
G1 X100.549 Y27.871 E0.01406
G1 X100.562 Y28.032 E0.00806
G1 X100.562 Y29.678 E0.08212
G1 X100.522 Y29.957 E0.01406
G1 X100.406 Y30.214 E0.01407
G1 X100.223 Y30.429 E0.01409
G1 X99.987 Y30.583 E0.01406
G1 X99.717 Y30.666 E0.01409
G1 X99.557 Y30.678 E0.008
G1 X98.562 Y30.673 E0.04964
G1 X98.562 Y30.855 E0.00908
G1 X98.522 Y31.134 E0.01406
G1 X98.406 Y31.391 E0.01407
G1 X98.223 Y31.606 E0.01409
G1 X97.987 Y31.76 E0.01406
G1 X97.717 Y31.843 E0.01409
G1 X97.562 Y31.855 E0.00776
G1 X95.367 Y31.855 E0.10951
G1 X95.367 Y60.255 E1.41688
G1 X97.562 Y60.255 E0.10951
G1 X97.841 Y60.295 E0.01406
G1 X98.098 Y60.411 E0.01407
G1 X98.313 Y60.594 E0.01409
G1 X98.467 Y60.83 E0.01406
G1 X98.55 Y61.1 E0.01409
G1 X98.562 Y61.255 E0.00776
G1 X98.562 Y61.438 E0.00913
G1 X99.556 Y61.432 E0.04959
G1 X99.836 Y61.47 E0.0141
G1 X100.093 Y61.585 E0.01405
G1 X100.309 Y61.767 E0.01409
G1 X100.465 Y62.002 E0.01407
G1 X100.549 Y62.271 E0.01406
G1 X100.562 Y62.432 E0.00806
G1 X100.562 Y64.077 E0.08207
G1 X100.522 Y64.356 E0.01406
G1 X100.406 Y64.613 E0.01407
G1 X100.223 Y64.828 E0.01409
G1 X99.987 Y64.982 E0.01406
G1 X99.717 Y65.065 E0.01409
G1 X99.558 Y65.077 E0.00796
G1 X98.562 Y65.073 E0.04969
G1 X98.562 Y65.255 E0.00908
G1 X98.522 Y65.534 E0.01406
G1 X98.406 Y65.791 E0.01407
G1 X98.223 Y66.006 E0.01409
G1 X97.987 Y66.16 E0.01406
G1 X97.717 Y66.243 E0.01409
G1 X97.562 Y66.255 E0.00776
G1 X79.462 Y66.255 E0.90301
G1 X79.183 Y66.215 E0.01406
G1 X78.926 Y66.099 E0.01407
G1 X78.711 Y65.916 E0.01409
G1 X78.557 Y65.68 E0.01406
G1 X78.474 Y65.41 E0.01409
G1 X78.462 Y65.255 E0.00776
G1 X78.462 Y65.072 E0.00913
G1 X77.468 Y65.078 E0.04959
G1 X77.188 Y65.04 E0.0141
G1 X76.931 Y64.925 E0.01405
G1 X76.715 Y64.743 E0.01409
G1 X76.559 Y64.508 E0.01407
G1 X76.475 Y64.239 E0.01406
G1 X76.462 Y64.078 E0.00806
G1 X76.462 Y62.432 E0.08212
G1 X76.502 Y62.153 E0.01406
G1 X76.618 Y61.896 E0.01407
G1 X76.801 Y61.681 E0.01409
G1 X77.037 Y61.527 E0.01406
G1 X77.307 Y61.444 E0.01409
G1 X77.467 Y61.432 E0.008
G1 X78.462 Y61.437 E0.04964
G1 X78.462 Y61.255 E0.00908
G1 X78.502 Y60.976 E0.01406
G1 X78.618 Y60.719 E0.01407
G1 X78.801 Y60.504 E0.01409
G1 X79.037 Y60.35 E0.01406
G1 X79.307 Y60.267 E0.01409
G1 X79.462 Y60.255 E0.00776
G1 X81.657 Y60.255 E0.10951
G1 X81.657 Y31.855 E1.41688
G1 X79.462 Y31.855 E0.10951
G1 X79.183 Y31.815 E0.01406
G1 X78.926 Y31.699 E0.01407
G1 X78.711 Y31.516 E0.01409
G1 X78.557 Y31.28 E0.01406
G1 X78.474 Y31.01 E0.01409
G1 X78.462 Y30.855 E0.00776
G1 X78.462 Y30.672 E0.00913
G1 X77.468 Y30.678 E0.04959
G1 X77.188 Y30.64 E0.0141
G1 X76.931 Y30.525 E0.01405
G1 X76.715 Y30.343 E0.01409
G1 X76.559 Y30.108 E0.01407
G1 X76.475 Y29.839 E0.01406
G1 X76.462 Y29.678 E0.00806
G1 X76.462 Y28.032 E0.08212
G1 X76.502 Y27.753 E0.01406
G0 F3600 X76.902 Y27.817
G1 F1200 X77.015 Y27.631 E0.01086
G1 X77.188 Y27.498 E0.01089
G1 X77.465 Y27.432 E0.01421
G1 X78.862 Y27.44 E0.0697
G1 X78.862 Y26.855 E0.02919
G1 X78.902 Y26.64 E0.01091
G1 X79.015 Y26.454 E0.01086
G1 X79.188 Y26.321 E0.01089
G1 X79.462 Y26.255 E0.01406
G1 X97.562 Y26.255 E0.90301
G1 X97.777 Y26.295 E0.01091
G1 X97.963 Y26.408 E0.01086
G1 X98.096 Y26.581 E0.01089
G1 X98.162 Y26.855 E0.01406
G1 X98.162 Y27.44 E0.02919
G1 X99.558 Y27.432 E0.06965
G1 X99.773 Y27.47 E0.01089
G1 X99.96 Y27.583 E0.0109
G1 X100.094 Y27.755 E0.01088
G1 X100.162 Y28.032 E0.01423
G1 X100.162 Y29.678 E0.08212
G1 X100.122 Y29.893 E0.01091
G1 X100.009 Y30.079 E0.01086
G1 X99.836 Y30.212 E0.01089
G1 X99.559 Y30.278 E0.01421
G1 X98.162 Y30.271 E0.0697
G1 X98.162 Y30.855 E0.02914
G1 X98.122 Y31.07 E0.01091
G1 X98.009 Y31.256 E0.01086
G1 X97.836 Y31.389 E0.01089
G1 X97.562 Y31.455 E0.01406
G1 X94.967 Y31.455 E0.12947
G1 X94.967 Y60.655 E1.45679
G1 X97.562 Y60.655 E0.12947
G1 X97.777 Y60.695 E0.01091
G1 X97.963 Y60.808 E0.01086
G1 X98.096 Y60.981 E0.01089
G1 X98.162 Y61.255 E0.01406
G1 X98.162 Y61.84 E0.02919
G1 X99.558 Y61.832 E0.06965
G1 X99.773 Y61.87 E0.01089
G1 X99.96 Y61.983 E0.0109
G1 X100.094 Y62.155 E0.01088
G1 X100.162 Y62.432 E0.01423
G1 X100.162 Y64.077 E0.08207
G1 X100.122 Y64.292 E0.01091
G1 X100.009 Y64.478 E0.01086
G1 X99.836 Y64.611 E0.01089
G1 X99.559 Y64.677 E0.01421
G1 X98.162 Y64.671 E0.0697
G1 X98.162 Y65.255 E0.02914
G1 X98.122 Y65.47 E0.01091
G1 X98.009 Y65.656 E0.01086
G1 X97.836 Y65.789 E0.01089
G1 X97.562 Y65.855 E0.01406
G1 X79.462 Y65.855 E0.90301
G1 X79.247 Y65.815 E0.01091
G1 X79.061 Y65.702 E0.01086
G1 X78.928 Y65.529 E0.01089
G1 X78.862 Y65.255 E0.01406
G1 X78.862 Y64.67 E0.02919
G1 X77.466 Y64.678 E0.06965
G1 X77.251 Y64.64 E0.01089
G1 X77.064 Y64.527 E0.0109
G1 X76.93 Y64.355 E0.01088
G1 X76.862 Y64.078 E0.01423
G1 X76.862 Y62.432 E0.08212
G1 X76.902 Y62.217 E0.01091
G1 X77.015 Y62.031 E0.01086
G1 X77.188 Y61.898 E0.01089
G1 X77.465 Y61.832 E0.01421
G1 X78.862 Y61.84 E0.0697
G1 X78.862 Y61.255 E0.02919
G1 X78.902 Y61.04 E0.01091
G1 X79.015 Y60.854 E0.01086
G1 X79.188 Y60.721 E0.01089
G1 X79.462 Y60.655 E0.01406
G1 X82.057 Y60.655 E0.12947
G1 X82.057 Y31.455 E1.45679
G1 X79.462 Y31.455 E0.12947
G1 X79.247 Y31.415 E0.01091
G1 X79.061 Y31.302 E0.01086
G1 X78.928 Y31.129 E0.01089
G1 X78.862 Y30.855 E0.01406
G1 X78.862 Y30.27 E0.02919
G1 X77.466 Y30.278 E0.06965
G1 X77.251 Y30.24 E0.01089
G1 X77.064 Y30.127 E0.0109
G1 X76.93 Y29.955 E0.01088
G1 X76.862 Y29.678 E0.01423
G1 X76.862 Y28.032 E0.08212
G1 X76.902 Y27.817 E0.01091
G0 F3600 X77.301 Y27.913
G1 F1200 X77.463 Y27.832 E0.00904
G1 X79.262 Y27.842 E0.08975
G1 X79.262 Y26.855 E0.04924
G1 X79.301 Y26.736 E0.00625
G1 X79.462 Y26.655 E0.00899
G1 X97.562 Y26.655 E0.90301
G1 X97.681 Y26.694 E0.00625
G1 X97.762 Y26.855 E0.00899
G1 X97.762 Y27.843 E0.04929
G1 X99.561 Y27.832 E0.08975
G1 X99.68 Y27.87 E0.00623
G1 X99.762 Y28.032 E0.00906
G1 X99.762 Y29.678 E0.08212
G1 X99.723 Y29.797 E0.00625
G1 X99.561 Y29.878 E0.00904
G1 X97.762 Y29.869 E0.08975
G1 X97.762 Y30.855 E0.04919
G1 X97.723 Y30.974 E0.00625
G1 X97.562 Y31.055 E0.00899
G1 X94.567 Y31.055 E0.14942
G1 X94.567 Y61.055 E1.49671
G1 X97.562 Y61.055 E0.14942
G1 X97.681 Y61.094 E0.00625
G1 X97.762 Y61.255 E0.00899
G1 X97.762 Y62.243 E0.04929
G1 X99.561 Y62.232 E0.08975
G1 X99.68 Y62.27 E0.00623
G1 X99.762 Y62.432 E0.00906
G1 X99.762 Y64.077 E0.08207
G1 X99.723 Y64.196 E0.00625
G1 X99.561 Y64.277 E0.00904
G1 X97.762 Y64.269 E0.08975
G1 X97.762 Y65.255 E0.04919
G1 X97.723 Y65.374 E0.00625
G1 X97.562 Y65.455 E0.00899
G1 X79.462 Y65.455 E0.90301
G1 X79.343 Y65.416 E0.00625
G1 X79.262 Y65.255 E0.00899
G1 X79.262 Y64.267 E0.04929
G1 X77.463 Y64.278 E0.08975
G1 X77.344 Y64.24 E0.00623
G1 X77.262 Y64.078 E0.00906
G1 X77.262 Y62.432 E0.08212
G1 X77.301 Y62.313 E0.00625
G1 X77.463 Y62.232 E0.00904
G1 X79.262 Y62.242 E0.08975
G1 X79.262 Y61.255 E0.04924
G1 X79.301 Y61.136 E0.00625
G1 X79.462 Y61.055 E0.00899
G1 X82.457 Y61.055 E0.14942
G1 X82.457 Y31.055 E1.49671
G1 X79.462 Y31.055 E0.14942
G1 X79.343 Y31.016 E0.00625
G1 X79.262 Y30.855 E0.00899
G1 X79.262 Y29.867 E0.04929
G1 X77.463 Y29.878 E0.08975
G1 X77.344 Y29.84 E0.00623
G1 X77.262 Y29.678 E0.00906
G1 X77.262 Y28.032 E0.08212
G1 X77.301 Y27.913 E0.00625
G1 F1500 E-6.5
G0 F3600 X77.303 Y27.366
G0 X78.809 Y26.202
G0 X98.215 Y26.202
G0 X109.836 Y26.749
G1 F1500 E6.5
G1 F1200 X109.876 Y26.372 E0.01891
G1 X109.994 Y26.012 E0.0189
G1 X110.184 Y25.685 E0.01887
G1 X110.439 Y25.404 E0.01893
