;FLAVOR:RepRap
;TIME:11221
;Filament used: 9.06745m
;Layer height: 0.2
;Generated with Cura_SteamEngine 3.2.1
T0
M190 S60
M104 S205
M109 S205
M82 ;absolute extrusion mode
G28 ;Home
G1 Z15.0 F6000 ;Move the platform down 15mm
;Prime the extruder
G92 E0
G1 F200 E7
G92 E0
M83 ;relative extrusion mode
;LAYER_COUNT:68
;LAYER:0
M106 S255
G0 F1200 X57.93 Y48.366 Z0.18
;TYPE:SUPPORT
G1 F600 X58.046 Y48.25 E0.00491
G1 X59.201 Y48.25 E0.03457
G1 X59.036 Y48.591 E0.01134
G1 X60.175 Y50.033 E0.05501
G1 X60.373 Y50.409 E0.01272
G1 X60.831 Y51.339 E0.03103
G1 X60.967 Y51.771 E0.01356
G1 X61.091 Y52.25 E0.01481
G1 X58.062 Y52.25 E0.09067
G1 X57.931 Y52.119 E0.00555
G1 X57.93 Y48.366 E0.11234
G0 F1200 X58.652 Y48.41
G1 F600 X58.652 Y52.09 E0.11016
G1 F1500 E-6.5
G1 F300 Z1.18
G0 F1200 X58.09 Y50.654 Z1.18
G1 F300 Z0.18
G1 F1500 E6.5
G1 F600 X60.317 Y50.654 E0.06666
G1 F1500 E-6.5
G1 F300 Z1.18
G0 F1200 X52.25 Y58.05 Z1.18
G1 F300 Z0.18
G1 F1500 E6.5
G1 F600 X52.246 Y61.092 E0.09106
G1 X51.743 Y60.962 E0.01555
G1 X51.321 Y60.827 E0.01326
G1 X50.282 Y60.313 E0.0347
G1 X50.04 Y60.183 E0.00822
G1 X48.588 Y59.038 E0.05535
G1 X48.25 Y59.203 E0.01126
G1 X48.25 Y58.066 E0.03404
G1 X48.381 Y57.935 E0.00555
G1 X52.134 Y57.934 E0.11234
G1 X52.25 Y58.05 E0.00491
G0 F1200 X52.089 Y58.652
G1 F600 X48.41 Y58.652 E0.11013
G1 F1500 E-6.5
G1 F300 Z1.18
G0 F1200 X50.654 Y58.094 Z1.18
G1 F300 Z0.18
G1 F1500 E6.5
G1 F600 X50.654 Y60.318 E0.06657
G1 F1500 E-6.5
G1 F300 Z1.18
G0 F1200 X52.25 Y138.958 Z1.18
G1 F300 Z0.18
G1 F1500 E6.5
G1 F600 X52.25 Y141.94 E0.08926
G1 X52.119 Y142.071 E0.00555
G1 X48.366 Y142.072 E0.11234
G1 X48.25 Y141.956 E0.00491
G1 X48.25 Y140.807 E0.03439
G1 X48.582 Y140.968 E0.01105
G1 X50.003 Y139.871 E0.05374
G1 X50.479 Y139.624 E0.01605
G1 X51.321 Y139.215 E0.02802
G1 X51.756 Y139.082 E0.01362
G1 X52.25 Y138.958 E0.01525
G1 F1500 E-6.5
G1 F300 Z1.18
G0 F1200 X50.654 Y139.716 Z1.18
G1 F300 Z0.18
G1 F1500 E6.5
G1 F600 X50.654 Y141.912 E0.06574
G1 F1500 E-6.5
G1 F300 Z1.18
G0 F1200 X52.089 Y141.298 Z1.18
G1 F300 Z0.18
G1 F1500 E6.5
G1 F600 X48.409 Y141.298 E0.11016
G1 F1500 E-6.5
G1 F300 Z1.18
G0 F1200 X57.932 Y147.866 Z1.18
G1 F300 Z0.18
G1 F1500 E6.5
G1 F600 X58.048 Y147.75 E0.00491
G1 X61.044 Y147.75 E0.08968
G1 X60.912 Y148.274 E0.01618
G1 X60.782 Y148.691 E0.01308
G1 X60.239 Y149.806 E0.03712
G1 X60.16 Y149.96 E0.00518
G1 X59.035 Y151.418 E0.05513
G1 X59.193 Y151.75 E0.01101
G1 X58.048 Y151.75 E0.03427
G1 X57.932 Y151.634 E0.00491
G1 X57.932 Y147.866 E0.11279
G0 F1200 X58.652 Y147.91
G1 F600 X58.652 Y151.59 E0.11016
G1 F1500 E-6.5
G1 F300 Z1.18
G0 F1200 X58.091 Y149.296 Z1.18
G1 F300 Z0.18
G1 F1500 E6.5
G1 F600 X60.306 Y149.296 E0.0663
G1 F1500 E-6.5
G1 F300 Z1.18
G0 F1200 X138.944 Y147.75 Z1.18
G1 F300 Z0.18
G1 F1500 E6.5
G1 F600 X141.937 Y147.75 E0.08959
G1 X142.068 Y147.881 E0.00555
G1 X142.069 Y151.634 E0.11234
G1 X141.953 Y151.75 E0.00491
G1 X140.806 Y151.75 E0.03433
G1 X140.964 Y151.417 E0.01103
G1 X139.848 Y149.977 E0.05453
G1 X139.715 Y149.722 E0.00861
G1 X139.201 Y148.669 E0.03508
G1 X139.068 Y148.24 E0.01344
G1 X138.944 Y147.75 E0.01513
G1 F1500 E-6.5
G1 F300 Z1.18
G0 F1200 X139.684 Y149.296 Z1.18
G1 F300 Z0.18
G1 F1500 E6.5
G1 F600 X141.909 Y149.296 E0.0666
G1 F1500 E-6.5
G1 F300 Z1.18
G0 F1200 X141.298 Y147.91 Z1.18
G1 F300 Z0.18
G1 F1500 E6.5
G1 F600 X141.298 Y151.59 E0.11016
G1 F1500 E-6.5
G1 F300 Z1.18
G0 F1200 X147.866 Y142.069 Z1.18
G1 F300 Z0.18
G1 F1500 E6.5
G1 F600 X147.75 Y141.953 E0.00491
G1 X147.75 Y138.946 E0.09001
G1 X148.323 Y139.091 E0.01769
G1 X148.662 Y139.196 E0.01062
G1 X149.701 Y139.704 E0.03462
G1 X149.977 Y139.851 E0.00936
G1 X151.416 Y140.965 E0.05447
G1 X151.685 Y140.835 E0.00894
G1 X151.697 Y140.836 E0.00036
G1 X151.75 Y140.809 E0.00178
G1 X151.75 Y141.953 E0.03424
G1 X151.634 Y142.069 E0.00491
G1 X147.866 Y142.069 E0.11279
G0 F1200 X147.91 Y141.298
G1 F600 X151.59 Y141.298 E0.11016
G1 F1500 E-6.5
G1 F300 Z1.18
G0 F1200 X149.296 Y141.909 Z1.18
G1 F300 Z0.18
G1 F1500 E6.5
G1 F600 X149.296 Y139.685 E0.06657
G1 F1500 E-6.5
G1 F300 Z1.18
G0 F1200 X147.75 Y61.092 Z1.18
G1 F300 Z0.18
G1 F1500 E6.5
G1 F600 X147.75 Y58.064 E0.09064
G1 X147.881 Y57.933 E0.00555
G1 X151.634 Y57.932 E0.11234
G1 X151.75 Y58.048 E0.00491
G1 X151.75 Y59.203 E0.03457
G1 X151.41 Y59.037 E0.01133
G1 X149.997 Y60.152 E0.05388
G1 X149.573 Y60.383 E0.01445
G1 X148.679 Y60.826 E0.02987
G1 X148.26 Y60.96 E0.01317
G1 X147.75 Y61.092 E0.01577
G1 F1500 E-6.5
G1 F300 Z1.18
G0 F1200 X149.296 Y60.341 Z1.18
G1 F300 Z0.18
G1 F1500 E6.5
G1 F600 X149.296 Y58.092 E0.06732
G1 F1500 E-6.5
G1 F300 Z1.18
G0 F1200 X147.91 Y58.652 Z1.18
G1 F300 Z0.18
G1 F1500 E6.5
G1 F600 X151.59 Y58.652 E0.11016
G1 F1500 E-6.5
G1 F300 Z1.18
G0 F1200 X142.067 Y52.134 Z1.18
G1 F300 Z0.18
G1 F1500 E6.5
G1 F600 X141.951 Y52.25 E0.00491
G1 X138.911 Y52.244 E0.091
G1 X139.035 Y51.763 E0.01487
G1 X139.18 Y51.309 E0.01427
G1 X139.665 Y50.332 E0.03265
G1 X139.827 Y50.03 E0.01026
G1 X140.963 Y48.588 E0.05495
G1 X140.798 Y48.25 E0.01126
G1 X141.951 Y48.25 E0.03451
G1 X142.067 Y48.366 E0.00491
G1 X142.067 Y52.134 E0.11279
G0 F1200 X141.298 Y52.088
G1 F600 X141.298 Y48.41 E0.1101
G1 F1500 E-6.5
G1 F300 Z1.18
G0 F1200 X141.907 Y50.654 Z1.18
G1 F300 Z0.18
G1 F1500 E6.5
G1 F600 X139.684 Y50.654 E0.06654
G1 F1500 E-6.5
G1 F300 Z1.18
G0 F1200 X150.735 Y61.482 Z1.18
;TYPE:WALL-INNER
G1 F300 Z0.18
G1 F1500 E6.5
G1 F600 X150.827 Y61.409 E0.00352
G1 X151.15 Y61.154 E0.01232
G1 X151.15 Y61.565 E0.00677
G1 X151.15 Y61.566 E0.00003
G1 X151.15 Y138.454 E2.30157
G1 X151.15 Y138.455 E0.00003
G1 X151.15 Y138.861 E0.01215
G1 X150.829 Y138.612 E0.0067
G1 X150.73 Y138.536 E0.00374
G1 X149.094 Y137.738 E0.05449
G1 X147.331 Y137.292 E0.05444
G1 X145.511 Y137.214 E0.05453
G1 X143.713 Y137.511 E0.05455
G1 X142.013 Y138.172 E0.0546
G1 X140.486 Y139.166 E0.05454
G1 X139.194 Y140.452 E0.05457
G1 X138.173 Y142.012 E0.05581
G1 X137.512 Y143.712 E0.0546
G1 X137.215 Y145.509 E0.05452
G1 X137.29 Y147.33 E0.05456
G1 X137.736 Y149.093 E0.05444
G1 X138.534 Y150.729 E0.05449
G1 X138.611 Y150.828 E0.00375
G1 X138.86 Y151.15 E0.01218
G1 X138.453 Y151.15 E0.00672
G1 X61.543 Y151.15 E2.30223
G1 X61.136 Y151.15 E0.01218
G1 X61.385 Y150.828 E0.00672
G1 X61.461 Y150.729 E0.00374
G1 X62.253 Y149.094 E0.05438
G1 X62.696 Y147.333 E0.05436
G1 X62.77 Y145.51 E0.05461
G1 X62.469 Y143.711 E0.0546
G1 X61.804 Y142.013 E0.05459
G1 X60.806 Y140.485 E0.05463
G1 X59.514 Y139.194 E0.05467
G1 X57.988 Y138.197 E0.05456
G1 X56.289 Y137.533 E0.0546
G1 X54.49 Y137.233 E0.0546
G1 X52.668 Y137.306 E0.05458
G1 X50.907 Y137.748 E0.05435
G1 X49.272 Y138.541 E0.0544
G1 X49.172 Y138.619 E0.0038
G1 X48.85 Y138.867 E0.01217
G1 X48.85 Y138.461 E0.00671
G1 X48.85 Y138.46 E0.00003
G1 X48.85 Y61.567 E2.30172
G1 X48.85 Y61.566 E0.00003
G1 X48.85 Y61.155 E0.0123
G1 X49.173 Y61.41 E0.00677
G1 X49.266 Y61.483 E0.00354
G1 X50.904 Y62.295 E0.05473
G1 X52.676 Y62.755 E0.0548
G1 X54.505 Y62.841 E0.05481
G1 X56.315 Y62.547 E0.05489
G1 X58.025 Y61.886 E0.05488
G1 X59.56 Y60.888 E0.05481
G1 X60.86 Y59.596 E0.05486
G1 X61.884 Y58.025 E0.05613
G1 X62.544 Y56.315 E0.05487
G1 X62.837 Y54.505 E0.05489
G1 X62.753 Y52.676 E0.05481
G1 X62.293 Y50.905 E0.05477
G1 X61.48 Y49.265 E0.05479
G1 X61.407 Y49.173 E0.00352
G1 X61.152 Y48.85 E0.01232
G1 X61.563 Y48.85 E0.00677
G1 X61.564 Y48.85 E0.00003
G1 X138.434 Y48.85 E2.30104
G1 X138.435 Y48.85 E0.00003
G1 X138.846 Y48.85 E0.0123
G1 X138.591 Y49.173 E0.00677
G1 X138.519 Y49.265 E0.0035
G1 X137.707 Y50.905 E0.05478
G1 X137.248 Y52.675 E0.05474
G1 X137.162 Y54.504 E0.05481
G1 X137.456 Y56.313 E0.05486
G1 X138.116 Y58.022 E0.05484
G1 X139.114 Y59.559 E0.05486
G1 X140.405 Y60.858 E0.05482
G1 X141.976 Y61.883 E0.05615
G1 X143.686 Y62.543 E0.05487
G1 X145.494 Y62.836 E0.05483
G1 X147.324 Y62.753 E0.05484
G1 X149.094 Y62.294 E0.05474
G1 X150.735 Y61.482 E0.05481
G0 F1200 X150.788 Y61.566
G0 X149.107 Y62.331
G0 X147.329 Y62.792
G0 X145.842 Y62.858
G0 X60.965 Y59.615
G0 X60.548 Y59.342
;TYPE:WALL-OUTER
G1 F600 X61.526 Y57.842 E0.0536
G1 X62.156 Y56.21 E0.05237
G1 X62.436 Y54.482 E0.0524
G1 X62.355 Y52.736 E0.05232
G1 X61.916 Y51.046 E0.05227
G1 X61.14 Y49.48 E0.05232
G1 X60.582 Y48.773 E0.02696
G1 X60.327 Y48.45 E0.01232
G1 X60.738 Y48.45 E0.00677
G1 X60.739 Y48.45 E0.00003
G1 X139.259 Y48.45 E2.35043
G1 X139.26 Y48.45 E0.00003
G1 X139.671 Y48.45 E0.0123
G1 X139.416 Y48.773 E0.00677
G1 X138.859 Y49.48 E0.02694
G1 X138.084 Y51.045 E0.05228
G1 X137.646 Y52.735 E0.05226
G1 X137.564 Y54.481 E0.05232
G1 X137.844 Y56.208 E0.05237
G1 X138.474 Y57.839 E0.05234
G1 X139.427 Y59.306 E0.05237
G1 X140.659 Y60.546 E0.05232
G1 X142.159 Y61.525 E0.05362
G1 X143.791 Y62.155 E0.05237
G1 X145.517 Y62.435 E0.05234
G1 X147.264 Y62.355 E0.05235
G1 X148.954 Y61.917 E0.05226
G1 X150.52 Y61.142 E0.0523
G1 X151.227 Y60.584 E0.02696
G1 X151.55 Y60.329 E0.01232
G1 X151.55 Y60.74 E0.00677
G1 X151.55 Y60.741 E0.00003
G1 X151.55 Y139.269 E2.35067
G1 X151.55 Y139.27 E0.00003
G1 X151.55 Y139.677 E0.01218
G1 X151.228 Y139.427 E0.00672
G1 X150.518 Y138.877 E0.02688
G1 X148.956 Y138.116 E0.05201
G1 X147.273 Y137.69 E0.05197
G1 X145.535 Y137.615 E0.05207
G1 X143.819 Y137.899 E0.05207
G1 X142.197 Y138.53 E0.0521
G1 X140.739 Y139.479 E0.05207
G1 X139.506 Y140.706 E0.05207
G1 X138.531 Y142.196 E0.0533
G1 X137.9 Y143.818 E0.0521
G1 X137.616 Y145.534 E0.05207
G1 X137.688 Y147.272 E0.05207
G1 X138.114 Y148.955 E0.05197
G1 X138.875 Y150.517 E0.05201
G1 X139.426 Y151.228 E0.02693
G1 X139.676 Y151.55 E0.0122
G1 X139.269 Y151.55 E0.00671
G1 X139.268 Y151.55 E0.00003
G1 X60.728 Y151.55 E2.35103
G1 X60.727 Y151.55 E0.00003
G1 X60.322 Y151.55 E0.01212
G1 X60.57 Y151.229 E0.00669
G1 X61.119 Y150.517 E0.02691
G1 X61.875 Y148.957 E0.05189
G1 X62.298 Y147.275 E0.05192
G1 X62.369 Y145.535 E0.05213
G1 X62.081 Y143.818 E0.05211
G1 X61.447 Y142.197 E0.0521
G1 X60.494 Y140.739 E0.05214
G1 X59.261 Y139.506 E0.0522
G1 X57.804 Y138.555 E0.05208
G1 X56.182 Y137.921 E0.05213
G1 X54.465 Y137.634 E0.05211
G1 X52.725 Y137.704 E0.05213
G1 X51.044 Y138.126 E0.05188
G1 X49.484 Y138.883 E0.0519
G1 X48.771 Y139.433 E0.02696
G1 X48.45 Y139.681 E0.01214
G1 X48.45 Y139.276 E0.00668
G1 X48.45 Y139.275 E0.00003
G1 X48.45 Y60.742 E2.35082
G1 X48.45 Y60.741 E0.00003
G1 X48.45 Y60.33 E0.0123
G1 X48.773 Y60.585 E0.00677
G1 X49.481 Y61.143 E0.02698
G1 X51.045 Y61.918 E0.05225
G1 X52.736 Y62.357 E0.0523
G1 X54.482 Y62.439 E0.05232
G1 X56.21 Y62.159 E0.0524
G1 X57.842 Y61.528 E0.05238
G1 X59.307 Y60.575 E0.05232
G1 X60.548 Y59.342 E0.05237
G0 F1200 X60.657 Y59.175
G0 X61.074 Y59.449
G0 X61.164 Y59.844
;TYPE:SKIN
G1 F600 X62.233 Y58.204 E0.0586
G1 X62.922 Y56.418 E0.0573
G1 X63.229 Y54.528 E0.05732
G1 X63.141 Y52.617 E0.05726
G1 X62.66 Y50.768 E0.05719
G1 X61.903 Y49.24 E0.05104
G1 X138.096 Y49.24 E2.28077
G1 X137.34 Y50.768 E0.05103
G1 X136.86 Y52.616 E0.05715
G1 X136.77 Y54.526 E0.05724
G1 X137.078 Y56.416 E0.05732
G1 X137.767 Y58.2 E0.05725
G1 X138.809 Y59.805 E0.05728
G1 X140.157 Y61.162 E0.05726
G1 X141.797 Y62.232 E0.05862
G1 X143.583 Y62.921 E0.0573
G1 X145.471 Y63.228 E0.05726
G1 X147.382 Y63.141 E0.05726
G1 X149.231 Y62.661 E0.05718
G1 X150.76 Y61.905 E0.05106
G1 X150.76 Y138.117 E2.28134
G1 X149.229 Y137.37 E0.05099
G1 X147.388 Y136.904 E0.05685
G1 X145.487 Y136.822 E0.05696
G1 X143.61 Y137.133 E0.05695
G1 X141.834 Y137.823 E0.05703
G1 X140.24 Y138.861 E0.05694
G1 X138.89 Y140.204 E0.057
G1 X137.824 Y141.833 E0.05828
G1 X137.134 Y143.609 E0.05703
G1 X136.823 Y145.485 E0.05692
G1 X136.902 Y147.387 E0.05698
G1 X137.368 Y149.228 E0.05685
G1 X138.115 Y150.76 E0.05102
G1 X61.879 Y150.76 E2.28206
G1 X62.622 Y149.228 E0.05097
G1 X63.084 Y147.389 E0.05676
G1 X63.162 Y145.485 E0.05704
G1 X62.847 Y143.606 E0.05703
G1 X62.153 Y141.833 E0.05699
G1 X61.11 Y140.238 E0.05705
G1 X59.761 Y138.89 E0.05709
G1 X58.167 Y137.848 E0.05701
G1 X56.393 Y137.155 E0.05701
G1 X54.515 Y136.841 E0.057
G1 X52.612 Y136.918 E0.05701
G1 X50.773 Y137.379 E0.05675
G1 X49.24 Y138.123 E0.05101
G1 X49.24 Y61.905 E2.28152
G1 X50.767 Y62.662 E0.05102
G1 X52.617 Y63.143 E0.05722
G1 X54.527 Y63.233 E0.05724
G1 X56.418 Y62.925 E0.05735
G1 X58.204 Y62.235 E0.05731
G1 X59.806 Y61.193 E0.05721
G1 X61.164 Y59.844 E0.0573
G0 F1200 X137.759 Y49.513
G0 X137.713 Y49.466
G1 F600 X137.336 Y49.655 E0.01193
G0 F1200 X136.535 Y49.42
G1 F600 X137.385 Y50.27 E0.03598
G1 X137.455 Y50.34
G0 F1200 X137.198 Y50.648
G1 F600 X135.97 Y49.42 E0.05199
G1 X135.9 Y49.35
G0 F1200 X135.404 Y49.42
G1 F600 X137.071 Y51.087 E0.07057
G1 X137.141 Y51.157
G0 F1200 X136.954 Y51.536
G1 F600 X134.838 Y49.42 E0.08958
G1 X134.768 Y49.35
G0 F1200 X134.273 Y49.42
G1 F600 X136.837 Y51.984 E0.10854
G1 X136.907 Y52.054
G0 F1200 X136.72 Y52.433
G1 F600 X133.707 Y49.42 E0.12755
G1 X133.637 Y49.35
G0 F1200 X133.141 Y49.42
G1 F600 X136.663 Y52.942 E0.1491
G1 X136.733 Y53.012
G0 F1200 X136.638 Y53.482
G1 F600 X132.576 Y49.42 E0.17196
G1 X132.506 Y49.35
G0 F1200 X132.01 Y49.42
G1 F600 X136.613 Y54.022 E0.19484
G1 X136.683 Y54.092
G0 F1200 X136.593 Y54.569
G1 F600 X131.444 Y49.42 E0.21797
G1 X131.374 Y49.35
G0 F1200 X130.879 Y49.42
G1 F600 X136.704 Y55.245 E0.24659
G1 X136.774 Y55.315
G0 F1200 X136.814 Y55.921
G1 F600 X130.313 Y49.42 E0.27521
G1 X130.243 Y49.35
G0 F1200 X129.747 Y49.42
G1 F600 X136.973 Y56.646 E0.3059
G1 X137.043 Y56.716
G0 F1200 X137.33 Y57.568
G1 F600 X129.182 Y49.42 E0.34493
G1 X129.112 Y49.35
G0 F1200 X128.616 Y49.42
G1 F600 X137.842 Y58.646 E0.39057
G1 X137.912 Y58.716
G0 F1200 X141.355 Y62.159
G1 F600 X150.579 Y71.383 E0.39048
G1 X150.649 Y71.453
G0 F1200 X150.579 Y71.948
G1 F600 X128.05 Y49.42 E0.9537
G1 X127.98 Y49.35
G0 F1200 X127.484 Y49.42
G1 F600 X150.579 Y72.514 E0.97767
G1 X150.649 Y72.584
G0 F1200 X150.579 Y73.08
G1 F600 X126.919 Y49.42 E1.0016
G1 X126.849 Y49.35
G0 F1200 X126.353 Y49.42
G1 F600 X150.579 Y73.645 E1.02554
G1 X150.649 Y73.715
G0 F1200 X150.579 Y74.211
G1 F600 X125.787 Y49.42 E1.0495
G1 X125.717 Y49.35
G0 F1200 X125.222 Y49.42
G1 F600 X150.579 Y74.777 E1.07344
G1 X150.649 Y74.847
G0 F1200 X150.579 Y75.342
G1 F600 X124.656 Y49.42 E1.09738
G1 X124.586 Y49.35
G0 F1200 X124.09 Y49.42
G1 F600 X150.579 Y75.908 E1.12134
G1 X150.649 Y75.978
G0 F1200 X150.579 Y76.474
G1 F600 X123.525 Y49.42 E1.14528
G1 X123.455 Y49.35
G0 F1200 X122.959 Y49.42
G1 F600 X150.579 Y77.039 E1.16922
G1 X150.649 Y77.109
G0 F1200 X150.579 Y77.605
G1 F600 X122.393 Y49.42 E1.19318
G1 X122.323 Y49.35
G0 F1200 X121.828 Y49.42
G1 F600 X150.579 Y78.171 E1.21712
G1 X150.649 Y78.241
G0 F1200 X150.579 Y78.737
G1 F600 X121.262 Y49.42 E1.24108
G1 X121.192 Y49.35
G0 F1200 X120.696 Y49.42
G1 F600 X150.579 Y79.302 E1.26502
G1 X150.649 Y79.372
G0 F1200 X150.579 Y79.868
G1 F600 X120.131 Y49.42 E1.28896
G1 X120.061 Y49.35
G0 F1200 X119.565 Y49.42
G1 F600 X150.579 Y80.434 E1.31292
G1 X150.649 Y80.504
G0 F1200 X150.579 Y80.999
G1 F600 X118.999 Y49.42 E1.33686
G1 X118.929 Y49.35
G0 F1200 X118.434 Y49.42
G1 F600 X150.579 Y81.565 E1.3608
G1 X150.649 Y81.635
G0 F1200 X150.579 Y82.131
G1 F600 X117.868 Y49.42 E1.38476
G1 X117.798 Y49.35
G0 F1200 X117.302 Y49.42
G1 F600 X150.579 Y82.696 E1.4087
G1 X150.649 Y82.766
G0 F1200 X150.579 Y83.262
G1 F600 X116.736 Y49.42 E1.43266
G1 X116.666 Y49.35
G0 F1200 X116.171 Y49.42
G1 F600 X150.579 Y83.828 E1.4566
G1 X150.649 Y83.898
G0 F1200 X150.579 Y84.393
G1 F600 X115.605 Y49.42 E1.48054
G1 X115.535 Y49.35
G0 F1200 X115.039 Y49.42
G1 F600 X150.579 Y84.959 E1.5045
G1 X150.649 Y85.029
G0 F1200 X150.579 Y85.525
G1 F600 X114.474 Y49.42 E1.52844
G1 X114.404 Y49.35
