;FLAVOR:RepRap
;TIME:3236
;Filament used: 1.81117m
;Layer height: 0.1
;Generated with Cura_SteamEngine 3.2.1
T0
M190 S60
M104 S210
M109 S210
M82 ;absolute extrusion mode
G28 ;Home
G1 Z15.0 F6000 ;Move the platform down 15mm
;Prime the extruder
G92 E0
G1 F200 E3
G92 E0
M83 ;relative extrusion mode
;LAYER_COUNT:31
;LAYER:0
M106 S255
G0 F4800 X48.114 Y141.416 Z0.3
;TYPE:WALL-INNER
G1 F1800 X49.642 Y140.023 E0.10316
G1 X51.032 Y139.226 E0.07994
G1 X52.571 Y138.743 E0.08047
G1 X54.17 Y138.606 E0.08007
G1 X55.763 Y138.817 E0.08017
G1 X57.278 Y139.37 E0.08046
G1 X58.631 Y140.232 E0.08004
G1 X59.768 Y141.369 E0.08022
G1 X60.63 Y142.722 E0.08004
G1 X61.183 Y144.237 E0.08046
G1 X61.394 Y145.83 E0.08017
G1 X61.257 Y147.429 E0.08007
G1 X60.774 Y148.968 E0.08047
G1 X59.977 Y150.358 E0.07994
G1 X58.584 Y151.886 E0.10316
G1 X58.902 Y152.6 E0.03899
G1 X141.098 Y152.6 E4.10078
G1 X141.416 Y151.886 E0.03899
G1 X140.023 Y150.358 E0.10316
G1 X139.226 Y148.968 E0.07994
G1 X138.743 Y147.429 E0.08047
G1 X138.606 Y145.83 E0.08007
G1 X138.817 Y144.237 E0.08017
G1 X139.37 Y142.721 E0.08051
G1 X140.231 Y141.369 E0.07997
G1 X141.369 Y140.231 E0.08029
G1 X142.721 Y139.37 E0.07997
G1 X144.237 Y138.817 E0.08051
G1 X145.83 Y138.606 E0.08017
G1 X147.429 Y138.743 E0.08007
G1 X148.968 Y139.226 E0.08047
G1 X150.358 Y140.023 E0.07994
G1 X151.886 Y141.416 E0.10316
G1 X152.6 Y141.098 E0.03899
G1 X152.6 Y58.902 E4.10078
G1 X151.886 Y58.584 E0.03899
G1 X150.358 Y59.977 E0.10316
G1 X148.968 Y60.774 E0.07994
G1 X147.429 Y61.257 E0.08047
G1 X145.83 Y61.394 E0.08007
G1 X144.237 Y61.183 E0.08017
G1 X142.722 Y60.63 E0.08046
G1 X141.369 Y59.768 E0.08004
G1 X140.232 Y58.631 E0.08022
G1 X139.37 Y57.278 E0.08004
G1 X138.817 Y55.763 E0.08046
G1 X138.606 Y54.17 E0.08017
G1 X138.743 Y52.571 E0.08007
G1 X139.226 Y51.032 E0.08047
G1 X140.023 Y49.642 E0.07994
G1 X141.416 Y48.114 E0.10316
G1 X141.098 Y47.4 E0.03899
G1 X58.902 Y47.4 E4.10078
G1 X58.584 Y48.114 E0.03899
G1 X59.976 Y49.642 E0.10312
G1 X60.774 Y51.033 E0.08001
G1 X61.255 Y52.569 E0.0803
G1 X61.392 Y54.169 E0.08012
G1 X61.181 Y55.762 E0.08017
G1 X60.629 Y57.274 E0.0803
G1 X59.764 Y58.631 E0.08029
G1 X58.631 Y59.764 E0.07994
G1 X57.274 Y60.629 E0.08029
G1 X55.762 Y61.181 E0.0803
G1 X54.169 Y61.392 E0.08017
G1 X52.569 Y61.255 E0.08012
G1 X51.033 Y60.774 E0.0803
G1 X49.642 Y59.976 E0.08001
G1 X48.114 Y58.584 E0.10312
G1 X47.4 Y58.902 E0.03899
G1 X47.4 Y141.098 E4.10078
G1 X48.114 Y141.416 E0.03899
G0 F4800 X48.129 Y141.514
G0 X47.367 Y141.119
G0 X47.367 Y58.881
G0 X58.881 Y47.367
G0 X147.425 Y46.843
G0 X147.444 Y46.745
G1 F1800 X148.83 Y47.165 E0.07225
G1 X150.108 Y47.849 E0.07232
G1 X151.231 Y48.769 E0.07243
G1 X152.151 Y49.892 E0.07243
G1 X152.835 Y51.17 E0.07232
G1 X153.255 Y52.556 E0.07225
G1 X153.4 Y54.029 E0.07384
G1 X153.4 Y145.971 E4.58701
G1 X153.255 Y147.444 E0.07384
G1 X152.835 Y148.83 E0.07225
G1 X152.151 Y150.108 E0.07232
G1 X151.231 Y151.231 E0.07243
G1 X150.108 Y152.151 E0.07243
G1 X148.83 Y152.835 E0.07232
G1 X147.444 Y153.255 E0.07225
G1 X145.971 Y153.4 E0.07384
G1 X54.029 Y153.4 E4.58701
G1 X52.556 Y153.255 E0.07384
G1 X51.17 Y152.835 E0.07225
G1 X49.892 Y152.151 E0.07232
G1 X48.769 Y151.231 E0.07243
G1 X47.849 Y150.108 E0.07243
G1 X47.165 Y148.83 E0.07232
G1 X46.745 Y147.444 E0.07225
G1 X46.6 Y145.971 E0.07384
G1 X46.6 Y54.029 E4.58701
G1 X46.745 Y52.556 E0.07384
G1 X47.165 Y51.17 E0.07225
G1 X47.849 Y49.892 E0.07232
G1 X48.769 Y48.769 E0.07243
G1 X49.892 Y47.849 E0.07243
G1 X51.17 Y47.165 E0.07232
G1 X52.556 Y46.745 E0.07225
G1 X54.029 Y46.6 E0.07384
G1 X145.971 Y46.6 E4.58701
G1 X147.444 Y46.745 E0.07384
G0 F4800 X147.524 Y46.351
;TYPE:WALL-OUTER
G1 F1800 X148.985 Y46.794 E0.07617
G1 X150.33 Y47.513 E0.07609
G1 X151.515 Y48.485 E0.07646
G1 X152.487 Y49.67 E0.07646
G1 X153.206 Y51.015 E0.07609
G1 X153.649 Y52.476 E0.07617
G1 X153.8 Y54.01 E0.0769
G1 X153.8 Y145.99 E4.5889
G1 X153.649 Y147.524 E0.0769
G1 X153.206 Y148.985 E0.07617
G1 X152.487 Y150.33 E0.07609
G1 X151.515 Y151.515 E0.07646
G1 X150.33 Y152.487 E0.07646
G1 X148.985 Y153.206 E0.07609
G1 X147.524 Y153.649 E0.07617
G1 X145.99 Y153.8 E0.0769
G1 X54.01 Y153.8 E4.5889
G1 X52.476 Y153.649 E0.0769
G1 X51.015 Y153.206 E0.07617
G1 X49.67 Y152.487 E0.07609
G1 X48.485 Y151.515 E0.07646
G1 X47.513 Y150.33 E0.07646
G1 X46.794 Y148.985 E0.07609
G1 X46.351 Y147.524 E0.07617
G1 X46.2 Y145.99 E0.0769
G1 X46.2 Y54.01 E4.5889
G1 X46.351 Y52.476 E0.0769
G1 X46.794 Y51.015 E0.07617
G1 X47.513 Y49.67 E0.07609
G1 X48.485 Y48.485 E0.07646
G1 X49.67 Y47.513 E0.07646
G1 X51.015 Y46.794 E0.07609
G1 X52.476 Y46.351 E0.07617
G1 X54.01 Y46.2 E0.0769
G1 X145.99 Y46.2 E4.5889
G1 X147.524 Y46.351 E0.0769
G0 F4800 X147.715 Y46.409
G0 X147.569 Y46.886
G0 X58.881 Y47.367
G0 X58.6 Y47.835
G0 X59.056 Y48.038
G1 F1800 X59.162 Y48.154 E0.00784
G1 X60.301 Y49.405 E0.08441
G1 X61.143 Y50.872 E0.08439
G1 X61.65 Y52.493 E0.08474
G1 X61.795 Y54.179 E0.08443
G1 X61.572 Y55.857 E0.08445
G1 X60.991 Y57.45 E0.0846
G1 X60.076 Y58.885 E0.08491
G1 X58.885 Y60.076 E0.08403
G1 X57.45 Y60.991 E0.08491
G1 X55.857 Y61.572 E0.0846
G1 X54.179 Y61.795 E0.08445
G1 X52.493 Y61.65 E0.08443
G1 X50.872 Y61.143 E0.08474
G1 X49.405 Y60.301 E0.08439
G1 X48.154 Y59.162 E0.08441
G1 X48.038 Y59.056 E0.00784
G1 X47.8 Y59.162 E0.013
G1 X47.8 Y59.32 E0.00663
G1 X47.8 Y140.68 E4.05907
G1 X47.8 Y140.838 E0.00788
G1 X48.038 Y140.944 E0.013
G1 X48.154 Y140.838 E0.00658
G1 X49.405 Y139.698 E0.08444
G1 X50.872 Y138.856 E0.08439
G1 X52.493 Y138.348 E0.08475
G1 X54.18 Y138.203 E0.08448
G1 X55.858 Y138.426 E0.08445
G1 X57.454 Y139.008 E0.08475
G1 X58.885 Y139.92 E0.08466
G1 X60.08 Y141.115 E0.08431
G1 X60.992 Y142.546 E0.08466
G1 X61.574 Y144.142 E0.08475
G1 X61.797 Y145.82 E0.08445
G1 X61.652 Y147.507 E0.08448
G1 X61.144 Y149.128 E0.08475
G1 X60.302 Y150.595 E0.08439
G1 X59.162 Y151.846 E0.08444
G1 X59.056 Y151.962 E0.00784
G1 X59.162 Y152.2 E0.013
G1 X59.32 Y152.2 E0.00663
G1 X140.68 Y152.2 E4.05907
G1 X140.838 Y152.2 E0.00788
G1 X140.944 Y151.962 E0.013
G1 X140.838 Y151.846 E0.00658
G1 X139.698 Y150.595 E0.08444
G1 X138.856 Y149.128 E0.08439
G1 X138.348 Y147.507 E0.08475
G1 X138.203 Y145.82 E0.08448
G1 X138.426 Y144.142 E0.08445
G1 X139.008 Y142.545 E0.0848
G1 X139.919 Y141.115 E0.08459
G1 X141.115 Y139.919 E0.08438
G1 X142.545 Y139.008 E0.08459
G1 X144.142 Y138.426 E0.0848
G1 X145.82 Y138.203 E0.08445
G1 X147.507 Y138.348 E0.08448
G1 X149.128 Y138.856 E0.08475
G1 X150.595 Y139.698 E0.08439
G1 X151.846 Y140.838 E0.08444
G1 X151.962 Y140.944 E0.00784
G1 X152.2 Y140.838 E0.013
G1 X152.2 Y140.68 E0.00663
G1 X152.2 Y59.32 E4.05907
G1 X152.2 Y59.162 E0.00788
G1 X151.962 Y59.056 E0.013
G1 X151.846 Y59.162 E0.00658
G1 X150.595 Y60.302 E0.08444
G1 X149.128 Y61.144 E0.08439
G1 X147.507 Y61.652 E0.08475
G1 X145.82 Y61.797 E0.08448
G1 X144.142 Y61.574 E0.08445
G1 X142.546 Y60.992 E0.08475
G1 X141.115 Y60.08 E0.08466
G1 X139.92 Y58.885 E0.08431
G1 X139.008 Y57.454 E0.08466
G1 X138.426 Y55.858 E0.08475
G1 X138.203 Y54.18 E0.08445
G1 X138.348 Y52.493 E0.08448
G1 X138.856 Y50.872 E0.08475
G1 X139.698 Y49.405 E0.08439
G1 X140.838 Y48.154 E0.08444
G1 X140.944 Y48.038 E0.00784
G1 X140.838 Y47.8 E0.013
G1 X140.68 Y47.8 E0.00663
G1 X59.32 Y47.8 E4.05907
G1 X59.162 Y47.8 E0.00663
G1 X59.056 Y48.038 E0.013
G0 F4800 X59.162 Y48.154
G0 X59.19 Y48.185
G0 X58.82 Y48.521
G0 X58.124 Y48.188
;TYPE:SKIN
G1 F1800 X59.659 Y49.872 E0.11368
G1 X60.415 Y51.191 E0.07585
G1 X60.871 Y52.647 E0.07612
G1 X61 Y54.16 E0.07576
G1 X60.801 Y55.667 E0.07584
G1 X60.278 Y57.098 E0.07601
G1 X59.455 Y58.39 E0.07642
G1 X58.39 Y59.455 E0.07514
G1 X57.098 Y60.278 E0.07642
G1 X55.667 Y60.801 E0.07601
G1 X54.16 Y61 E0.07584
G1 X52.647 Y60.871 E0.07576
G1 X51.191 Y60.415 E0.07612
G1 X49.872 Y59.659 E0.07585
G1 X48.188 Y58.124 E0.11368
G1 X47.01 Y58.649 E0.06434
G1 X47.01 Y141.351 E4.12602
G1 X48.188 Y141.876 E0.06434
G1 X49.873 Y140.34 E0.11375
G1 X51.19 Y139.586 E0.07571
G1 X52.649 Y139.127 E0.07631
G1 X54.161 Y138.998 E0.07571
G1 X55.668 Y139.197 E0.07584
G1 X57.105 Y139.722 E0.07633
G1 X58.388 Y140.539 E0.07589
G1 X59.461 Y141.612 E0.07571
G1 X60.278 Y142.895 E0.07589
G1 X60.803 Y144.332 E0.07633
G1 X61.002 Y145.839 E0.07584
G1 X60.873 Y147.351 E0.07571
G1 X60.414 Y148.81 E0.07631
G1 X59.66 Y150.127 E0.07571
G1 X58.124 Y151.812 E0.11375
G1 X58.649 Y152.99 E0.06434
G1 X141.351 Y152.99 E4.12602
G1 X141.876 Y151.812 E0.06434
G1 X140.34 Y150.127 E0.11375
G1 X139.586 Y148.81 E0.07571
G1 X139.127 Y147.351 E0.07631
G1 X138.998 Y145.839 E0.07571
G1 X139.197 Y144.336 E0.07564
G1 X139.724 Y142.891 E0.07674
G1 X140.538 Y141.612 E0.07564
G1 X141.612 Y140.538 E0.07578
G1 X142.891 Y139.724 E0.07564
G1 X144.336 Y139.197 E0.07674
G1 X145.839 Y138.998 E0.07564
G1 X147.351 Y139.127 E0.07571
G1 X148.81 Y139.586 E0.07631
G1 X150.127 Y140.34 E0.07571
G1 X151.812 Y141.876 E0.11375
G1 X152.99 Y141.351 E0.06434
G1 X152.99 Y58.649 E4.12602
G1 X151.812 Y58.124 E0.06434
G1 X150.127 Y59.66 E0.11375
G1 X148.81 Y60.414 E0.07571
G1 X147.351 Y60.873 E0.07631
G1 X145.839 Y61.002 E0.07571
G1 X144.332 Y60.803 E0.07584
G1 X142.895 Y60.278 E0.07633
G1 X141.612 Y59.461 E0.07589
G1 X140.539 Y58.388 E0.07571
G1 X139.722 Y57.105 E0.07589
G1 X139.197 Y55.668 E0.07633
G1 X138.998 Y54.161 E0.07584
G1 X139.127 Y52.649 E0.07571
G1 X139.586 Y51.19 E0.07631
G1 X140.34 Y49.873 E0.07571
G1 X141.876 Y48.188 E0.11375
G1 X141.351 Y47.01 E0.06434
G1 X58.649 Y47.01 E4.12602
G1 X58.124 Y48.188 E0.06434
G0 F4800 X54.048 Y46.99
G1 F1800 X145.952 Y46.99 E4.58511
G1 X147.369 Y47.129 E0.07103
G1 X148.683 Y47.527 E0.0685
G1 X149.887 Y48.172 E0.06814
G1 X150.954 Y49.046 E0.06881
G1 X151.828 Y50.113 E0.06881
G1 X152.473 Y51.317 E0.06814
G1 X152.871 Y52.631 E0.0685
G1 X153.01 Y54.048 E0.07103
G1 X153.01 Y145.952 E4.58511
G1 X152.871 Y147.369 E0.07103
G1 X152.473 Y148.683 E0.0685
G1 X151.828 Y149.887 E0.06814
G1 X150.954 Y150.954 E0.06881
G1 X149.887 Y151.828 E0.06881
G1 X148.683 Y152.473 E0.06814
G1 X147.369 Y152.871 E0.0685
G1 X145.952 Y153.01 E0.07103
G1 X54.048 Y153.01 E4.58511
G1 X52.631 Y152.871 E0.07103
G1 X51.317 Y152.473 E0.0685
G1 X50.113 Y151.828 E0.06814
G1 X49.046 Y150.954 E0.06881
G1 X48.172 Y149.887 E0.06881
G1 X47.527 Y148.683 E0.06814
G1 X47.129 Y147.369 E0.0685
G1 X46.99 Y145.952 E0.07103
G1 X46.99 Y54.048 E4.58511
G1 X47.129 Y52.631 E0.07103
G1 X47.527 Y51.317 E0.0685
G1 X48.172 Y50.113 E0.06814
G1 X49.046 Y49.046 E0.06881
G1 X50.113 Y48.172 E0.06881
G1 X51.317 Y47.527 E0.06814
G1 X52.631 Y47.129 E0.0685
G1 X54.048 Y46.99 E0.07103
G0 F4800 X141.119 Y47.367
G0 X151.916 Y50.659
G1 F1800 X149.34 Y48.082 E0.18179
G1 X149.27 Y48.012
G0 F4800 X148.285 Y47.593
G1 F1800 X152.405 Y51.713 E0.29069
G1 X152.475 Y51.783
G0 F4800 X152.65 Y52.524
G1 F1800 X147.474 Y47.348 E0.36519
G1 X147.404 Y47.278
G0 F4800 X146.816 Y47.255
G1 F1800 X152.743 Y53.182 E0.41818
G1 X152.813 Y53.252
G0 F4800 X152.805 Y53.81
G1 F1800 X146.189 Y47.194 E0.46679
G1 X146.119 Y47.124
G0 F4800 X145.598 Y47.169
G1 F1800 X152.829 Y54.4 E0.51019
G1 X152.899 Y54.47
G0 F4800 X152.829 Y54.966
G1 F1800 X145.033 Y47.169 E0.55009
G1 X144.963 Y47.099
G0 F4800 X144.467 Y47.169
G1 F1800 X152.829 Y55.531 E0.58998
G1 X152.899 Y55.601
G0 F4800 X152.829 Y56.097
G1 F1800 X143.901 Y47.169 E0.62992
G1 X143.831 Y47.099
G0 F4800 X143.336 Y47.169
G1 F1800 X152.829 Y56.663 E0.66982
G1 X152.899 Y56.733
G0 F4800 X152.829 Y57.228
G1 F1800 X142.77 Y47.169 E0.70972
G1 X142.7 Y47.099
G0 F4800 X142.204 Y47.169
G1 F1800 X152.829 Y57.794 E0.74965
G1 X152.899 Y57.864
G0 F4800 X152.829 Y58.36
G1 F1800 X141.639 Y47.169 E0.78955
G1 X141.569 Y47.099
G0 F4800 X142.057 Y48.153
G1 F1800 X151.845 Y57.941 E0.6906
G1 X151.915 Y58.011
G0 F4800 X151.5 Y58.162
G1 F1800 X141.836 Y48.498 E0.68185
G1 X141.766 Y48.428
G0 F4800 X141.566 Y48.793
G1 F1800 X151.204 Y58.432 E0.68005
G1 X151.274 Y58.502
G0 F4800 X150.908 Y58.701
G1 F1800 X141.296 Y49.089 E0.67818
G1 X141.226 Y49.019
G0 F4800 X141.026 Y49.385
G1 F1800 X150.613 Y58.971 E0.67638
G1 X150.683 Y59.041
G0 F4800 X150.316 Y59.241
G1 F1800 X140.756 Y49.681 E0.67451
G1 X140.686 Y49.611
G0 F4800 X140.486 Y49.976
G1 F1800 X150.021 Y59.511 E0.67275
G1 X150.091 Y59.581
G0 F4800 X149.661 Y59.717
G1 F1800 X140.28 Y50.336 E0.66188
G1 X140.21 Y50.266
G0 F4800 X140.075 Y50.696
G1 F1800 X149.302 Y59.923 E0.65101
G1 X149.372 Y59.993
G0 F4800 X148.942 Y60.129
G1 F1800 X139.869 Y51.056 E0.64015
G1 X139.799 Y50.986
G0 F4800 X139.693 Y51.446
G1 F1800 X148.551 Y60.304 E0.62498
G1 X148.621 Y60.374
G0 F4800 X148.121 Y60.44
G1 F1800 X139.557 Y51.876 E0.60424
G1 X139.487 Y51.806
G0 F4800 X139.421 Y52.306
G1 F1800 X147.691 Y60.576 E0.58349
G1 X147.761 Y60.646
G0 F4800 X147.25 Y60.7
G1 F1800 X139.297 Y52.747 E0.56113
G1 X139.227 Y52.677
G0 F4800 X139.253 Y53.269
G1 F1800 X146.729 Y60.745 E0.52747
G1 X146.799 Y60.815
G0 F4800 X146.208 Y60.789
G1 F1800 X139.208 Y53.79 E0.49385
G1 X139.138 Y53.72
G0 F4800 X139.203 Y54.351
G1 F1800 X145.647 Y60.794 E0.45462
G1 X145.717 Y60.864
G0 F4800 X144.996 Y60.709
G1 F1800 X139.289 Y55.002 E0.40266
G1 X139.219 Y54.932
G0 F4800 X139.386 Y55.664
G1 F1800 X144.333 Y60.612 E0.34907
G1 X144.403 Y60.682
G0 F4800 X143.441 Y60.285
G1 F1800 X139.712 Y56.557 E0.26307
G1 X139.642 Y56.487
G0 F4800 X140.353 Y57.763
G1 F1800 X142.235 Y59.645 E0.13279
G1 X142.305 Y59.715
G0 F4800 X151.88 Y58.545
G0 X152.633 Y58.881
G0 X152.633 Y141.119
G0 X151.88 Y141.455
G0 X145.979 Y139.191
G1 F1800 X152.82 Y146.032 E0.48267
G1 X152.89 Y146.102
G0 F4800 X152.77 Y146.547
G1 F1800 X145.453 Y139.23 E0.51625
G1 X145.383 Y139.16
G0 F4800 X144.953 Y139.296
G1 F1800 X152.72 Y147.063 E0.548
G1 X152.79 Y147.133
G0 F4800 X152.631 Y147.54
G1 F1800 X144.454 Y139.362 E0.57697
G1 X144.384 Y139.292
G0 F4800 X144.027 Y139.501
G1 F1800 X152.5 Y147.974 E0.59782
G1 X152.57 Y148.044
G0 F4800 X152.368 Y148.408
G1 F1800 X143.612 Y139.652 E0.61778
G1 X143.542 Y139.582
G0 F4800 X143.198 Y139.804
G1 F1800 X152.202 Y148.808 E0.63528
G1 X152.272 Y148.878
G0 F4800 X152.005 Y149.176
G1 F1800 X142.814 Y139.985 E0.64847
G1 X142.744 Y139.915
G0 F4800 X142.468 Y140.205
G1 F1800 X151.807 Y149.544 E0.65892
G1 X151.877 Y149.614
G0 F4800 X151.59 Y149.893
G1 F1800 X142.122 Y140.425 E0.66802
G1 X142.052 Y140.355
G0 F4800 X141.777 Y140.646
G1 F1800 X151.335 Y150.204 E0.67437
G1 X151.405 Y150.274
G0 F4800 X151.081 Y150.515
G1 F1800 X141.484 Y140.918 E0.67712
G1 X141.414 Y140.848
G0 F4800 X141.201 Y141.201
G1 F1800 X150.825 Y150.825 E0.67903
G1 X150.895 Y150.895
G0 F4800 X150.514 Y151.08
G1 F1800 X140.918 Y141.484 E0.67705
G1 X140.848 Y141.414
G0 F4800 X140.645 Y141.777
G1 F1800 X150.203 Y151.334 E0.67433
G1 X150.273 Y151.404
G0 F4800 X149.892 Y151.589
G1 F1800 X140.425 Y142.122 E0.66795
G1 X140.355 Y142.052
G0 F4800 X140.205 Y142.467
G1 F1800 X149.543 Y151.806 E0.65888
G1 X149.613 Y151.876
G0 F4800 X149.176 Y152.004
G1 F1800 X139.985 Y142.813 E0.64847
G1 X139.915 Y142.743
G0 F4800 X139.803 Y143.197
G1 F1800 X148.807 Y152.201 E0.63528
G1 X148.877 Y152.271
G0 F4800 X148.408 Y152.368
G1 F1800 X139.652 Y143.611 E0.61782
G1 X139.582 Y143.541
G0 F4800 X139.5 Y144.026
G1 F1800 X147.974 Y152.499 E0.59785
G1 X148.044 Y152.569
G0 F4800 X147.539 Y152.631
G1 F1800 X139.362 Y144.453 E0.57697
G1 X139.292 Y144.383
G0 F4800 X139.295 Y144.952
G1 F1800 X147.062 Y152.719 E0.548
G1 X147.132 Y152.789
G0 F4800 X146.547 Y152.769
G1 F1800 X139.23 Y145.452 E0.51625
G1 X139.16 Y145.382
G0 F4800 X139.19 Y145.978
G1 F1800 X146.031 Y152.819 E0.48267
G1 X146.101 Y152.889
G0 F4800 X145.475 Y152.829
G1 F1800 X139.242 Y146.596 E0.43977
G1 X139.172 Y146.526
