;FLAVOR:RepRap
;TIME:7604
;Filament used: 3.32835m
;Layer height: 0.1
;Generated with Cura_SteamEngine 3.2.1
T0
M190 S60
M104 S210
M109 S210
M82 ;absolute extrusion mode
G28 ;Home
G1 Z15.0 F6000 ;Move the platform down 15mm
;Prime the extruder
G92 E0
G1 F200 E3
G92 E0
M83 ;relative extrusion mode
;LAYER_COUNT:31
;LAYER:0
M106 S255
G0 F4800 X98.047 Y51.791 Z0.3
;TYPE:SKIRT
G1 F1500 X98.126 Y51.645 E0.00828
G1 X98.849 Y50.54 E0.06588
G1 X98.95 Y50.411 E0.00817
G1 X99.847 Y49.436 E0.0661
G1 X99.969 Y49.324 E0.00826
G1 X101.009 Y48.515 E0.06574
G1 X101.147 Y48.424 E0.00825
G1 X102.312 Y47.794 E0.06608
G1 X102.463 Y47.728 E0.00822
G1 X103.709 Y47.3 E0.06573
G1 X103.869 Y47.26 E0.00823
G1 X105.175 Y47.041 E0.06607
G1 X105.34 Y47.027 E0.00826
G1 X106.66 Y47.027 E0.06586
G1 X106.825 Y47.041 E0.00826
G1 X108.131 Y47.26 E0.06607
G1 X108.291 Y47.3 E0.00823
G1 X109.537 Y47.728 E0.06573
G1 X109.688 Y47.794 E0.00822
G1 X110.853 Y48.424 E0.06608
G1 X110.991 Y48.515 E0.00825
G1 X112.031 Y49.324 E0.06574
G1 X112.153 Y49.436 E0.00826
G1 X113.05 Y50.411 E0.0661
G1 X113.151 Y50.54 E0.00817
G1 X113.874 Y51.645 E0.06588
G1 X113.953 Y51.791 E0.00828
G1 X114.483 Y52.998 E0.06577
G1 X114.537 Y53.155 E0.00828
G1 X114.861 Y54.437 E0.06597
G1 X114.888 Y54.599 E0.00819
G1 X114.997 Y55.915 E0.06588
G1 X114.997 Y56.08 E0.00823
G1 X114.888 Y57.4 E0.06608
G1 X114.861 Y57.563 E0.00824
G1 X114.538 Y58.842 E0.06581
G1 X114.484 Y58.999 E0.00828
G1 X113.953 Y60.209 E0.06592
G1 X113.874 Y60.355 E0.00828
G1 X113.151 Y61.46 E0.06588
G1 X113.05 Y61.589 E0.00817
G1 X112.153 Y62.564 E0.0661
G1 X112.031 Y62.676 E0.00826
G1 X110.991 Y63.485 E0.06574
G1 X110.853 Y63.576 E0.00825
G1 X109.688 Y64.206 E0.06608
G1 X109.537 Y64.272 E0.00822
G1 X108.291 Y64.7 E0.06573
G1 X108.131 Y64.74 E0.00823
G1 X106.825 Y64.959 E0.06607
G1 X106.66 Y64.973 E0.00826
G1 X105.34 Y64.973 E0.06586
G1 X105.175 Y64.959 E0.00826
G1 X103.869 Y64.74 E0.06607
G1 X103.709 Y64.7 E0.00823
G1 X102.463 Y64.272 E0.06573
G1 X102.312 Y64.206 E0.00822
G1 X101.147 Y63.576 E0.06608
G1 X101.009 Y63.485 E0.00825
G1 X99.969 Y62.676 E0.06574
G1 X99.847 Y62.564 E0.00826
G1 X98.95 Y61.589 E0.0661
G1 X98.849 Y61.46 E0.00817
G1 X98.126 Y60.355 E0.06588
G1 X98.047 Y60.209 E0.00828
G1 X97.516 Y58.999 E0.06592
G1 X97.462 Y58.842 E0.00828
G1 X97.139 Y57.563 E0.06581
G1 X97.112 Y57.401 E0.00819
G1 X97.003 Y56.085 E0.06588
G1 X97.003 Y55.92 E0.00823
G1 X97.112 Y54.6 E0.06608
G1 X97.139 Y54.437 E0.00824
G1 X97.462 Y53.158 E0.06581
G1 X97.516 Y53.001 E0.00828
G1 X98.047 Y51.791 E0.06592
G0 F4800 X98.414 Y51.952
G1 F1500 X98.461 Y51.864 E0.00498
G1 X99.184 Y50.759 E0.06588
G1 X99.244 Y50.682 E0.00487
G1 X100.141 Y49.707 E0.0661
G1 X100.215 Y49.639 E0.00501
G1 X101.255 Y48.83 E0.06574
G1 X101.338 Y48.776 E0.00494
G1 X102.503 Y48.146 E0.06608
G1 X102.593 Y48.107 E0.00489
G1 X103.839 Y47.679 E0.06573
G1 X103.935 Y47.654 E0.00495
G1 X105.241 Y47.435 E0.06607
G1 X105.34 Y47.427 E0.00496
G1 X106.66 Y47.427 E0.06586
G1 X106.759 Y47.435 E0.00496
G1 X108.065 Y47.654 E0.06607
G1 X108.161 Y47.679 E0.00495
G1 X109.407 Y48.107 E0.06573
G1 X109.497 Y48.146 E0.00489
G1 X110.662 Y48.776 E0.06608
G1 X110.745 Y48.83 E0.00494
G1 X111.785 Y49.639 E0.06574
G1 X111.859 Y49.707 E0.00501
G1 X112.756 Y50.682 E0.0661
G1 X112.816 Y50.759 E0.00487
G1 X113.539 Y51.864 E0.06588
G1 X113.586 Y51.952 E0.00498
G1 X114.116 Y53.159 E0.06577
G1 X114.149 Y53.253 E0.00497
G1 X114.473 Y54.535 E0.06597
G1 X114.489 Y54.632 E0.0049
G1 X114.598 Y55.948 E0.06588
G1 X114.598 Y56.047 E0.00494
G1 X114.489 Y57.367 E0.06608
G1 X114.473 Y57.465 E0.00495
G1 X114.15 Y58.744 E0.06581
G1 X114.117 Y58.838 E0.00497
G1 X113.586 Y60.048 E0.06592
G1 X113.539 Y60.136 E0.00498
G1 X112.816 Y61.241 E0.06588
G1 X112.756 Y61.318 E0.00487
G1 X111.859 Y62.293 E0.0661
G1 X111.785 Y62.361 E0.00501
G1 X110.745 Y63.17 E0.06574
G1 X110.662 Y63.224 E0.00494
G1 X109.497 Y63.854 E0.06608
G1 X109.407 Y63.893 E0.00489
G1 X108.161 Y64.321 E0.06573
G1 X108.065 Y64.346 E0.00495
G1 X106.759 Y64.565 E0.06607
G1 X106.66 Y64.573 E0.00496
G1 X105.34 Y64.573 E0.06586
G1 X105.241 Y64.565 E0.00496
G1 X103.935 Y64.346 E0.06607
G1 X103.839 Y64.321 E0.00495
G1 X102.593 Y63.893 E0.06573
G1 X102.503 Y63.854 E0.00489
G1 X101.338 Y63.224 E0.06608
G1 X101.255 Y63.17 E0.00494
G1 X100.215 Y62.361 E0.06574
G1 X100.141 Y62.293 E0.00501
G1 X99.244 Y61.318 E0.0661
G1 X99.184 Y61.241 E0.00487
G1 X98.461 Y60.136 E0.06588
G1 X98.414 Y60.048 E0.00498
G1 X97.883 Y58.838 E0.06592
G1 X97.85 Y58.744 E0.00497
G1 X97.527 Y57.465 E0.06581
G1 X97.511 Y57.368 E0.0049
G1 X97.402 Y56.052 E0.06588
G1 X97.402 Y55.953 E0.00494
G1 X97.511 Y54.633 E0.06608
G1 X97.527 Y54.535 E0.00495
G1 X97.85 Y53.256 E0.06581
G1 X97.883 Y53.162 E0.00497
G1 X98.414 Y51.952 E0.06592
G0 F4800 X98.78 Y52.113
G1 F1500 X98.796 Y52.083 E0.0017
G1 X99.519 Y50.978 E0.06588
G1 X99.539 Y50.953 E0.0016
G1 X100.436 Y49.978 E0.0661
G1 X100.46 Y49.955 E0.00166
G1 X101.5 Y49.146 E0.06574
G1 X101.528 Y49.128 E0.00166
G1 X102.693 Y48.498 E0.06608
G1 X102.723 Y48.485 E0.00163
G1 X103.969 Y48.057 E0.06573
G1 X104.001 Y48.049 E0.00165
G1 X105.307 Y47.83 E0.06607
G1 X105.34 Y47.827 E0.00165
G1 X106.66 Y47.827 E0.06586
G1 X106.693 Y47.83 E0.00165
G1 X107.999 Y48.049 E0.06607
G1 X108.031 Y48.057 E0.00165
G1 X109.277 Y48.485 E0.06573
G1 X109.307 Y48.498 E0.00163
G1 X110.472 Y49.128 E0.06608
G1 X110.5 Y49.146 E0.00166
G1 X111.54 Y49.955 E0.06574
G1 X111.564 Y49.978 E0.00166
G1 X112.461 Y50.953 E0.0661
G1 X112.481 Y50.978 E0.0016
G1 X113.204 Y52.083 E0.06588
G1 X113.22 Y52.113 E0.0017
G1 X113.75 Y53.32 E0.06577
G1 X113.761 Y53.351 E0.00164
G1 X114.085 Y54.633 E0.06597
G1 X114.09 Y54.665 E0.00162
G1 X114.199 Y55.981 E0.06588
G1 X114.199 Y56.014 E0.00165
G1 X114.09 Y57.334 E0.06608
G1 X114.085 Y57.367 E0.00167
G1 X113.762 Y58.646 E0.06581
G1 X113.751 Y58.677 E0.00164
G1 X113.22 Y59.887 E0.06592
G1 X113.204 Y59.917 E0.0017
G1 X112.481 Y61.022 E0.06588
G1 X112.461 Y61.047 E0.0016
G1 X111.564 Y62.022 E0.0661
G1 X111.54 Y62.045 E0.00166
G1 X110.5 Y62.854 E0.06574
G1 X110.472 Y62.872 E0.00166
G1 X109.307 Y63.502 E0.06608
G1 X109.277 Y63.515 E0.00163
G1 X108.031 Y63.943 E0.06573
G1 X107.999 Y63.951 E0.00165
G1 X106.693 Y64.17 E0.06607
G1 X106.66 Y64.173 E0.00165
G1 X105.34 Y64.173 E0.06586
G1 X105.307 Y64.17 E0.00165
G1 X104.001 Y63.951 E0.06607
G1 X103.969 Y63.943 E0.00165
G1 X102.723 Y63.515 E0.06573
G1 X102.693 Y63.502 E0.00163
G1 X101.528 Y62.872 E0.06608
G1 X101.5 Y62.854 E0.00166
G1 X100.46 Y62.045 E0.06574
G1 X100.436 Y62.022 E0.00166
G1 X99.539 Y61.047 E0.0661
G1 X99.519 Y61.022 E0.0016
G1 X98.796 Y59.917 E0.06588
G1 X98.78 Y59.887 E0.0017
G1 X98.249 Y58.677 E0.06592
G1 X98.238 Y58.646 E0.00164
G1 X97.915 Y57.367 E0.06581
G1 X97.91 Y57.335 E0.00162
G1 X97.801 Y56.019 E0.06588
G1 X97.801 Y55.986 E0.00165
G1 X97.91 Y54.666 E0.06608
G1 X97.915 Y54.633 E0.00167
G1 X98.238 Y53.354 E0.06581
G1 X98.249 Y53.323 E0.00164
G1 X98.78 Y52.113 E0.06592
G1 F1500 E-6.5
G1 F300 Z1.3
G0 F4800 X89.874 Y57.645 Z1.3
G1 F300 Z0.3
G1 F1500 E6.5
G1 X89.953 Y57.791 E0.00828
G1 X90.483 Y58.998 E0.06577
G1 X90.537 Y59.155 E0.00828
G1 X90.861 Y60.437 E0.06597
G1 X90.888 Y60.599 E0.00819
G1 X90.997 Y61.915 E0.06588
G1 X90.997 Y62.08 E0.00823
G1 X90.888 Y63.4 E0.06608
G1 X90.861 Y63.563 E0.00824
G1 X90.538 Y64.842 E0.06581
G1 X90.484 Y64.999 E0.00828
G1 X89.953 Y66.209 E0.06592
G1 X89.874 Y66.355 E0.00828
G1 X89.151 Y67.46 E0.06588
G1 X89.05 Y67.589 E0.00817
G1 X88.153 Y68.564 E0.0661
G1 X88.031 Y68.676 E0.00826
G1 X86.991 Y69.485 E0.06574
G1 X86.853 Y69.576 E0.00825
G1 X85.688 Y70.206 E0.06608
G1 X85.537 Y70.272 E0.00822
G1 X84.291 Y70.7 E0.06573
G1 X84.131 Y70.74 E0.00823
G1 X82.825 Y70.959 E0.06607
G1 X82.66 Y70.973 E0.00826
G1 X81.34 Y70.973 E0.06586
G1 X81.175 Y70.959 E0.00826
G1 X79.869 Y70.74 E0.06607
G1 X79.709 Y70.7 E0.00823
G1 X78.463 Y70.272 E0.06573
G1 X78.312 Y70.206 E0.00822
G1 X77.147 Y69.576 E0.06608
G1 X77.009 Y69.485 E0.00825
G1 X75.969 Y68.676 E0.06574
G1 X75.847 Y68.564 E0.00826
G1 X74.95 Y67.589 E0.0661
G1 X74.849 Y67.46 E0.00817
G1 X74.126 Y66.355 E0.06588
G1 X74.047 Y66.209 E0.00828
G1 X73.516 Y64.999 E0.06592
G1 X73.462 Y64.842 E0.00828
G1 X73.139 Y63.563 E0.06581
G1 X73.112 Y63.401 E0.00819
G1 X73.003 Y62.085 E0.06588
G1 X73.003 Y61.92 E0.00823
G1 X73.112 Y60.6 E0.06608
G1 X73.139 Y60.437 E0.00824
G1 X73.462 Y59.158 E0.06581
G1 X73.516 Y59.001 E0.00828
G1 X74.047 Y57.791 E0.06592
G1 X74.126 Y57.645 E0.00828
G1 X74.849 Y56.54 E0.06588
G1 X74.95 Y56.411 E0.00817
G1 X75.847 Y55.436 E0.0661
G1 X75.969 Y55.324 E0.00826
G1 X77.009 Y54.515 E0.06574
G1 X77.147 Y54.424 E0.00825
G1 X78.312 Y53.794 E0.06608
G1 X78.463 Y53.728 E0.00822
G1 X79.709 Y53.3 E0.06573
G1 X79.869 Y53.26 E0.00823
G1 X81.175 Y53.041 E0.06607
G1 X81.34 Y53.027 E0.00826
G1 X82.66 Y53.027 E0.06586
G1 X82.825 Y53.041 E0.00826
G1 X84.131 Y53.26 E0.06607
G1 X84.291 Y53.3 E0.00823
G1 X85.537 Y53.728 E0.06573
G1 X85.688 Y53.794 E0.00822
G1 X86.853 Y54.424 E0.06608
G1 X86.991 Y54.515 E0.00825
G1 X88.031 Y55.324 E0.06574
G1 X88.153 Y55.436 E0.00826
G1 X89.05 Y56.411 E0.0661
G1 X89.151 Y56.54 E0.00817
G1 X89.874 Y57.645 E0.06588
G0 F4800 X89.539 Y57.864
G1 F1500 X89.586 Y57.952 E0.00498
G1 X90.116 Y59.159 E0.06577
G1 X90.149 Y59.253 E0.00497
G1 X90.473 Y60.535 E0.06597
G1 X90.489 Y60.632 E0.0049
G1 X90.598 Y61.948 E0.06588
G1 X90.598 Y62.047 E0.00494
G1 X90.489 Y63.367 E0.06608
G1 X90.473 Y63.465 E0.00495
G1 X90.15 Y64.744 E0.06581
G1 X90.117 Y64.838 E0.00497
G1 X89.586 Y66.048 E0.06592
G1 X89.539 Y66.136 E0.00498
G1 X88.816 Y67.241 E0.06588
G1 X88.756 Y67.318 E0.00487
G1 X87.859 Y68.293 E0.0661
G1 X87.785 Y68.361 E0.00501
G1 X86.745 Y69.17 E0.06574
G1 X86.662 Y69.224 E0.00494
G1 X85.497 Y69.854 E0.06608
G1 X85.407 Y69.893 E0.00489
G1 X84.161 Y70.321 E0.06573
G1 X84.065 Y70.346 E0.00495
G1 X82.759 Y70.565 E0.06607
G1 X82.66 Y70.573 E0.00496
G1 X81.34 Y70.573 E0.06586
G1 X81.241 Y70.565 E0.00496
G1 X79.935 Y70.346 E0.06607
G1 X79.839 Y70.321 E0.00495
G1 X78.593 Y69.893 E0.06573
G1 X78.503 Y69.854 E0.00489
G1 X77.338 Y69.224 E0.06608
G1 X77.255 Y69.17 E0.00494
G1 X76.215 Y68.361 E0.06574
G1 X76.141 Y68.293 E0.00501
G1 X75.244 Y67.318 E0.0661
G1 X75.184 Y67.241 E0.00487
G1 X74.461 Y66.136 E0.06588
G1 X74.414 Y66.048 E0.00498
G1 X73.883 Y64.838 E0.06592
G1 X73.85 Y64.744 E0.00497
G1 X73.527 Y63.465 E0.06581
G1 X73.511 Y63.368 E0.0049
G1 X73.402 Y62.052 E0.06588
G1 X73.402 Y61.953 E0.00494
G1 X73.511 Y60.633 E0.06608
G1 X73.527 Y60.535 E0.00495
G1 X73.85 Y59.256 E0.06581
G1 X73.883 Y59.162 E0.00497
G1 X74.414 Y57.952 E0.06592
G1 X74.461 Y57.864 E0.00498
G1 X75.184 Y56.759 E0.06588
G1 X75.244 Y56.682 E0.00487
G1 X76.141 Y55.707 E0.0661
G1 X76.215 Y55.639 E0.00501
G1 X77.255 Y54.83 E0.06574
G1 X77.338 Y54.776 E0.00494
G1 X78.503 Y54.146 E0.06608
G1 X78.593 Y54.107 E0.00489
G1 X79.839 Y53.679 E0.06573
G1 X79.935 Y53.654 E0.00495
G1 X81.241 Y53.435 E0.06607
G1 X81.34 Y53.427 E0.00496
G1 X82.66 Y53.427 E0.06586
G1 X82.759 Y53.435 E0.00496
G1 X84.065 Y53.654 E0.06607
G1 X84.161 Y53.679 E0.00495
G1 X85.407 Y54.107 E0.06573
G1 X85.497 Y54.146 E0.00489
G1 X86.662 Y54.776 E0.06608
G1 X86.745 Y54.83 E0.00494
G1 X87.785 Y55.639 E0.06574
G1 X87.859 Y55.707 E0.00501
G1 X88.756 Y56.682 E0.0661
G1 X88.816 Y56.759 E0.00487
G1 X89.539 Y57.864 E0.06588
G0 F4800 X89.204 Y58.083
G1 F1500 X89.22 Y58.113 E0.0017
G1 X89.75 Y59.32 E0.06577
G1 X89.761 Y59.351 E0.00164
G1 X90.085 Y60.633 E0.06597
G1 X90.09 Y60.665 E0.00162
G1 X90.199 Y61.981 E0.06588
G1 X90.199 Y62.014 E0.00165
G1 X90.09 Y63.334 E0.06608
G1 X90.085 Y63.367 E0.00167
G1 X89.762 Y64.646 E0.06581
G1 X89.751 Y64.677 E0.00164
G1 X89.22 Y65.887 E0.06592
G1 X89.204 Y65.917 E0.0017
G1 X88.481 Y67.022 E0.06588
G1 X88.461 Y67.047 E0.0016
G1 X87.564 Y68.022 E0.0661
G1 X87.54 Y68.045 E0.00166
G1 X86.5 Y68.854 E0.06574
G1 X86.472 Y68.872 E0.00166
G1 X85.307 Y69.502 E0.06608
G1 X85.277 Y69.515 E0.00163
G1 X84.031 Y69.943 E0.06573
G1 X83.999 Y69.951 E0.00165
G1 X82.693 Y70.17 E0.06607
G1 X82.66 Y70.173 E0.00165
G1 X81.34 Y70.173 E0.06586
G1 X81.307 Y70.17 E0.00165
G1 X80.001 Y69.951 E0.06607
G1 X79.969 Y69.943 E0.00165
G1 X78.723 Y69.515 E0.06573
G1 X78.693 Y69.502 E0.00163
G1 X77.528 Y68.872 E0.06608
G1 X77.5 Y68.854 E0.00166
G1 X76.46 Y68.045 E0.06574
G1 X76.436 Y68.022 E0.00166
G1 X75.539 Y67.047 E0.0661
G1 X75.519 Y67.022 E0.0016
G1 X74.796 Y65.917 E0.06588
G1 X74.78 Y65.887 E0.0017
G1 X74.249 Y64.677 E0.06592
G1 X74.238 Y64.646 E0.00164
G1 X73.915 Y63.367 E0.06581
G1 X73.91 Y63.335 E0.00162
G1 X73.801 Y62.019 E0.06588
G1 X73.801 Y61.986 E0.00165
G1 X73.91 Y60.666 E0.06608
G1 X73.915 Y60.633 E0.00167
G1 X74.238 Y59.354 E0.06581
G1 X74.249 Y59.323 E0.00164
G1 X74.78 Y58.113 E0.06592
G1 X74.796 Y58.083 E0.0017
G1 X75.519 Y56.978 E0.06588
G1 X75.539 Y56.953 E0.0016
G1 X76.436 Y55.978 E0.0661
G1 X76.46 Y55.955 E0.00166
G1 X77.5 Y55.146 E0.06574
G1 X77.528 Y55.128 E0.00166
G1 X78.693 Y54.498 E0.06608
G1 X78.723 Y54.485 E0.00163
G1 X79.969 Y54.057 E0.06573
G1 X80.001 Y54.049 E0.00165
G1 X81.307 Y53.83 E0.06607
G1 X81.34 Y53.827 E0.00165
G1 X82.66 Y53.827 E0.06586
G1 X82.693 Y53.83 E0.00165
G1 X83.999 Y54.049 E0.06607
G1 X84.031 Y54.057 E0.00165
G1 X85.277 Y54.485 E0.06573
G1 X85.307 Y54.498 E0.00163
G1 X86.472 Y55.128 E0.06608
G1 X86.5 Y55.146 E0.00166
G1 X87.54 Y55.955 E0.06574
G1 X87.564 Y55.978 E0.00166
G1 X88.461 Y56.953 E0.0661
G1 X88.481 Y56.978 E0.0016
G1 X89.204 Y58.083 E0.06588
G1 F1500 E-6.5
G1 F300 Z1.3
G0 F4800 X98.927 Y69.066 Z1.3
G1 F300 Z0.3
G1 F1500 E6.5
G1 X100.281 Y69.008 E0.06761
G1 X100.451 Y69.015 E0.00849
G1 X101.799 Y69.188 E0.0678
G1 X101.965 Y69.224 E0.00847
G1 X103.259 Y69.62 E0.06751
G1 X103.416 Y69.683 E0.00844
G1 X104.632 Y70.296 E0.06794
G1 X104.777 Y70.385 E0.00849
G1 X105.867 Y71.192 E0.06766
G1 X105.993 Y71.303 E0.00838
G1 X106.93 Y72.279 E0.0675
G1 X107.037 Y72.412 E0.00852
G1 X107.799 Y73.539 E0.06787
G1 X107.882 Y73.687 E0.00847
G1 X108.44 Y74.921 E0.06757
G1 X108.497 Y75.081 E0.00847
G1 X108.839 Y76.395 E0.06774
G1 X108.867 Y76.562 E0.00845
G1 X108.982 Y77.913 E0.06765
G1 X108.982 Y78.083 E0.00848
G1 X108.867 Y79.438 E0.06784
G1 X108.839 Y79.605 E0.00845
G1 X108.498 Y80.916 E0.06758
G1 X108.441 Y81.076 E0.00847
G1 X107.882 Y82.313 E0.06772
G1 X107.799 Y82.461 E0.00847
G1 X107.037 Y83.588 E0.06787
G1 X106.93 Y83.721 E0.00852
G1 X105.993 Y84.697 E0.0675
G1 X105.867 Y84.808 E0.00838
G1 X104.777 Y85.615 E0.06766
G1 X104.632 Y85.704 E0.00849
G1 X103.416 Y86.317 E0.06794
G1 X103.259 Y86.38 E0.00844
G1 X101.965 Y86.776 E0.06751
G1 X101.799 Y86.812 E0.00847
G1 X100.451 Y86.985 E0.0678
G1 X100.281 Y86.992 E0.00849
G1 X98.927 Y86.934 E0.06761
G1 X98.759 Y86.912 E0.00845
G1 X97.431 Y86.625 E0.06778
G1 X97.269 Y86.576 E0.00844
G1 X96.009 Y86.07 E0.06774
G1 X95.858 Y85.994 E0.00843
G1 X94.705 Y85.284 E0.06755
G1 X94.568 Y85.183 E0.00849
G1 X93.551 Y84.288 E0.06759
G1 X93.434 Y84.165 E0.00847
G1 X92.579 Y83.106 E0.0679
G1 X92.484 Y82.966 E0.00844
G1 X91.824 Y81.784 E0.06754
G1 X91.754 Y81.629 E0.00849
G1 X91.301 Y80.347 E0.06783
G1 X91.258 Y80.184 E0.00841
G1 X91.028 Y78.847 E0.06768
G1 X91.014 Y78.677 E0.00851
G1 X91.014 Y77.323 E0.06755
G1 X91.028 Y77.153 E0.00851
G1 X91.258 Y75.816 E0.06768
G1 X91.301 Y75.653 E0.00841
G1 X91.754 Y74.371 E0.06783
G1 X91.824 Y74.216 E0.00849
G1 X92.484 Y73.034 E0.06754
G1 X92.579 Y72.894 E0.00844
G1 X93.434 Y71.835 E0.0679
G1 X93.551 Y71.712 E0.00847
G1 X94.569 Y70.816 E0.06766
G1 X94.706 Y70.715 E0.00849
G1 X95.858 Y70.006 E0.06749
G1 X96.009 Y69.93 E0.00843
