;FLAVOR:RepRap
;TIME:679
;Filament used: 0.376544m
;Layer height: 0.1
;Generated with Cura_SteamEngine 3.2.1
T0
M190 S60
M104 S200
M109 S200
M82 ;absolute extrusion mode
G28 ;Home
G1 Z15.0 F6000 ;Move the platform down 15mm
;Prime the extruder
G92 E0
G1 F200 E3
G92 E0
M83 ;relative extrusion mode
;LAYER_COUNT:31
;LAYER:0
M107
G0 F3600 X93.847 Y93.436 Z0.3
;TYPE:SKIRT
G1 F1800 X93.969 Y93.324 E0.00826
G1 X95.009 Y92.515 E0.06574
G1 X95.147 Y92.424 E0.00825
G1 X96.312 Y91.794 E0.06608
G1 X96.463 Y91.728 E0.00822
G1 X97.709 Y91.3 E0.06573
G1 X97.869 Y91.26 E0.00823
G1 X99.175 Y91.041 E0.06607
G1 X99.34 Y91.027 E0.00826
G1 X100.66 Y91.027 E0.06586
G1 X100.825 Y91.041 E0.00826
G1 X102.131 Y91.26 E0.06607
G1 X102.291 Y91.3 E0.00823
G1 X103.537 Y91.728 E0.06573
G1 X103.688 Y91.794 E0.00822
G1 X104.853 Y92.424 E0.06608
G1 X104.991 Y92.515 E0.00825
G1 X106.031 Y93.324 E0.06574
G1 X106.153 Y93.436 E0.00826
G1 X107.05 Y94.411 E0.0661
G1 X107.151 Y94.54 E0.00817
G1 X107.874 Y95.645 E0.06588
G1 X107.953 Y95.791 E0.00828
G1 X108.483 Y96.998 E0.06577
G1 X108.537 Y97.155 E0.00828
G1 X108.861 Y98.437 E0.06597
G1 X108.888 Y98.599 E0.00819
G1 X108.997 Y99.915 E0.06588
G1 X108.997 Y100.08 E0.00823
G1 X108.888 Y101.4 E0.06608
G1 X108.861 Y101.563 E0.00824
G1 X108.538 Y102.842 E0.06581
G1 X108.484 Y102.999 E0.00828
G1 X107.953 Y104.209 E0.06592
G1 X107.874 Y104.355 E0.00828
G1 X107.151 Y105.46 E0.06588
G1 X107.05 Y105.589 E0.00817
G1 X106.153 Y106.564 E0.0661
G1 X106.031 Y106.676 E0.00826
G1 X104.991 Y107.485 E0.06574
G1 X104.853 Y107.576 E0.00825
G1 X103.688 Y108.206 E0.06608
G1 X103.537 Y108.272 E0.00822
G1 X102.291 Y108.7 E0.06573
G1 X102.131 Y108.74 E0.00823
G1 X100.825 Y108.959 E0.06607
G1 X100.66 Y108.973 E0.00826
G1 X99.34 Y108.973 E0.06586
G1 X99.175 Y108.959 E0.00826
G1 X97.869 Y108.74 E0.06607
G1 X97.709 Y108.7 E0.00823
G1 X96.463 Y108.272 E0.06573
G1 X96.312 Y108.206 E0.00822
G1 X95.147 Y107.576 E0.06608
G1 X95.009 Y107.485 E0.00825
G1 X93.969 Y106.676 E0.06574
G1 X93.847 Y106.564 E0.00826
G1 X92.95 Y105.589 E0.0661
G1 X92.849 Y105.46 E0.00817
G1 X92.126 Y104.355 E0.06588
G1 X92.047 Y104.209 E0.00828
G1 X91.516 Y102.999 E0.06592
G1 X91.462 Y102.842 E0.00828
G1 X91.139 Y101.563 E0.06581
G1 X91.112 Y101.401 E0.00819
G1 X91.003 Y100.085 E0.06588
G1 X91.003 Y99.92 E0.00823
G1 X91.112 Y98.6 E0.06608
G1 X91.139 Y98.437 E0.00824
G1 X91.462 Y97.158 E0.06581
G1 X91.516 Y97.001 E0.00828
G1 X92.047 Y95.791 E0.06592
G1 X92.126 Y95.645 E0.00828
G1 X92.849 Y94.54 E0.06588
G1 X92.95 Y94.411 E0.00817
G1 X93.847 Y93.436 E0.0661
G0 F3600 X94.141 Y93.707
G1 F1800 X94.215 Y93.639 E0.00501
G1 X95.255 Y92.83 E0.06574
G1 X95.338 Y92.776 E0.00494
G1 X96.503 Y92.146 E0.06608
G1 X96.593 Y92.107 E0.00489
G1 X97.839 Y91.679 E0.06573
G1 X97.935 Y91.654 E0.00495
G1 X99.241 Y91.435 E0.06607
G1 X99.34 Y91.427 E0.00496
G1 X100.66 Y91.427 E0.06586
G1 X100.759 Y91.435 E0.00496
G1 X102.065 Y91.654 E0.06607
G1 X102.161 Y91.679 E0.00495
G1 X103.407 Y92.107 E0.06573
G1 X103.497 Y92.146 E0.00489
G1 X104.662 Y92.776 E0.06608
G1 X104.745 Y92.83 E0.00494
G1 X105.785 Y93.639 E0.06574
G1 X105.859 Y93.707 E0.00501
G1 X106.756 Y94.682 E0.0661
G1 X106.816 Y94.759 E0.00487
G1 X107.539 Y95.864 E0.06588
G1 X107.586 Y95.952 E0.00498
G1 X108.116 Y97.159 E0.06577
G1 X108.149 Y97.253 E0.00497
G1 X108.473 Y98.535 E0.06597
G1 X108.489 Y98.632 E0.0049
G1 X108.598 Y99.948 E0.06588
G1 X108.598 Y100.047 E0.00494
G1 X108.489 Y101.367 E0.06608
G1 X108.473 Y101.465 E0.00495
G1 X108.15 Y102.744 E0.06581
G1 X108.117 Y102.838 E0.00497
G1 X107.586 Y104.048 E0.06592
G1 X107.539 Y104.136 E0.00498
G1 X106.816 Y105.241 E0.06588
G1 X106.756 Y105.318 E0.00487
G1 X105.859 Y106.293 E0.0661
G1 X105.785 Y106.361 E0.00501
G1 X104.745 Y107.17 E0.06574
G1 X104.662 Y107.224 E0.00494
G1 X103.497 Y107.854 E0.06608
G1 X103.407 Y107.893 E0.00489
G1 X102.161 Y108.321 E0.06573
G1 X102.065 Y108.346 E0.00495
G1 X100.759 Y108.565 E0.06607
G1 X100.66 Y108.573 E0.00496
G1 X99.34 Y108.573 E0.06586
G1 X99.241 Y108.565 E0.00496
G1 X97.935 Y108.346 E0.06607
G1 X97.839 Y108.321 E0.00495
G1 X96.593 Y107.893 E0.06573
G1 X96.503 Y107.854 E0.00489
G1 X95.338 Y107.224 E0.06608
G1 X95.255 Y107.17 E0.00494
G1 X94.215 Y106.361 E0.06574
G1 X94.141 Y106.293 E0.00501
G1 X93.244 Y105.318 E0.0661
G1 X93.184 Y105.241 E0.00487
G1 X92.461 Y104.136 E0.06588
G1 X92.414 Y104.048 E0.00498
G1 X91.883 Y102.838 E0.06592
G1 X91.85 Y102.744 E0.00497
G1 X91.527 Y101.465 E0.06581
G1 X91.511 Y101.368 E0.0049
G1 X91.402 Y100.052 E0.06588
G1 X91.402 Y99.953 E0.00494
G1 X91.511 Y98.633 E0.06608
G1 X91.527 Y98.535 E0.00495
G1 X91.85 Y97.256 E0.06581
G1 X91.883 Y97.162 E0.00497
G1 X92.414 Y95.952 E0.06592
G1 X92.461 Y95.864 E0.00498
G1 X93.184 Y94.759 E0.06588
G1 X93.244 Y94.682 E0.00487
G1 X94.141 Y93.707 E0.0661
G0 F3600 X94.436 Y93.978
G1 F1800 X94.46 Y93.955 E0.00166
G1 X95.5 Y93.146 E0.06574
G1 X95.528 Y93.128 E0.00166
G1 X96.693 Y92.498 E0.06608
G1 X96.723 Y92.485 E0.00163
G1 X97.969 Y92.057 E0.06573
G1 X98.001 Y92.049 E0.00165
G1 X99.307 Y91.83 E0.06607
G1 X99.34 Y91.827 E0.00165
G1 X100.66 Y91.827 E0.06586
G1 X100.693 Y91.83 E0.00165
G1 X101.999 Y92.049 E0.06607
G1 X102.031 Y92.057 E0.00165
G1 X103.277 Y92.485 E0.06573
G1 X103.307 Y92.498 E0.00163
G1 X104.472 Y93.128 E0.06608
G1 X104.5 Y93.146 E0.00166
G1 X105.54 Y93.955 E0.06574
G1 X105.564 Y93.978 E0.00166
G1 X106.461 Y94.953 E0.0661
G1 X106.481 Y94.978 E0.0016
G1 X107.204 Y96.083 E0.06588
G1 X107.22 Y96.113 E0.0017
G1 X107.75 Y97.32 E0.06577
G1 X107.761 Y97.351 E0.00164
G1 X108.085 Y98.633 E0.06597
G1 X108.09 Y98.665 E0.00162
G1 X108.199 Y99.981 E0.06588
G1 X108.199 Y100.014 E0.00165
G1 X108.09 Y101.334 E0.06608
G1 X108.085 Y101.367 E0.00167
G1 X107.762 Y102.646 E0.06581
G1 X107.751 Y102.677 E0.00164
G1 X107.22 Y103.887 E0.06592
G1 X107.204 Y103.917 E0.0017
G1 X106.481 Y105.022 E0.06588
G1 X106.461 Y105.047 E0.0016
G1 X105.564 Y106.022 E0.0661
G1 X105.54 Y106.045 E0.00166
G1 X104.5 Y106.854 E0.06574
G1 X104.472 Y106.872 E0.00166
G1 X103.307 Y107.502 E0.06608
G1 X103.277 Y107.515 E0.00163
G1 X102.031 Y107.943 E0.06573
G1 X101.999 Y107.951 E0.00165
G1 X100.693 Y108.17 E0.06607
G1 X100.66 Y108.173 E0.00165
G1 X99.34 Y108.173 E0.06586
G1 X99.307 Y108.17 E0.00165
G1 X98.001 Y107.951 E0.06607
G1 X97.969 Y107.943 E0.00165
G1 X96.723 Y107.515 E0.06573
G1 X96.693 Y107.502 E0.00163
G1 X95.528 Y106.872 E0.06608
G1 X95.5 Y106.854 E0.00166
G1 X94.46 Y106.045 E0.06574
G1 X94.436 Y106.022 E0.00166
G1 X93.539 Y105.047 E0.0661
G1 X93.519 Y105.022 E0.0016
G1 X92.796 Y103.917 E0.06588
G1 X92.78 Y103.887 E0.0017
G1 X92.249 Y102.677 E0.06592
G1 X92.238 Y102.646 E0.00164
G1 X91.915 Y101.367 E0.06581
G1 X91.91 Y101.335 E0.00162
G1 X91.801 Y100.019 E0.06588
G1 X91.801 Y99.986 E0.00165
G1 X91.91 Y98.666 E0.06608
G1 X91.915 Y98.633 E0.00167
G1 X92.238 Y97.354 E0.06581
G1 X92.249 Y97.323 E0.00164
G1 X92.78 Y96.113 E0.06592
G1 X92.796 Y96.083 E0.0017
G1 X93.519 Y94.978 E0.06588
G1 X93.539 Y94.953 E0.0016
G1 X94.436 Y93.978 E0.0661
G1 F1500 E-6.5
G0 F3600 X94.094 Y93.663
G0 X93.339 Y94.483
G0 X85.867 Y105.192
G1 F1500 E6.5
G1 F1800 X85.993 Y105.303 E0.00838
G1 X86.93 Y106.279 E0.0675
G1 X87.037 Y106.412 E0.00852
G1 X87.799 Y107.539 E0.06787
G1 X87.882 Y107.687 E0.00847
G1 X88.44 Y108.921 E0.06757
G1 X88.497 Y109.081 E0.00847
G1 X88.839 Y110.395 E0.06774
G1 X88.867 Y110.562 E0.00845
G1 X88.982 Y111.913 E0.06765
G1 X88.982 Y112.083 E0.00848
G1 X88.867 Y113.438 E0.06784
G1 X88.839 Y113.605 E0.00845
G1 X88.498 Y114.916 E0.06758
G1 X88.441 Y115.076 E0.00847
G1 X87.882 Y116.313 E0.06772
G1 X87.799 Y116.461 E0.00847
G1 X87.037 Y117.588 E0.06787
G1 X86.93 Y117.721 E0.00852
G1 X85.993 Y118.697 E0.0675
G1 X85.867 Y118.808 E0.00838
G1 X84.777 Y119.615 E0.06766
G1 X84.632 Y119.704 E0.00849
G1 X83.416 Y120.317 E0.06794
G1 X83.259 Y120.38 E0.00844
G1 X81.965 Y120.776 E0.06751
G1 X81.799 Y120.812 E0.00847
G1 X80.451 Y120.985 E0.0678
G1 X80.281 Y120.992 E0.00849
G1 X78.927 Y120.934 E0.06761
G1 X78.759 Y120.912 E0.00845
G1 X77.431 Y120.625 E0.06778
G1 X77.269 Y120.576 E0.00844
G1 X76.009 Y120.07 E0.06774
G1 X75.858 Y119.994 E0.00843
G1 X74.705 Y119.284 E0.06755
G1 X74.568 Y119.183 E0.00849
G1 X73.551 Y118.288 E0.06759
G1 X73.434 Y118.165 E0.00847
G1 X72.579 Y117.106 E0.0679
G1 X72.484 Y116.966 E0.00844
G1 X71.824 Y115.784 E0.06754
G1 X71.754 Y115.629 E0.00849
G1 X71.301 Y114.347 E0.06783
G1 X71.258 Y114.184 E0.00841
G1 X71.028 Y112.847 E0.06768
G1 X71.014 Y112.677 E0.00851
G1 X71.014 Y111.323 E0.06755
G1 X71.028 Y111.153 E0.00851
G1 X71.258 Y109.816 E0.06768
G1 X71.301 Y109.653 E0.00841
G1 X71.754 Y108.371 E0.06783
G1 X71.824 Y108.216 E0.00849
G1 X72.484 Y107.034 E0.06754
G1 X72.579 Y106.894 E0.00844
G1 X73.434 Y105.835 E0.0679
G1 X73.551 Y105.712 E0.00847
G1 X74.569 Y104.816 E0.06766
G1 X74.706 Y104.715 E0.00849
G1 X75.858 Y104.006 E0.06749
G1 X76.009 Y103.93 E0.00843
G1 X77.269 Y103.424 E0.06774
G1 X77.431 Y103.375 E0.00844
G1 X78.759 Y103.088 E0.06778
G1 X78.927 Y103.066 E0.00845
G1 X80.281 Y103.008 E0.06761
G1 X80.451 Y103.015 E0.00849
G1 X81.799 Y103.188 E0.0678
G1 X81.965 Y103.224 E0.00847
G1 X83.259 Y103.62 E0.06751
G1 X83.416 Y103.683 E0.00844
G1 X84.632 Y104.296 E0.06794
G1 X84.777 Y104.385 E0.00849
G1 X85.867 Y105.192 E0.06766
G0 F3600 X85.629 Y105.514
G1 F1800 X85.705 Y105.58 E0.00502
G1 X86.642 Y106.556 E0.0675
G1 X86.706 Y106.636 E0.00511
G1 X87.468 Y107.763 E0.06787
G1 X87.518 Y107.852 E0.00509
G1 X88.076 Y109.086 E0.06757
G1 X88.11 Y109.182 E0.00508
G1 X88.452 Y110.496 E0.06774
G1 X88.469 Y110.596 E0.00506
G1 X88.584 Y111.947 E0.06765
G1 X88.584 Y112.049 E0.00509
G1 X88.469 Y113.404 E0.06784
G1 X88.452 Y113.504 E0.00506
G1 X88.111 Y114.815 E0.06758
G1 X88.077 Y114.911 E0.00508
G1 X87.518 Y116.148 E0.06772
G1 X87.468 Y116.237 E0.00509
G1 X86.706 Y117.364 E0.06787
G1 X86.642 Y117.444 E0.00511
G1 X85.705 Y118.42 E0.0675
G1 X85.629 Y118.486 E0.00502
G1 X84.539 Y119.293 E0.06766
G1 X84.452 Y119.347 E0.00511
G1 X83.236 Y119.96 E0.06794
G1 X83.142 Y119.998 E0.00506
G1 X81.848 Y120.394 E0.06751
G1 X81.748 Y120.415 E0.0051
G1 X80.4 Y120.588 E0.0678
G1 X80.298 Y120.592 E0.00509
G1 X78.944 Y120.534 E0.06761
G1 X78.843 Y120.521 E0.00508
G1 X77.515 Y120.234 E0.06778
G1 X77.418 Y120.205 E0.00505
G1 X76.158 Y119.699 E0.06774
G1 X76.067 Y119.653 E0.00509
G1 X74.914 Y118.943 E0.06755
G1 X74.833 Y118.882 E0.00506
G1 X73.816 Y117.987 E0.06759
G1 X73.745 Y117.914 E0.00508
G1 X72.89 Y116.855 E0.0679
G1 X72.833 Y116.771 E0.00506
G1 X72.173 Y115.589 E0.06754
G1 X72.131 Y115.496 E0.00509
G1 X71.678 Y114.214 E0.06783
G1 X71.653 Y114.116 E0.00505
G1 X71.423 Y112.779 E0.06768
G1 X71.414 Y112.677 E0.00511
G1 X71.414 Y111.323 E0.06755
G1 X71.423 Y111.221 E0.00511
G1 X71.653 Y109.884 E0.06768
G1 X71.678 Y109.786 E0.00505
G1 X72.131 Y108.504 E0.06783
G1 X72.173 Y108.411 E0.00509
G1 X72.833 Y107.229 E0.06754
G1 X72.89 Y107.145 E0.00506
G1 X73.745 Y106.086 E0.0679
G1 X73.816 Y106.013 E0.00508
G1 X74.834 Y105.117 E0.06766
G1 X74.916 Y105.056 E0.0051
G1 X76.068 Y104.347 E0.06749
G1 X76.158 Y104.301 E0.00504
G1 X77.418 Y103.795 E0.06774
G1 X77.515 Y103.766 E0.00505
G1 X78.843 Y103.479 E0.06778
G1 X78.944 Y103.466 E0.00508
G1 X80.298 Y103.408 E0.06761
G1 X80.4 Y103.412 E0.00509
G1 X81.748 Y103.585 E0.0678
G1 X81.848 Y103.606 E0.0051
G1 X83.142 Y104.002 E0.06751
G1 X83.236 Y104.04 E0.00506
G1 X84.452 Y104.653 E0.06794
G1 X84.539 Y104.707 E0.00511
G1 X85.629 Y105.514 E0.06766
G0 F3600 X85.391 Y105.835
G1 F1800 X85.416 Y105.857 E0.00166
G1 X86.353 Y106.833 E0.0675
G1 X86.375 Y106.86 E0.00174
G1 X87.137 Y107.987 E0.06787
G1 X87.153 Y108.017 E0.0017
G1 X87.711 Y109.251 E0.06757
G1 X87.723 Y109.283 E0.00171
G1 X88.065 Y110.597 E0.06774
G1 X88.07 Y110.63 E0.00167
G1 X88.185 Y111.981 E0.06765
G1 X88.185 Y112.015 E0.0017
G1 X88.07 Y113.37 E0.06784
G1 X88.065 Y113.403 E0.00167
G1 X87.724 Y114.714 E0.06758
G1 X87.712 Y114.746 E0.00171
G1 X87.153 Y115.983 E0.06772
G1 X87.137 Y116.013 E0.0017
G1 X86.375 Y117.14 E0.06787
G1 X86.353 Y117.167 E0.00174
G1 X85.416 Y118.143 E0.0675
G1 X85.391 Y118.165 E0.00166
G1 X84.301 Y118.972 E0.06766
G1 X84.272 Y118.99 E0.0017
G1 X83.056 Y119.603 E0.06794
G1 X83.025 Y119.615 E0.00166
G1 X81.731 Y120.011 E0.06751
G1 X81.697 Y120.018 E0.00173
G1 X80.349 Y120.191 E0.0678
G1 X80.315 Y120.193 E0.0017
G1 X78.961 Y120.135 E0.06761
G1 X78.928 Y120.13 E0.00167
G1 X77.6 Y119.843 E0.06778
G1 X77.567 Y119.834 E0.00171
G1 X76.307 Y119.328 E0.06774
G1 X76.277 Y119.312 E0.0017
G1 X75.124 Y118.602 E0.06755
G1 X75.097 Y118.582 E0.00168
G1 X74.08 Y117.687 E0.06759
G1 X74.056 Y117.663 E0.00169
G1 X73.201 Y116.604 E0.0679
G1 X73.182 Y116.576 E0.00169
G1 X72.522 Y115.394 E0.06754
G1 X72.508 Y115.363 E0.0017
G1 X72.055 Y114.081 E0.06783
G1 X72.047 Y114.048 E0.00169
G1 X71.817 Y112.711 E0.06768
G1 X71.814 Y112.677 E0.0017
G1 X71.814 Y111.323 E0.06755
G1 X71.817 Y111.289 E0.0017
G1 X72.047 Y109.952 E0.06768
G1 X72.055 Y109.919 E0.00169
G1 X72.508 Y108.637 E0.06783
G1 X72.522 Y108.606 E0.0017
G1 X73.182 Y107.424 E0.06754
G1 X73.201 Y107.396 E0.00169
G1 X74.056 Y106.337 E0.0679
G1 X74.08 Y106.313 E0.00169
G1 X75.098 Y105.417 E0.06766
G1 X75.125 Y105.397 E0.00168
G1 X76.277 Y104.688 E0.06749
G1 X76.307 Y104.672 E0.0017
G1 X77.567 Y104.166 E0.06774
G1 X77.6 Y104.157 E0.00171
G1 X78.928 Y103.87 E0.06778
G1 X78.961 Y103.865 E0.00167
G1 X80.315 Y103.807 E0.06761
G1 X80.349 Y103.809 E0.0017
G1 X81.697 Y103.982 E0.0678
G1 X81.731 Y103.989 E0.00173
G1 X83.025 Y104.385 E0.06751
G1 X83.056 Y104.397 E0.00166
G1 X84.272 Y105.01 E0.06794
G1 X84.301 Y105.028 E0.0017
G1 X85.391 Y105.835 E0.06766
G1 F1500 E-6.5
G0 F3600 X84.864 Y106.466
G0 X81.52 Y104.866
G0 X81.627 Y104.376
;TYPE:WALL-OUTER
G1 F1500 E6.5
G1 F1800 X82.891 Y104.762 E0.06594
G1 X84.075 Y105.36 E0.06618
G1 X85.142 Y106.149 E0.06621
G1 X86.051 Y107.096 E0.06549
G1 X86.797 Y108.199 E0.06643
G1 X87.338 Y109.398 E0.06563
G1 X87.674 Y110.685 E0.06636
G1 X87.786 Y112 E0.06584
G1 X87.674 Y113.315 E0.06584
G1 X87.338 Y114.602 E0.06636
G1 X86.797 Y115.801 E0.06563
G1 X86.051 Y116.904 E0.06643
G1 X85.142 Y117.851 E0.06549
G1 X84.075 Y118.64 E0.06621
G1 X82.891 Y119.238 E0.06618
G1 X81.627 Y119.624 E0.06594
G1 X80.32 Y119.792 E0.06574
G1 X78.996 Y119.736 E0.06611
G1 X77.703 Y119.457 E0.06599
G1 X76.471 Y118.962 E0.06624
G1 X75.348 Y118.271 E0.06578
G1 X74.358 Y117.4 E0.06579
G1 X73.525 Y116.368 E0.06617
G1 X72.879 Y115.212 E0.06607
G1 X72.438 Y113.962 E0.06613
G1 X72.214 Y112.661 E0.06586
G1 X72.214 Y111.339 E0.06595
G1 X72.438 Y110.038 E0.06586
G1 X72.879 Y108.788 E0.06613
G1 X73.525 Y107.632 E0.06607
G1 X74.358 Y106.6 E0.06617
G1 X75.348 Y105.729 E0.06579
G1 X76.471 Y105.038 E0.06578
G1 X77.703 Y104.543 E0.06624
G1 X78.996 Y104.264 E0.06599
G1 X80.32 Y104.208 E0.06611
G1 X81.627 Y104.376 E0.06574
G0 F3600 X81.818 Y104.434
G0 X81.541 Y104.769
;TYPE:WALL-INNER
G1 F1800 X82.745 Y105.136 E0.0628
G1 X83.861 Y105.7 E0.06238
G1 X84.877 Y106.451 E0.06303
G1 X85.741 Y107.351 E0.06224
G1 X86.444 Y108.39 E0.06259
G1 X86.96 Y109.535 E0.06266
G1 X87.278 Y110.75 E0.06266
G1 X87.384 Y112 E0.06259
G1 X87.278 Y113.25 E0.06259
G1 X86.96 Y114.465 E0.06266
G1 X86.444 Y115.61 E0.06266
G1 X85.741 Y116.649 E0.06259
G1 X84.877 Y117.549 E0.06224
G1 X83.861 Y118.3 E0.06303
G1 X82.745 Y118.864 E0.06238
G1 X81.541 Y119.231 E0.0628
G1 X80.303 Y119.391 E0.06228
G1 X79.044 Y119.337 E0.06287
G1 X77.82 Y119.073 E0.06247
G1 X76.655 Y118.605 E0.06264
G1 X75.583 Y117.945 E0.06281
G1 X74.648 Y117.123 E0.06211
G1 X73.858 Y116.144 E0.06276
G1 X73.245 Y115.047 E0.06269
G1 X72.826 Y113.861 E0.06275
