;FLAVOR:RepRap
;TIME:1426
;Filament used: 0.815461m
;Layer height: 0.1
;Generated with Cura_SteamEngine 3.2.1
T0
M190 S50
M104 S210
M109 S210
M82 ;absolute extrusion mode
G28 ;Home
G1 Z15.0 F6000 ;Move the platform down 15mm
;Prime the extruder
G92 E0
G1 F200 E3
G92 E0
M83 ;relative extrusion mode
;LAYER_COUNT:59
;LAYER:0
M107
G0 F3600 X81.803 Y79.905 Z0.3
;TYPE:SKIRT
G1 F1800 X82.112 Y79.685 E0.01892
G1 X82.459 Y79.533 E0.0189
G1 X83 Y79.45 E0.02731
G1 X117 Y79.45 E1.69627
G1 X117.377 Y79.49 E0.01891
G1 X117.737 Y79.608 E0.0189
G1 X118.064 Y79.798 E0.01887
G1 X118.345 Y80.053 E0.01893
G1 X118.565 Y80.362 E0.01892
G1 X118.717 Y80.709 E0.0189
G1 X118.8 Y81.25 E0.02731
G1 X118.8 Y118.75 E1.87088
G1 X118.76 Y119.127 E0.01891
G1 X118.642 Y119.487 E0.0189
G1 X118.452 Y119.814 E0.01887
G1 X118.197 Y120.095 E0.01893
G1 X117.888 Y120.315 E0.01892
G1 X117.541 Y120.467 E0.0189
G1 X117 Y120.55 E0.02731
G1 X83 Y120.55 E1.69627
G1 X82.623 Y120.51 E0.01891
G1 X82.263 Y120.392 E0.0189
G1 X81.936 Y120.202 E0.01887
G1 X81.655 Y119.947 E0.01893
G1 X81.435 Y119.638 E0.01892
G1 X81.283 Y119.291 E0.0189
G1 X81.2 Y118.75 E0.02731
G1 X81.2 Y114 E0.23698
G1 X81.24 Y113.623 E0.01891
G1 X81.358 Y113.263 E0.0189
G1 X81.548 Y112.936 E0.01887
G1 X81.803 Y112.655 E0.01893
G1 X82.112 Y112.435 E0.01892
G1 X82.459 Y112.283 E0.0189
G1 X83 Y112.2 E0.02731
G1 X87 Y112.2 E0.19956
G1 X87.377 Y112.24 E0.01891
G1 X87.737 Y112.358 E0.0189
G1 X88.064 Y112.548 E0.01887
G1 X88.345 Y112.803 E0.01893
G1 X88.45 Y112.95 E0.00901
G1 X111.2 Y112.95 E1.135
G1 X111.2 Y87.05 E1.29216
G1 X88.46 Y87.05 E1.1345
G1 X88.452 Y87.064 E0.0008
G1 X88.197 Y87.345 E0.01893
G1 X87.888 Y87.565 E0.01892
G1 X87.541 Y87.717 E0.0189
G1 X87 Y87.8 E0.02731
G1 X83 Y87.8 E0.19956
G1 X82.623 Y87.76 E0.01891
G1 X82.263 Y87.642 E0.0189
G1 X81.936 Y87.452 E0.01887
G1 X81.655 Y87.197 E0.01893
G1 X81.435 Y86.888 E0.01892
G1 X81.283 Y86.541 E0.0189
G1 X81.2 Y86 E0.02731
G1 X81.2 Y81.25 E0.23698
G1 X81.24 Y80.873 E0.01891
G1 X81.358 Y80.513 E0.0189
G1 X81.548 Y80.186 E0.01887
G1 X81.803 Y79.905 E0.01893
G0 F3600 X82.193 Y80.106
G1 F1800 X82.487 Y79.947 E0.01668
G1 X82.811 Y79.863 E0.0167
G1 X83 Y79.85 E0.00945
G1 X117 Y79.85 E1.69627
G1 X117.332 Y79.89 E0.01668
G1 X117.644 Y80.007 E0.01662
G1 X117.921 Y80.195 E0.0167
G1 X118.144 Y80.443 E0.01664
G1 X118.303 Y80.737 E0.01668
G1 X118.387 Y81.061 E0.0167
G1 X118.4 Y81.25 E0.00945
G1 X118.4 Y118.75 E1.87088
G1 X118.36 Y119.082 E0.01668
G1 X118.243 Y119.394 E0.01662
G1 X118.055 Y119.671 E0.0167
G1 X117.807 Y119.894 E0.01664
G1 X117.513 Y120.053 E0.01668
G1 X117.189 Y120.137 E0.0167
G1 X117 Y120.15 E0.00945
G1 X83 Y120.15 E1.69627
G1 X82.668 Y120.11 E0.01668
G1 X82.356 Y119.993 E0.01662
G1 X82.079 Y119.805 E0.0167
G1 X81.856 Y119.557 E0.01664
G1 X81.697 Y119.263 E0.01668
G1 X81.613 Y118.939 E0.0167
G1 X81.6 Y118.75 E0.00945
G1 X81.6 Y114 E0.23698
G1 X81.64 Y113.668 E0.01668
G1 X81.757 Y113.356 E0.01662
G1 X81.945 Y113.079 E0.0167
G1 X82.193 Y112.856 E0.01664
G1 X82.487 Y112.697 E0.01668
G1 X82.811 Y112.613 E0.0167
G1 X83 Y112.6 E0.00945
G1 X87 Y112.6 E0.19956
G1 X87.332 Y112.64 E0.01668
G1 X87.644 Y112.757 E0.01662
G1 X87.921 Y112.945 E0.0167
G1 X88.144 Y113.193 E0.01664
G1 X88.229 Y113.35 E0.00891
G1 X111.6 Y113.35 E1.16598
G1 X111.6 Y86.65 E1.33207
G1 X88.239 Y86.65 E1.16549
G1 X88.055 Y86.921 E0.01634
G1 X87.807 Y87.144 E0.01664
G1 X87.513 Y87.303 E0.01668
G1 X87.189 Y87.387 E0.0167
G1 X87 Y87.4 E0.00945
G1 X83 Y87.4 E0.19956
G1 X82.668 Y87.36 E0.01668
G1 X82.356 Y87.243 E0.01662
G1 X82.079 Y87.055 E0.0167
G1 X81.856 Y86.807 E0.01664
G1 X81.697 Y86.513 E0.01668
G1 X81.613 Y86.189 E0.0167
G1 X81.6 Y86 E0.00945
G1 X81.6 Y81.25 E0.23698
G1 X81.64 Y80.918 E0.01668
G1 X81.757 Y80.606 E0.01662
G1 X81.945 Y80.329 E0.0167
G1 X82.193 Y80.106 E0.01664
G0 F3600 X82.339 Y80.499
G1 F1800 X82.575 Y80.345 E0.01406
G1 X82.845 Y80.262 E0.01409
G1 X83 Y80.25 E0.00776
G1 X117 Y80.25 E1.69627
G1 X117.279 Y80.29 E0.01406
G1 X117.536 Y80.406 E0.01407
G1 X117.751 Y80.589 E0.01409
G1 X117.905 Y80.825 E0.01406
G1 X117.988 Y81.095 E0.01409
G1 X118 Y81.25 E0.00776
G1 X118 Y118.75 E1.87088
G1 X117.96 Y119.029 E0.01406
G1 X117.844 Y119.286 E0.01407
G1 X117.661 Y119.501 E0.01409
G1 X117.425 Y119.655 E0.01406
G1 X117.155 Y119.738 E0.01409
G1 X117 Y119.75 E0.00776
G1 X83 Y119.75 E1.69627
G1 X82.721 Y119.71 E0.01406
G1 X82.464 Y119.594 E0.01407
G1 X82.249 Y119.411 E0.01409
G1 X82.095 Y119.175 E0.01406
G1 X82.012 Y118.905 E0.01409
G1 X82 Y118.75 E0.00776
G1 X82 Y114 E0.23698
G1 X82.04 Y113.721 E0.01406
G1 X82.156 Y113.464 E0.01407
G1 X82.339 Y113.249 E0.01409
G1 X82.575 Y113.095 E0.01406
G1 X82.845 Y113.012 E0.01409
G1 X83 Y113 E0.00776
G1 X87 Y113 E0.19956
G1 X87.279 Y113.04 E0.01406
G1 X87.536 Y113.156 E0.01407
G1 X87.751 Y113.339 E0.01409
G1 X87.905 Y113.575 E0.01406
G1 X87.959 Y113.75 E0.00914
G1 X112 Y113.75 E1.19941
G1 X112 Y86.25 E1.37198
G1 X87.964 Y86.25 E1.19916
G1 X87.96 Y86.279 E0.00146
G1 X87.844 Y86.536 E0.01407
G1 X87.661 Y86.751 E0.01409
G1 X87.425 Y86.905 E0.01406
G1 X87.155 Y86.988 E0.01409
G1 X87 Y87 E0.00776
G1 X83 Y87 E0.19956
G1 X82.721 Y86.96 E0.01406
G1 X82.464 Y86.844 E0.01407
G1 X82.249 Y86.661 E0.01409
G1 X82.095 Y86.425 E0.01406
G1 X82.012 Y86.155 E0.01409
G1 X82 Y86 E0.00776
G1 X82 Y81.25 E0.23698
G1 X82.04 Y80.971 E0.01406
G1 X82.156 Y80.714 E0.01407
G1 X82.339 Y80.499 E0.01409
G0 F3600 X82.553 Y80.849
G1 F1800 X82.726 Y80.716 E0.01089
G1 X83 Y80.65 E0.01406
G1 X117 Y80.65 E1.69627
G1 X117.215 Y80.69 E0.01091
G1 X117.401 Y80.803 E0.01086
G1 X117.534 Y80.976 E0.01089
G1 X117.6 Y81.25 E0.01406
G1 X117.6 Y118.75 E1.87088
G1 X117.56 Y118.965 E0.01091
G1 X117.447 Y119.151 E0.01086
G1 X117.274 Y119.284 E0.01089
G1 X117 Y119.35 E0.01406
G1 X83 Y119.35 E1.69627
G1 X82.785 Y119.31 E0.01091
G1 X82.599 Y119.197 E0.01086
G1 X82.466 Y119.024 E0.01089
G1 X82.4 Y118.75 E0.01406
G1 X82.4 Y114 E0.23698
G1 X82.44 Y113.785 E0.01091
G1 X82.553 Y113.599 E0.01086
G1 X82.726 Y113.466 E0.01089
G1 X83 Y113.4 E0.01406
G1 X87 Y113.4 E0.19956
G1 X87.215 Y113.44 E0.01091
G1 X87.401 Y113.553 E0.01086
G1 X87.534 Y113.726 E0.01089
G1 X87.6 Y114 E0.01406
G1 X87.6 Y114.15 E0.00748
G1 X112.4 Y114.15 E1.23728
G1 X112.4 Y85.85 E1.41189
G1 X87.6 Y85.85 E1.23728
G1 X87.6 Y86 E0.00748
G1 X87.56 Y86.215 E0.01091
G1 X87.447 Y86.401 E0.01086
G1 X87.274 Y86.534 E0.01089
G1 X87 Y86.6 E0.01406
G1 X83 Y86.6 E0.19956
G1 X82.785 Y86.56 E0.01091
G1 X82.599 Y86.447 E0.01086
G1 X82.466 Y86.274 E0.01089
G1 X82.4 Y86 E0.01406
G1 X82.4 Y81.25 E0.23698
G1 X82.44 Y81.035 E0.01091
G1 X82.553 Y80.849 E0.01086
G0 F3600 X82.839 Y81.131
G1 F1800 X83 Y81.05 E0.00899
G1 X117 Y81.05 E1.69627
G1 X117.119 Y81.089 E0.00625
G1 X117.2 Y81.25 E0.00899
G1 X117.2 Y118.75 E1.87088
G1 X117.161 Y118.869 E0.00625
G1 X117 Y118.95 E0.00899
G1 X83 Y118.95 E1.69627
G1 X82.881 Y118.911 E0.00625
G1 X82.8 Y118.75 E0.00899
G1 X82.8 Y114 E0.23698
G1 X82.839 Y113.881 E0.00625
G1 X83 Y113.8 E0.00899
G1 X87 Y113.8 E0.19956
G1 X87.119 Y113.839 E0.00625
G1 X87.2 Y114 E0.00899
G1 X87.2 Y114.55 E0.02744
G1 X112.8 Y114.55 E1.27719
G1 X112.8 Y85.45 E1.4518
G1 X87.2 Y85.45 E1.27719
G1 X87.2 Y86 E0.02744
G1 X87.161 Y86.119 E0.00625
G1 X87 Y86.2 E0.00899
G1 X83 Y86.2 E0.19956
G1 X82.881 Y86.161 E0.00625
G1 X82.8 Y86 E0.00899
G1 X82.8 Y81.25 E0.23698
G1 X82.839 Y81.131 E0.00625
G1 F1500 E-6.5
G0 F3600 X82.335 Y81.131
G0 X82.335 Y85.386
G0 X83.614 Y85.386
G0 X86.372 Y84.622
G0 X113.628 Y84.622
G0 X113.628 Y115.378
G0 X86.372 Y115.378
G0 X86.3 Y114.95
G0 X86.8 Y114.95
;TYPE:WALL-OUTER
G1 F1500 E6.5
G1 F1800 X113.2 Y114.95 E1.3171
G1 X113.2 Y85.05 E1.49172
G1 X86.8 Y85.05 E1.3171
G1 X86.8 Y85.8 E0.03742
G1 X83.2 Y85.8 E0.1796
G1 X83.2 Y81.45 E0.21702
G1 X116.8 Y81.45 E1.67631
G1 X116.8 Y118.55 E1.85093
G1 X83.2 Y118.55 E1.67631
G1 X83.2 Y114.2 E0.21702
G1 X86.8 Y114.2 E0.1796
G1 X86.8 Y114.95 E0.03742
G0 F3600 X87 Y114.95
G0 X86.4 Y115.35
;TYPE:WALL-INNER
G1 F1800 X113.6 Y115.35 E1.35701
G1 X113.6 Y84.65 E1.53163
G1 X86.4 Y84.65 E1.35701
G1 X86.4 Y85.4 E0.03742
G1 X83.6 Y85.4 E0.13969
G1 X83.6 Y81.85 E0.17711
G1 X116.4 Y81.85 E1.6364
G1 X116.4 Y118.15 E1.81101
G1 X83.6 Y118.15 E1.6364
G1 X83.6 Y114.6 E0.17711
G1 X86.4 Y114.6 E0.13969
G1 X86.4 Y115.35 E0.03742
G0 F3600 X86.01 Y114.99
;TYPE:SKIN
G1 F1800 X86.01 Y115.74 E0.03742
G1 X113.99 Y115.74 E1.39593
G1 X113.99 Y84.26 E1.57054
G1 X86.01 Y84.26 E1.39593
G1 X86.01 Y85.01 E0.03742
G1 X83.99 Y85.01 E0.10078
G1 X83.99 Y82.24 E0.1382
G1 X116.01 Y82.24 E1.59748
G1 X116.01 Y117.76 E1.7721
G1 X83.99 Y117.76 E1.59748
G1 X83.99 Y114.99 E0.1382
G1 X86.01 Y114.99 E0.10078
G0 F3600 X84.769 Y117.579
G1 F1800 X84.169 Y116.979 E0.04233
G1 X84.099 Y116.909
G0 F3600 X84.169 Y116.413
G1 F1800 X85.335 Y117.579 E0.08227
G1 X85.405 Y117.649
G0 F3600 X85.9 Y117.579
G1 F1800 X84.169 Y115.848 E0.12213
G1 X84.099 Y115.778
G0 F3600 X84.169 Y115.282
G1 F1800 X86.466 Y117.579 E0.16207
G1 X86.536 Y117.649
G0 F3600 X87.032 Y117.579
G1 F1800 X84.622 Y115.169 E0.17004
G1 X84.552 Y115.099
G0 F3600 X85.187 Y115.169
G1 F1800 X85.83 Y115.811 E0.04533
G1 X85.9 Y115.881
G0 F3600 X85.938 Y115.919
G1 F1800 X87.597 Y117.579 E0.11709
G1 X87.667 Y117.649
G0 F3600 X88.163 Y117.579
G1 F1800 X86.503 Y115.919 E0.11712
G1 X86.433 Y115.849
G0 F3600 X87.069 Y115.919
G1 F1800 X88.729 Y117.579 E0.11712
G1 X88.799 Y117.649
G0 F3600 X89.294 Y117.579
G1 F1800 X87.635 Y115.919 E0.11709
G1 X87.565 Y115.849
G0 F3600 X88.2 Y115.919
G1 F1800 X89.86 Y117.579 E0.11712
G1 X89.93 Y117.649
G0 F3600 X90.426 Y117.579
G1 F1800 X88.766 Y115.919 E0.11712
G1 X88.696 Y115.849
G0 F3600 X89.332 Y115.919
G1 F1800 X90.991 Y117.579 E0.11709
G1 X91.061 Y117.649
G0 F3600 X91.557 Y117.579
G1 F1800 X89.898 Y115.919 E0.11709
G1 X89.828 Y115.849
G0 F3600 X90.463 Y115.919
G1 F1800 X92.123 Y117.579 E0.11712
G1 X92.193 Y117.649
G0 F3600 X92.688 Y117.579
G1 F1800 X91.029 Y115.919 E0.11709
G1 X90.959 Y115.849
G0 F3600 X91.595 Y115.919
G1 F1800 X93.254 Y117.579 E0.11709
G1 X93.324 Y117.649
G0 F3600 X93.82 Y117.579
G1 F1800 X92.16 Y115.919 E0.11712
G1 X92.09 Y115.849
G0 F3600 X92.726 Y115.919
G1 F1800 X94.386 Y117.579 E0.11712
G1 X94.456 Y117.649
G0 F3600 X94.951 Y117.579
G1 F1800 X93.292 Y115.919 E0.11709
G1 X93.222 Y115.849
G0 F3600 X93.857 Y115.919
G1 F1800 X95.517 Y117.579 E0.11712
G1 X95.587 Y117.649
G0 F3600 X96.083 Y117.579
G1 F1800 X94.423 Y115.919 E0.11712
G1 X94.353 Y115.849
G0 F3600 X94.989 Y115.919
G1 F1800 X96.648 Y117.579 E0.11709
G1 X96.718 Y117.649
G0 F3600 X97.214 Y117.579
G1 F1800 X95.554 Y115.919 E0.11712
G1 X95.484 Y115.849
G0 F3600 X96.12 Y115.919
G1 F1800 X97.78 Y117.579 E0.11712
G1 X97.85 Y117.649
G0 F3600 X98.345 Y117.579
G1 F1800 X96.686 Y115.919 E0.11709
G1 X96.616 Y115.849
G0 F3600 X97.251 Y115.919
G1 F1800 X98.911 Y117.579 E0.11712
G1 X98.981 Y117.649
G0 F3600 X99.477 Y117.579
G1 F1800 X97.817 Y115.919 E0.11712
G1 X97.747 Y115.849
G0 F3600 X98.383 Y115.919
G1 F1800 X100.042 Y117.579 E0.11709
G1 X100.112 Y117.649
G0 F3600 X100.608 Y117.579
G1 F1800 X98.948 Y115.919 E0.11712
G1 X98.878 Y115.849
G0 F3600 X99.514 Y115.919
G1 F1800 X101.174 Y117.579 E0.11712
G1 X101.244 Y117.649
G0 F3600 X101.739 Y117.579
G1 F1800 X100.08 Y115.919 E0.11709
G1 X100.01 Y115.849
G0 F3600 X100.646 Y115.919
G1 F1800 X102.305 Y117.579 E0.11709
G1 X102.375 Y117.649
G0 F3600 X102.871 Y117.579
G1 F1800 X101.211 Y115.919 E0.11712
G1 X101.141 Y115.849
G0 F3600 X101.777 Y115.919
G1 F1800 X103.436 Y117.579 E0.11709
G1 X103.506 Y117.649
G0 F3600 X104.002 Y117.579
G1 F1800 X102.343 Y115.919 E0.11709
G1 X102.273 Y115.849
G0 F3600 X102.908 Y115.919
G1 F1800 X104.568 Y117.579 E0.11712
G1 X104.638 Y117.649
G0 F3600 X105.134 Y117.579
G1 F1800 X103.474 Y115.919 E0.11712
G1 X103.404 Y115.849
G0 F3600 X104.04 Y115.919
G1 F1800 X105.699 Y117.579 E0.11709
G1 X105.769 Y117.649
G0 F3600 X106.265 Y117.579
G1 F1800 X104.605 Y115.919 E0.11712
G1 X104.535 Y115.849
G0 F3600 X105.171 Y115.919
G1 F1800 X106.831 Y117.579 E0.11712
G1 X106.901 Y117.649
G0 F3600 X107.396 Y117.579
G1 F1800 X105.737 Y115.919 E0.11709
G1 X105.667 Y115.849
G0 F3600 X106.302 Y115.919
G1 F1800 X107.962 Y117.579 E0.11712
G1 X108.032 Y117.649
G0 F3600 X108.528 Y117.579
G1 F1800 X106.868 Y115.919 E0.11712
G1 X106.798 Y115.849
G0 F3600 X107.434 Y115.919
G1 F1800 X109.093 Y117.579 E0.11709
G1 X109.163 Y117.649
G0 F3600 X109.659 Y117.579
G1 F1800 X107.999 Y115.919 E0.11712
G1 X107.929 Y115.849
G0 F3600 X108.565 Y115.919
G1 F1800 X110.225 Y117.579 E0.11712
G1 X110.295 Y117.649
G0 F3600 X110.79 Y117.579
G1 F1800 X109.131 Y115.919 E0.11709
G1 X109.061 Y115.849
G0 F3600 X109.697 Y115.919
G1 F1800 X111.356 Y117.579 E0.11709
G1 X111.426 Y117.649
G0 F3600 X111.922 Y117.579
G1 F1800 X110.262 Y115.919 E0.11712
G1 X110.192 Y115.849
G0 F3600 X110.828 Y115.919
G1 F1800 X112.487 Y117.579 E0.11709
G1 X112.557 Y117.649
G0 F3600 X113.053 Y117.579
G1 F1800 X111.394 Y115.919 E0.11709
G1 X111.324 Y115.849
G0 F3600 X111.959 Y115.919
G1 F1800 X113.619 Y117.579 E0.11712
G1 X113.689 Y117.649
G0 F3600 X114.185 Y117.579
G1 F1800 X112.525 Y115.919 E0.11712
G1 X112.455 Y115.849
G0 F3600 X113.091 Y115.919
G1 F1800 X114.75 Y117.579 E0.11709
G1 X114.82 Y117.649
G0 F3600 X115.316 Y117.579
G1 F1800 X113.656 Y115.919 E0.11712
G1 X113.586 Y115.849
G0 F3600 X114.169 Y115.866
G1 F1800 X115.829 Y117.526 E0.11712
G1 X115.899 Y117.596
G0 F3600 X115.829 Y116.961
G1 F1800 X114.169 Y115.3 E0.11716
G1 X114.099 Y115.23
G0 F3600 X114.169 Y114.735
G1 F1800 X115.829 Y116.395 E0.11712
G1 X115.899 Y116.465
G0 F3600 X115.829 Y115.829
G1 F1800 X114.169 Y114.169 E0.11712
G1 X114.099 Y114.099
G0 F3600 X114.169 Y113.603
G1 F1800 X115.829 Y115.264 E0.11716
G1 X115.899 Y115.334
G0 F3600 X115.829 Y114.698
G1 F1800 X114.169 Y113.038 E0.11712
G1 X114.099 Y112.968
G0 F3600 X114.169 Y112.472
G1 F1800 X115.829 Y114.132 E0.11712
G1 X115.899 Y114.202
G0 F3600 X115.829 Y113.567
G1 F1800 X114.169 Y111.906 E0.11716
G1 X114.099 Y111.836
G0 F3600 X114.169 Y111.341
G1 F1800 X115.829 Y113.001 E0.11712
G1 X115.899 Y113.071
G0 F3600 X115.829 Y112.435
G1 F1800 X114.169 Y110.775 E0.11712
G1 X114.099 Y110.705
G0 F3600 X114.169 Y110.209
G1 F1800 X115.829 Y111.869 E0.11712
G1 X115.899 Y111.939
G0 F3600 X115.829 Y111.304
G1 F1800 X114.169 Y109.643 E0.11716
G1 X114.099 Y109.573
G0 F3600 X114.169 Y109.078
G1 F1800 X115.829 Y110.738 E0.11712
G1 X115.899 Y110.808
G0 F3600 X115.829 Y110.172
G1 F1800 X114.169 Y108.512 E0.11712
G1 X114.099 Y108.442
G0 F3600 X114.169 Y107.946
G1 F1800 X115.829 Y109.607 E0.11716
G1 X115.899 Y109.677
G0 F3600 X115.829 Y109.041
G1 F1800 X114.169 Y107.381 E0.11712
G1 X114.099 Y107.311
G0 F3600 X114.169 Y106.815
G1 F1800 X115.829 Y108.475 E0.11712
G1 X115.899 Y108.545
G0 F3600 X115.829 Y107.91
G1 F1800 X114.169 Y106.249 E0.11716
G1 X114.099 Y106.179
G0 F3600 X114.169 Y105.684
G1 F1800 X115.829 Y107.344 E0.11712
G1 X115.899 Y107.414
G0 F3600 X115.829 Y106.778
G1 F1800 X114.169 Y105.118 E0.11712
G1 X114.099 Y105.048
G0 F3600 X114.169 Y104.552
G1 F1800 X115.829 Y106.213 E0.11716
G1 X115.899 Y106.283
G0 F3600 X115.829 Y105.647
G1 F1800 X114.169 Y103.987 E0.11712
G1 X114.099 Y103.917
G0 F3600 X114.169 Y103.421
G1 F1800 X115.829 Y105.081 E0.11712
G1 X115.899 Y105.151
G0 F3600 X115.829 Y104.516
G1 F1800 X114.169 Y102.855 E0.11716
G1 X114.099 Y102.785
G0 F3600 X114.169 Y102.29
G1 F1800 X115.829 Y103.95 E0.11712
G1 X115.899 Y104.02
G0 F3600 X115.829 Y103.384
G1 F1800 X114.169 Y101.724 E0.11712
G1 X114.099 Y101.654
G0 F3600 X114.169 Y101.158
G1 F1800 X115.829 Y102.818 E0.11712
G1 X115.899 Y102.888
