;FLAVOR:RepRap
;TIME:2230
;Filament used: 2.19193m
;Layer height: 0.2
;Generated with Cura_SteamEngine 3.2.1
T0
M190 S50
M104 S210
M109 S210
M82 ;absolute extrusion mode
G28 ;Home
G1 Z15.0 F6000 ;Move the platform down 15mm
;Prime the extruder
G92 E0
G1 F200 E3
G92 E0
M83 ;relative extrusion mode
;LAYER_COUNT:160
;LAYER:0
M107
G0 F3600 X69.761 Y77.527 Z0.3
;TYPE:SKIRT
G1 F1800 X70.056 Y77.289 E0.01891
G1 X70.394 Y77.118 E0.0189
G1 X70.76 Y77.021 E0.01889
G1 X71.034 Y77 E0.01371
G1 X79.629 Y77.002 E0.42881
G1 X80.006 Y77.042 E0.01891
G1 X80.366 Y77.16 E0.0189
G1 X80.694 Y77.351 E0.01894
G1 X80.974 Y77.606 E0.01889
G1 X80.981 Y77.616 E0.00061
G1 X81.139 Y77.489 E0.01011
G1 X81.477 Y77.318 E0.0189
G1 X81.843 Y77.221 E0.01889
G1 X82.117 Y77.2 E0.01371
G1 X117.883 Y77.2 E1.78437
G1 X118.26 Y77.24 E0.01891
G1 X118.62 Y77.358 E0.0189
G1 X118.947 Y77.548 E0.01887
G1 X119.022 Y77.613 E0.00495
G1 X119.144 Y77.474 E0.00923
G1 X119.449 Y77.249 E0.01891
G1 X119.794 Y77.092 E0.01891
G1 X120.164 Y77.011 E0.0189
G1 X120.362 Y77 E0.00989
G1 X128.966 Y77 E0.42926
G1 X129.343 Y77.04 E0.01891
G1 X129.703 Y77.158 E0.0189
G1 X130.03 Y77.348 E0.01887
G1 X130.239 Y77.527 E0.01373
G1 X130.473 Y77.761 E0.01651
G1 X130.711 Y78.056 E0.01891
G1 X130.882 Y78.394 E0.0189
G1 X130.979 Y78.76 E0.01889
G1 X131 Y79.034 E0.01371
G1 X131 Y80.966 E0.09639
G1 X130.96 Y81.343 E0.01891
G1 X130.842 Y81.703 E0.0189
G1 X130.652 Y82.03 E0.01887
G1 X130.473 Y82.239 E0.01373
G1 X130.239 Y82.473 E0.01651
G1 X129.944 Y82.711 E0.01891
G1 X129.606 Y82.882 E0.0189
G1 X129.24 Y82.979 E0.01889
G1 X128.966 Y83 E0.01371
G1 X120.4 Y83 E0.42736
G1 X120.023 Y82.96 E0.01891
G1 X119.8 Y82.887 E0.01171
G1 X119.8 Y120.883 E1.89563
G1 X119.76 Y121.26 E0.01891
G1 X119.642 Y121.62 E0.0189
G1 X119.452 Y121.947 E0.01887
G1 X119.273 Y122.156 E0.01373
G1 X119.156 Y122.273 E0.00825
G1 X118.861 Y122.511 E0.01891
G1 X118.523 Y122.682 E0.0189
G1 X118.157 Y122.779 E0.01889
G1 X117.883 Y122.8 E0.01371
G1 X82.117 Y122.8 E1.78437
G1 X81.74 Y122.76 E0.01891
G1 X81.38 Y122.642 E0.0189
G1 X81.053 Y122.452 E0.01887
G1 X80.844 Y122.273 E0.01373
G1 X80.727 Y122.156 E0.00825
G1 X80.489 Y121.861 E0.01891
G1 X80.318 Y121.523 E0.0189
G1 X80.221 Y121.157 E0.01889
G1 X80.2 Y120.883 E0.01371
G1 X80.2 Y82.889 E1.89553
G1 X80.12 Y82.923 E0.00434
G1 X79.6 Y83 E0.02623
G1 X71.034 Y83 E0.42736
G1 X70.657 Y82.96 E0.01891
G1 X70.297 Y82.842 E0.0189
G1 X69.97 Y82.652 E0.01887
G1 X69.761 Y82.473 E0.01373
G1 X69.527 Y82.239 E0.01651
G1 X69.289 Y81.944 E0.01891
G1 X69.118 Y81.606 E0.0189
G1 X69.021 Y81.24 E0.01889
G1 X69 Y80.966 E0.01371
G1 X69 Y79.034 E0.09639
G1 X69.04 Y78.657 E0.01891
G1 X69.158 Y78.297 E0.0189
G1 X69.348 Y77.97 E0.01887
G1 X69.527 Y77.761 E0.01373
G1 X69.761 Y77.527 E0.01651
G0 F3600 X70.044 Y77.81
G1 F1800 X70.307 Y77.604 E0.01667
G1 X70.611 Y77.465 E0.01668
G1 X71.034 Y77.4 E0.02135
G1 X79.629 Y77.402 E0.42881
G1 X79.961 Y77.442 E0.01668
G1 X80.274 Y77.559 E0.01667
G1 X80.55 Y77.747 E0.01666
G1 X80.773 Y77.996 E0.01668
G1 X80.914 Y78.258 E0.01484
G1 X81.01 Y78.127 E0.0081
G1 X81.127 Y78.01 E0.00825
G1 X81.39 Y77.804 E0.01667
G1 X81.694 Y77.665 E0.01668
G1 X82.117 Y77.6 E0.02135
G1 X117.883 Y77.6 E1.78437
G1 X118.215 Y77.64 E0.01668
G1 X118.527 Y77.757 E0.01662
G1 X118.873 Y78.01 E0.02138
G1 X118.99 Y78.127 E0.00825
G1 X119.084 Y78.246 E0.00757
G1 X119.109 Y78.175 E0.00376
G1 X119.293 Y77.896 E0.01667
G1 X119.537 Y77.669 E0.01663
G1 X119.829 Y77.505 E0.01671
G1 X120.151 Y77.416 E0.01667
G1 X120.362 Y77.4 E0.01056
G1 X128.966 Y77.4 E0.42926
G1 X129.298 Y77.44 E0.01668
G1 X129.61 Y77.557 E0.01662
G1 X129.956 Y77.81 E0.02138
G1 X130.19 Y78.044 E0.01651
G1 X130.396 Y78.307 E0.01667
G1 X130.535 Y78.611 E0.01668
G1 X130.6 Y79.034 E0.02135
G1 X130.6 Y80.966 E0.09639
G1 X130.56 Y81.298 E0.01668
G1 X130.443 Y81.61 E0.01662
G1 X130.19 Y81.956 E0.02138
G1 X129.956 Y82.19 E0.01651
G1 X129.693 Y82.396 E0.01667
G1 X129.389 Y82.535 E0.01668
G1 X128.966 Y82.6 E0.02135
G1 X120.4 Y82.6 E0.42736
G1 X120.068 Y82.56 E0.01668
G1 X119.756 Y82.443 E0.01662
G1 X119.479 Y82.255 E0.0167
G1 X119.4 Y82.167 E0.0059
G1 X119.4 Y120.883 E1.93155
G1 X119.36 Y121.215 E0.01668
G1 X119.243 Y121.527 E0.01662
G1 X118.99 Y121.873 E0.02138
G1 X118.873 Y121.99 E0.00825
G1 X118.61 Y122.196 E0.01667
G1 X118.306 Y122.335 E0.01668
G1 X117.883 Y122.4 E0.02135
G1 X82.117 Y122.4 E1.78437
G1 X81.785 Y122.36 E0.01668
G1 X81.473 Y122.243 E0.01662
G1 X81.127 Y121.99 E0.02138
G1 X81.01 Y121.873 E0.00825
G1 X80.804 Y121.61 E0.01667
G1 X80.665 Y121.306 E0.01668
G1 X80.6 Y120.883 E0.02135
G1 X80.6 Y82.172 E1.9313
G1 X80.393 Y82.354 E0.01375
G1 X80.097 Y82.509 E0.01667
G1 X79.773 Y82.589 E0.01665
G1 X79.6 Y82.6 E0.00865
G1 X71.034 Y82.6 E0.42736
G1 X70.702 Y82.56 E0.01668
G1 X70.39 Y82.443 E0.01662
G1 X70.044 Y82.19 E0.02138
G1 X69.81 Y81.956 E0.01651
G1 X69.604 Y81.693 E0.01667
G1 X69.465 Y81.389 E0.01668
G1 X69.4 Y80.966 E0.02135
G1 X69.4 Y79.034 E0.09639
G1 X69.44 Y78.702 E0.01668
G1 X69.557 Y78.39 E0.01662
G1 X69.81 Y78.044 E0.02138
G1 X70.044 Y77.81 E0.01651
G0 F3600 X70.327 Y78.093
G1 F1800 X70.553 Y77.924 E0.01408
G1 X70.817 Y77.824 E0.01408
G1 X71.034 Y77.8 E0.01089
G1 X79.629 Y77.802 E0.42881
G1 X79.909 Y77.842 E0.01411
G1 X80.166 Y77.958 E0.01407
G1 X80.38 Y78.142 E0.01408
G1 X80.534 Y78.378 E0.01406
G1 X80.617 Y78.647 E0.01404
G1 X80.629 Y78.814 E0.00835
G1 X80.6 Y81.212 E0.11965
G1 X80.557 Y81.491 E0.01408
G1 X80.437 Y81.747 E0.01411
G1 X80.251 Y81.959 E0.01407
G1 X80.014 Y82.11 E0.01402
G1 X79.743 Y82.19 E0.0141
G1 X79.6 Y82.2 E0.00715
G1 X71.034 Y82.2 E0.42736
G1 X70.755 Y82.16 E0.01406
G1 X70.498 Y82.044 E0.01407
G1 X70.327 Y81.907 E0.01093
G1 X70.093 Y81.673 E0.01651
G1 X69.924 Y81.447 E0.01408
G1 X69.824 Y81.183 E0.01408
G1 X69.8 Y80.966 E0.01089
G1 X69.8 Y79.034 E0.09639
G1 X69.84 Y78.755 E0.01406
G1 X69.956 Y78.498 E0.01407
G1 X70.093 Y78.327 E0.01093
G1 X70.327 Y78.093 E0.01651
G0 F3600 X70.61 Y78.376
G1 F1800 X70.789 Y78.252 E0.01086
G1 X71.034 Y78.2 E0.0125
G1 X79.629 Y78.202 E0.42881
G1 X79.844 Y78.242 E0.01091
G1 X80.03 Y78.356 E0.01088
G1 X80.163 Y78.528 E0.01085
G1 X80.229 Y78.809 E0.0144
G1 X80.2 Y81.207 E0.11965
G1 X80.158 Y81.421 E0.01088
G1 X80.042 Y81.606 E0.01089
G1 X79.867 Y81.737 E0.01091
G1 X79.6 Y81.8 E0.01369
G1 X71.034 Y81.8 E0.42736
G1 X70.819 Y81.76 E0.01091
G1 X70.61 Y81.624 E0.01244
G1 X70.376 Y81.39 E0.01651
G1 X70.252 Y81.211 E0.01086
G1 X70.2 Y80.966 E0.0125
G1 X70.2 Y79.034 E0.09639
G1 X70.24 Y78.819 E0.01091
G1 X70.376 Y78.61 E0.01244
G1 X70.61 Y78.376 E0.01651
G0 F3600 X70.893 Y78.659
G1 F1800 X71.034 Y78.6 E0.00763
G1 X79.629 Y78.602 E0.42881
G1 X79.748 Y78.641 E0.00625
G1 X79.829 Y78.804 E0.00908
G1 X79.8 Y81.202 E0.11965
G1 X79.76 Y81.321 E0.00626
G1 X79.6 Y81.4 E0.0089
G1 X71.034 Y81.4 E0.42736
G1 X70.893 Y81.341 E0.00763
G1 X70.659 Y81.107 E0.01651
G1 X70.6 Y80.966 E0.00763
G1 X70.6 Y79.034 E0.09639
G1 X70.659 Y78.893 E0.00763
G1 X70.893 Y78.659 E0.01651
G0 F3600 X81 Y79.117
G1 F1800 X81.04 Y78.838 E0.01406
G1 X81.156 Y78.581 E0.01407
G1 X81.293 Y78.41 E0.01093
G1 X81.41 Y78.293 E0.00825
G1 X81.636 Y78.124 E0.01408
G1 X81.9 Y78.024 E0.01408
G1 X82.117 Y78 E0.01089
G1 X117.883 Y78 E1.78437
G1 X118.162 Y78.04 E0.01406
G1 X118.419 Y78.156 E0.01407
G1 X118.59 Y78.293 E0.01093
G1 X118.707 Y78.41 E0.00825
G1 X118.876 Y78.636 E0.01408
G1 X118.976 Y78.9 E0.01408
G1 X119 Y79.117 E0.01089
G1 X119 Y120.883 E2.08371
G1 X118.96 Y121.162 E0.01406
G1 X118.844 Y121.419 E0.01407
G1 X118.707 Y121.59 E0.01093
G1 X118.59 Y121.707 E0.00825
G1 X118.364 Y121.876 E0.01408
G1 X118.1 Y121.976 E0.01408
G1 X117.883 Y122 E0.01089
G1 X82.117 Y122 E1.78437
G1 X81.838 Y121.96 E0.01406
G1 X81.581 Y121.844 E0.01407
G1 X81.41 Y121.707 E0.01093
G1 X81.293 Y121.59 E0.00825
G1 X81.124 Y121.364 E0.01408
G1 X81.024 Y121.1 E0.01408
G1 X81 Y120.883 E0.01089
G1 X81 Y79.117 E2.08371
G0 F3600 X81.4 Y79.117
G1 F1800 X81.44 Y78.902 E0.01091
G1 X81.576 Y78.693 E0.01244
G1 X81.693 Y78.576 E0.00825
G1 X81.872 Y78.452 E0.01086
G1 X82.117 Y78.4 E0.0125
G1 X117.883 Y78.4 E1.78437
G1 X118.098 Y78.44 E0.01091
G1 X118.307 Y78.576 E0.01244
G1 X118.424 Y78.693 E0.00825
G1 X118.548 Y78.872 E0.01086
G1 X118.6 Y79.117 E0.0125
G1 X118.6 Y120.883 E2.08371
G1 X118.56 Y121.098 E0.01091
G1 X118.424 Y121.307 E0.01244
G1 X118.307 Y121.424 E0.00825
G1 X118.128 Y121.548 E0.01086
G1 X117.883 Y121.6 E0.0125
G1 X82.117 Y121.6 E1.78437
G1 X81.902 Y121.56 E0.01091
G1 X81.693 Y121.424 E0.01244
G1 X81.576 Y121.307 E0.00825
G1 X81.452 Y121.128 E0.01086
G1 X81.4 Y120.883 E0.0125
G1 X81.4 Y79.117 E2.08371
G0 F3600 X81.8 Y79.117
G1 F1800 X81.859 Y78.976 E0.00763
G1 X81.976 Y78.859 E0.00825
G1 X82.117 Y78.8 E0.00763
G1 X117.883 Y78.8 E1.78437
G1 X118.024 Y78.859 E0.00763
G1 X118.141 Y78.976 E0.00825
G1 X118.2 Y79.117 E0.00763
G1 X118.2 Y120.883 E2.08371
G1 X118.141 Y121.024 E0.00763
G1 X118.024 Y121.141 E0.00825
G1 X117.883 Y121.2 E0.00763
G1 X82.117 Y121.2 E1.78437
G1 X81.976 Y121.141 E0.00763
G1 X81.859 Y121.024 E0.00825
G1 X81.8 Y120.883 E0.00763
G1 X81.8 Y79.117 E2.08371
G1 F1500 E-6.5
G0 F3600 X81.335 Y79.117
G0 X81.339 Y78.843
G0 X81.843 Y78.339
G0 X118.157 Y78.339
G0 X119.362 Y78.816
G1 F1500 E6.5
G1 F1800 X119.397 Y78.536 E0.01408
G1 X119.51 Y78.277 E0.0141
G1 X119.69 Y78.06 E0.01407
G1 X119.923 Y77.901 E0.01407
G1 X120.192 Y77.815 E0.01409
G1 X120.362 Y77.8 E0.00851
G1 X128.966 Y77.8 E0.42926
G1 X129.245 Y77.84 E0.01406
G1 X129.502 Y77.956 E0.01407
G1 X129.673 Y78.093 E0.01093
G1 X129.907 Y78.327 E0.01651
G1 X130.076 Y78.553 E0.01408
G1 X130.176 Y78.817 E0.01408
G1 X130.2 Y79.034 E0.01089
G1 X130.2 Y80.966 E0.09639
G1 X130.16 Y81.245 E0.01406
G1 X130.044 Y81.502 E0.01407
G1 X129.907 Y81.673 E0.01093
G1 X129.673 Y81.907 E0.01651
G1 X129.447 Y82.076 E0.01408
G1 X129.183 Y82.176 E0.01408
G1 X128.966 Y82.2 E0.01089
G1 X120.4 Y82.2 E0.42736
G1 X120.121 Y82.16 E0.01406
G1 X119.864 Y82.044 E0.01407
G1 X119.649 Y81.861 E0.01409
G1 X119.495 Y81.625 E0.01406
G1 X119.4 Y81.216 E0.02095
G1 X119.362 Y78.816 E0.11975
G0 F3600 X119.762 Y78.809
G1 F1800 X119.798 Y78.594 E0.01088
G1 X119.909 Y78.406 E0.01089
G1 X120.08 Y78.271 E0.01087
G1 X120.362 Y78.2 E0.01451
G1 X128.966 Y78.2 E0.42926
G1 X129.181 Y78.24 E0.01091
G1 X129.39 Y78.376 E0.01244
G1 X129.624 Y78.61 E0.01651
G1 X129.748 Y78.789 E0.01086
G1 X129.8 Y79.034 E0.0125
G1 X129.8 Y80.966 E0.09639
G1 X129.76 Y81.181 E0.01091
G1 X129.624 Y81.39 E0.01244
G1 X129.39 Y81.624 E0.01651
G1 X129.211 Y81.748 E0.01086
G1 X128.966 Y81.8 E0.0125
G1 X120.4 Y81.8 E0.42736
G1 X120.185 Y81.76 E0.01091
G1 X119.999 Y81.647 E0.01086
G1 X119.866 Y81.474 E0.01089
G1 X119.8 Y81.209 E0.01362
G1 X119.762 Y78.809 E0.11975
G0 F3600 X120.162 Y78.803
G1 F1800 X120.199 Y78.684 E0.00622
G1 X120.362 Y78.6 E0.00915
G1 X128.966 Y78.6 E0.42926
G1 X129.107 Y78.659 E0.00763
G1 X129.341 Y78.893 E0.01651
G1 X129.4 Y79.034 E0.00763
G1 X129.4 Y80.966 E0.09639
G1 X129.341 Y81.107 E0.00763
G1 X129.107 Y81.341 E0.01651
G1 X128.966 Y81.4 E0.00763
G1 X120.4 Y81.4 E0.42736
G1 X120.281 Y81.361 E0.00625
G1 X120.2 Y81.203 E0.00886
G1 X120.162 Y78.803 E0.11975
G0 F3600 X120.588 Y79
;TYPE:SUPPORT
G1 F1800 X128.884 Y79 E0.41389
G1 X129 Y79.116 E0.00818
G1 X129 Y80.884 E0.08821
G1 X128.884 Y81 E0.00818
G1 X120.6 Y81 E0.41329
G1 X120.6 Y79.105 E0.09454
G1 X120.588 Y79 E0.00527
G0 F3600 X120.8 Y79.98
G1 F1800 X128.8 Y79.98 E0.39912
G0 F3600 X127.968 Y79.2
G1 F1800 X127.968 Y80.8 E0.07982
G0 F3600 X125.302 Y80.8
G1 F1800 X125.302 Y79.2 E0.07982
G0 F3600 X122.636 Y79.2
G1 F1800 X122.636 Y80.8 E0.07982
G1 F1500 E-6.5
G0 F3600 X118.157 Y78.339
G0 X81.843 Y78.339
G0 X79.4 Y81
G1 F1500 E6.5
G1 F1800 X71.116 Y81 E0.41329
G1 X71 Y80.884 E0.00818
G1 X71 Y79.116 E0.08821
G1 X71.116 Y79 E0.00818
G1 X79.41 Y79.002 E0.41379
G1 X79.4 Y79.108 E0.00531
G1 X79.4 Y81 E0.09439
G0 F3600 X79.2 Y79.98
G1 F1800 X71.2 Y79.98 E0.39912
G0 F3600 X71.982 Y79.201
G1 F1800 X71.982 Y80.8 E0.07977
G0 F3600 X74.648 Y80.8
G1 F1800 X74.648 Y79.201 E0.07977
G0 F3600 X77.314 Y79.202
G1 F1800 X77.314 Y80.8 E0.07972
G1 F1500 E-6.5
G0 F3600 X81.335 Y80.8
G0 X82.62 Y80.8
G0 X83.296 Y80.415
G0 X83.8 Y80.3
G0 X83.8 Y80.8
;TYPE:WALL-OUTER
G1 F1500 E6.5
G1 F1800 X83.8 Y119.2 E1.91578
G1 X116.2 Y119.2 E1.61644
G1 X116.2 Y80.8 E1.91578
G1 X83.8 Y80.8 E1.61644
G0 F3600 X83.8 Y81
G0 X83.3 Y81
G0 X83.372 Y80.372
G0 X116.628 Y80.372
G0 X117.33 Y120.33
G0 X117.8 Y120.8
G1 F1800 X82.2 Y120.8 E1.77609
G1 X82.2 Y79.2 E2.07543
G1 X117.8 Y79.2 E1.77609
G1 X117.8 Y120.8 E2.07543
G0 F3600 X117.6 Y120.8
G0 X117.4 Y120.4
;TYPE:WALL-INNER
G1 F1800 X82.6 Y120.4 E1.73618
G1 X82.6 Y79.6 E2.03552
G1 X117.4 Y79.6 E1.73618
G1 X117.4 Y120.4 E2.03552
G0 F3600 X117.33 Y120.33
G0 X83.372 Y119.628
G0 X83.33 Y80.33
G0 X83.4 Y80.4
G1 F1800 X83.4 Y119.6 E1.9557
G1 X116.6 Y119.6 E1.65635
G1 X116.6 Y80.4 E1.9557
G1 X83.4 Y80.4 E1.65635
G0 F3600 X83.01 Y80.01
;TYPE:SKIN
G1 F1800 X83.01 Y119.99 E1.99461
G1 X116.99 Y119.99 E1.69527
G1 X116.99 Y80.01 E1.99461
G1 X83.01 Y80.01 E1.69527
G0 F3600 X82.99 Y79.99
G1 F1800 X117.01 Y79.99 E1.69726
G1 X117.01 Y120.01 E1.99661
G1 X82.99 Y120.01 E1.69726
G1 X82.99 Y79.99 E1.99661
G0 F3600 X83 Y80
G1 F1500 E-6.5
G0 F3600 X82.614 Y79.614
G0 X81.335 Y79.614
G0 X71.116 Y79
;TIME_ELAPSED:75.034786
;LAYER:1
M140 S50
M106 S255
G0 F5400 X71.116 Y79 Z0.5
;TYPE:SUPPORT
G1 F1500 E6.5
G1 F2700 X71 Y79.116 E0.00546
G1 X71 Y80.884 E0.0588
G1 X71.116 Y81 E0.00546
G1 X71.982 Y81 E0.0288
G1 X74.648 Y81 E0.08867
G1 X74.648 Y79.001 E0.06649
G1 X77.314 Y79.002 E0.08867
G1 X77.314 Y81 E0.06645
G1 X79.98 Y81 E0.08867
G1 X81.1 Y81 E0.03725
G1 X81.1 Y79.002 E0.06645
G1 X79.98 Y79.002 E0.03725
G1 X79.98 Y81 E0.06645
G0 F5400 X71.982 Y81
G1 F2700 X71.982 Y79.001 E0.06649
G1 X71.116 Y79 E0.0288
G1 F1500 E-6.5
G0 F5400 X81.339 Y121.157
G0 X81.843 Y121.661
G0 X118.157 Y121.661
G0 X118.661 Y121.157
G0 X118.9 Y79
G1 F1500 E6.5
G1 F2700 X118.9 Y81 E0.06652
G1 X119.97 Y81 E0.03559
G1 X122.636 Y81 E0.08867
G1 X122.636 Y79 E0.06652
G1 X125.302 Y79 E0.08867
G1 X125.302 Y81 E0.06652
G1 X127.968 Y81 E0.08867
G1 X128.884 Y81 E0.03047
G1 X129 Y80.884 E0.00546
G1 X129 Y79.116 E0.0588
G1 X128.884 Y79 E0.00546
G1 X127.968 Y79 E0.03047
G1 X127.968 Y81 E0.06652
G0 F5400 X119.97 Y81
G1 F2700 X119.97 Y79 E0.06652
G1 X118.9 Y79 E0.03559
G1 F1500 E-6.5
G0 F5400 X118.629 Y79.03
G0 X118.585 Y79.034
G0 X95.624 Y81.619
G0 X95.56 Y81.626
G0 X95.23 Y81.665
G0 X95.23 Y80.36
G0 X83.33 Y80.33
G0 X83.4 Y80.4
;TYPE:WALL-INNER
G1 F1500 E6.5
G1 F2700 X83.4 Y119.6 E1.3038
G1 X116.6 Y119.6 E1.10424
G1 X116.6 Y80.4 E1.3038
G1 X83.4 Y80.4 E1.10424
G0 F5400 X83.33 Y80.33
G0 X116.628 Y80.372
G0 X117.33 Y120.33
G0 X117.4 Y120.4
G1 F2700 X82.6 Y120.4 E1.15745
G1 X82.6 Y79.6 E1.35701
G1 X117.4 Y79.6 E1.15745
G1 X117.4 Y120.4 E1.35701
G0 F5400 X117.8 Y120.8
;TYPE:WALL-OUTER
G1 F1800 X82.2 Y120.8 E1.18406
G1 X82.2 Y79.2 E1.38362
G1 X117.8 Y79.2 E1.18406
G1 X117.8 Y120.8 E1.38362
G0 F5400 X117.6 Y120.8
G0 X117.33 Y120.33
G0 X116.628 Y80.372
G0 X83.8 Y80.3
G0 X83.8 Y80.8
G1 F1800 X83.8 Y119.2 E1.27719
G1 X116.2 Y119.2 E1.07763
G1 X116.2 Y80.8 E1.27719
G1 X83.8 Y80.8 E1.07763
G0 F5400 X83.8 Y81
G0 X83.3 Y81
G0 X83.01 Y80.01
;TYPE:SKIN
G1 F1800 X83.01 Y119.99 E1.32974
G1 X116.99 Y119.99 E1.13018
G1 X116.99 Y80.01 E1.32974
G1 X83.01 Y80.01 E1.13018
G0 F5400 X82.99 Y79.99
G1 F1800 X117.01 Y79.99 E1.13151
G1 X117.01 Y120.01 E1.33107
G1 X82.99 Y120.01 E1.13151
G1 X82.99 Y79.99 E1.33107
G0 F5400 X83 Y80
G1 F1500 E-6.5
G0 F5400 X82.614 Y79.614
G0 X81.335 Y79.614
G0 X71.116 Y79
