;FLAVOR:RepRap
;TIME:2497
;Filament used: 3.92295m
;Layer height: 0.2
;Generated with Cura_SteamEngine 3.2.1
T0
M190 S50
M104 S210
M109 S210
M82 ;absolute extrusion mode
G28 ;Home
G1 Z15.0 F6000 ;Move the platform down 15mm
;Prime the extruder
G92 E0
G1 F200 E3
G92 E0
M83 ;relative extrusion mode
;LAYER_COUNT:175
;LAYER:0
M107
G0 F3600 X72.178 Y68.905 Z0.3
;TYPE:SKIRT
G1 F2400 X72.487 Y68.685 E0.01892
G1 X72.834 Y68.533 E0.0189
G1 X73.375 Y68.45 E0.02731
G1 X126.625 Y68.45 E2.65665
G1 X127.002 Y68.49 E0.01891
G1 X127.362 Y68.608 E0.0189
G1 X127.689 Y68.798 E0.01887
G1 X127.97 Y69.053 E0.01893
G1 X128.19 Y69.362 E0.01892
G1 X128.342 Y69.709 E0.0189
G1 X128.425 Y70.25 E0.02731
G1 X128.425 Y72.25 E0.09978
G1 X128.385 Y72.627 E0.01891
G1 X128.267 Y72.987 E0.0189
G1 X128.077 Y73.314 E0.01887
G1 X127.822 Y73.595 E0.01893
G1 X127.513 Y73.815 E0.01892
G1 X127.166 Y73.967 E0.0189
G1 X126.625 Y74.05 E0.02731
G1 X77.175 Y74.05 E2.46707
G1 X77.175 Y129.75 E2.77888
G1 X77.135 Y130.127 E0.01891
G1 X77.017 Y130.487 E0.0189
G1 X76.827 Y130.814 E0.01887
G1 X76.572 Y131.095 E0.01893
G1 X76.263 Y131.315 E0.01892
G1 X75.916 Y131.467 E0.0189
G1 X75.375 Y131.55 E0.02731
G1 X73.375 Y131.55 E0.09978
G1 X72.998 Y131.51 E0.01891
G1 X72.638 Y131.392 E0.0189
G1 X72.311 Y131.202 E0.01887
G1 X72.03 Y130.947 E0.01893
G1 X71.81 Y130.638 E0.01892
G1 X71.658 Y130.291 E0.0189
G1 X71.575 Y129.75 E0.02731
G1 X71.575 Y70.25 E2.96847
G1 X71.615 Y69.873 E0.01891
G1 X71.733 Y69.513 E0.0189
G1 X71.923 Y69.186 E0.01887
G1 X72.178 Y68.905 E0.01893
G0 F3600 X72.568 Y69.106
G1 F2400 X72.862 Y68.947 E0.01668
G1 X73.186 Y68.863 E0.0167
G1 X73.375 Y68.85 E0.00945
G1 X126.625 Y68.85 E2.65665
G1 X126.957 Y68.89 E0.01668
G1 X127.269 Y69.007 E0.01662
G1 X127.546 Y69.195 E0.0167
G1 X127.769 Y69.443 E0.01664
G1 X127.928 Y69.737 E0.01668
G1 X128.012 Y70.061 E0.0167
G1 X128.025 Y70.25 E0.00945
G1 X128.025 Y72.25 E0.09978
G1 X127.985 Y72.582 E0.01668
G1 X127.868 Y72.894 E0.01662
G1 X127.68 Y73.171 E0.0167
G1 X127.432 Y73.394 E0.01664
G1 X127.138 Y73.553 E0.01668
G1 X126.814 Y73.637 E0.0167
G1 X126.625 Y73.65 E0.00945
G1 X76.775 Y73.65 E2.48703
G1 X76.775 Y129.75 E2.79884
G1 X76.735 Y130.082 E0.01668
G1 X76.618 Y130.394 E0.01662
G1 X76.43 Y130.671 E0.0167
G1 X76.182 Y130.894 E0.01664
G1 X75.888 Y131.053 E0.01668
G1 X75.564 Y131.137 E0.0167
G1 X75.375 Y131.15 E0.00945
G1 X73.375 Y131.15 E0.09978
G1 X73.043 Y131.11 E0.01668
G1 X72.731 Y130.993 E0.01662
G1 X72.454 Y130.805 E0.0167
G1 X72.231 Y130.557 E0.01664
G1 X72.072 Y130.263 E0.01668
G1 X71.988 Y129.939 E0.0167
G1 X71.975 Y129.75 E0.00945
G1 X71.975 Y70.25 E2.96847
G1 X72.015 Y69.918 E0.01668
G1 X72.132 Y69.606 E0.01662
G1 X72.32 Y69.329 E0.0167
G1 X72.568 Y69.106 E0.01664
G0 F3600 X72.714 Y69.499
G1 F2400 X72.95 Y69.345 E0.01406
G1 X73.22 Y69.262 E0.01409
G1 X73.375 Y69.25 E0.00776
G1 X126.625 Y69.25 E2.65665
G1 X126.904 Y69.29 E0.01406
G1 X127.161 Y69.406 E0.01407
G1 X127.376 Y69.589 E0.01409
G1 X127.53 Y69.825 E0.01406
G1 X127.613 Y70.095 E0.01409
G1 X127.625 Y70.25 E0.00776
G1 X127.625 Y72.25 E0.09978
G1 X127.585 Y72.529 E0.01406
G1 X127.469 Y72.786 E0.01407
G1 X127.286 Y73.001 E0.01409
G1 X127.05 Y73.155 E0.01406
G1 X126.78 Y73.238 E0.01409
G1 X126.625 Y73.25 E0.00776
G1 X76.375 Y73.25 E2.50698
G1 X76.375 Y129.75 E2.8188
G1 X76.335 Y130.029 E0.01406
G1 X76.219 Y130.286 E0.01407
G1 X76.036 Y130.501 E0.01409
G1 X75.8 Y130.655 E0.01406
G1 X75.53 Y130.738 E0.01409
G1 X75.375 Y130.75 E0.00776
G1 X73.375 Y130.75 E0.09978
G1 X73.096 Y130.71 E0.01406
G1 X72.839 Y130.594 E0.01407
G1 X72.624 Y130.411 E0.01409
G1 X72.47 Y130.175 E0.01406
G1 X72.387 Y129.905 E0.01409
G1 X72.375 Y129.75 E0.00776
G1 X72.375 Y70.25 E2.96847
G1 X72.415 Y69.971 E0.01406
G1 X72.531 Y69.714 E0.01407
G1 X72.714 Y69.499 E0.01409
G0 F3600 X72.928 Y69.849
G1 F2400 X73.101 Y69.716 E0.01089
G1 X73.375 Y69.65 E0.01406
G1 X126.625 Y69.65 E2.65665
G1 X126.84 Y69.69 E0.01091
G1 X127.026 Y69.803 E0.01086
G1 X127.159 Y69.976 E0.01089
G1 X127.225 Y70.25 E0.01406
G1 X127.225 Y72.25 E0.09978
G1 X127.185 Y72.465 E0.01091
G1 X127.072 Y72.651 E0.01086
G1 X126.899 Y72.784 E0.01089
G1 X126.625 Y72.85 E0.01406
G1 X75.975 Y72.85 E2.52694
G1 X75.975 Y129.75 E2.83875
G1 X75.935 Y129.965 E0.01091
G1 X75.822 Y130.151 E0.01086
G1 X75.649 Y130.284 E0.01089
G1 X75.375 Y130.35 E0.01406
G1 X73.375 Y130.35 E0.09978
G1 X73.16 Y130.31 E0.01091
G1 X72.974 Y130.197 E0.01086
G1 X72.841 Y130.024 E0.01089
G1 X72.775 Y129.75 E0.01406
G1 X72.775 Y70.25 E2.96847
G1 X72.815 Y70.035 E0.01091
G1 X72.928 Y69.849 E0.01086
G0 F3600 X73.214 Y70.131
G1 F2400 X73.375 Y70.05 E0.00899
G1 X126.625 Y70.05 E2.65665
G1 X126.744 Y70.089 E0.00625
G1 X126.825 Y70.25 E0.00899
G1 X126.825 Y72.25 E0.09978
G1 X126.786 Y72.369 E0.00625
G1 X126.625 Y72.45 E0.00899
G1 X75.575 Y72.45 E2.54689
G1 X75.575 Y129.75 E2.85871
G1 X75.536 Y129.869 E0.00625
G1 X75.375 Y129.95 E0.00899
G1 X73.375 Y129.95 E0.09978
G1 X73.256 Y129.911 E0.00625
G1 X73.175 Y129.75 E0.00899
G1 X73.175 Y70.25 E2.96847
G1 X73.214 Y70.131 E0.00625
G1 F1500 E-6.5
G0 F3600 X73.989 Y70.864
G0 X74.675 Y72.05
G0 X75.175 Y72.05
;TYPE:WALL-OUTER
G1 F1500 E6.5
G1 F2400 X75.175 Y129.55 E2.86869
G1 X73.575 Y129.55 E0.07982
G1 X73.575 Y70.45 E2.94851
G1 X126.425 Y70.45 E2.6367
G1 X126.425 Y72.05 E0.07982
G1 X75.175 Y72.05 E2.55687
G0 F3600 X75.175 Y72.25
G0 X74.775 Y71.65
;TYPE:WALL-INNER
G1 F2400 X74.775 Y129.15 E2.86869
G1 X73.975 Y129.15 E0.03991
G1 X73.975 Y70.85 E2.9086
G1 X126.025 Y70.85 E2.59679
G1 X126.025 Y71.65 E0.03991
G1 X74.775 Y71.65 E2.55687
G0 F3600 X74.385 Y71.26
;TYPE:SKIN
G1 F2400 X74.385 Y128.76 E2.86869
G1 X74.365 Y128.76 E0.001
G1 X74.365 Y71.24 E2.86968
G1 X125.635 Y71.24 E2.55787
G1 X125.635 Y71.26 E0.001
G1 X74.385 Y71.26 E2.55687
G0 F3600 X74.775 Y71.65
;TIME_ELAPSED:47.799879
;LAYER:1
M140 S50
M106 S255
G0 F5400 X74.775 Y71.65 Z0.5
;TYPE:WALL-INNER
G1 F3600 X74.775 Y129.15 E1.91246
G1 X73.975 Y129.15 E0.02661
G1 X73.975 Y70.85 E1.93907
G1 X126.025 Y70.85 E1.73119
G1 X126.025 Y71.65 E0.02661
G1 X74.775 Y71.65 E1.70458
G0 F5400 X75.175 Y72.05
;TYPE:WALL-OUTER
G1 F2400 X75.175 Y129.55 E1.91246
G1 X73.575 Y129.55 E0.05322
G1 X73.575 Y70.45 E1.96567
G1 X126.425 Y70.45 E1.7578
G1 X126.425 Y72.05 E0.05322
G1 X75.175 Y72.05 E1.70458
G0 F5400 X75.175 Y72.25
G0 X74.675 Y72.25
G0 X74.385 Y71.26
;TYPE:SKIN
G1 F2400 X74.385 Y128.76 E1.91246
G1 X74.365 Y128.76 E0.00067
G1 X74.365 Y71.24 E1.91312
G1 X125.635 Y71.24 E1.70525
G1 X125.635 Y71.26 E0.00067
G1 X74.385 Y71.26 E1.70458
G0 F5400 X74.775 Y71.65
;TIME_ELAPSED:62.767511
;LAYER:2
G0 F7200 X74.775 Y71.65 Z0.7
;TYPE:WALL-INNER
G1 F4800 X74.775 Y129.15 E1.91246
G1 X73.975 Y129.15 E0.02661
G1 X73.975 Y70.85 E1.93907
G1 X126.025 Y70.85 E1.73119
G1 X126.025 Y71.65 E0.02661
G1 X74.775 Y71.65 E1.70458
G0 F7200 X75.175 Y72.05
;TYPE:WALL-OUTER
G1 F2400 X75.175 Y129.55 E1.91246
G1 X73.575 Y129.55 E0.05322
G1 X73.575 Y70.45 E1.96567
G1 X126.425 Y70.45 E1.7578
G1 X126.425 Y72.05 E0.05322
G1 X75.175 Y72.05 E1.70458
G0 F7200 X75.175 Y72.25
G0 X74.675 Y72.25
G0 X74.385 Y71.26
;TYPE:SKIN
G1 F2400 X74.385 Y128.76 E1.91246
G1 X74.365 Y128.76 E0.00067
G1 X74.365 Y71.24 E1.91312
G1 X125.635 Y71.24 E1.70525
G1 X125.635 Y71.26 E0.00067
G1 X74.385 Y71.26 E1.70458
G0 F7200 X74.775 Y71.65
;TIME_ELAPSED:76.842739
;LAYER:3
G0 X74.775 Y71.65 Z0.9
;TYPE:WALL-INNER
G1 F4800 X74.775 Y129.15 E1.91246
G1 X73.975 Y129.15 E0.02661
G1 X73.975 Y70.85 E1.93907
G1 X126.025 Y70.85 E1.73119
G1 X126.025 Y71.65 E0.02661
G1 X74.775 Y71.65 E1.70458
G0 F7200 X75.175 Y72.05
;TYPE:WALL-OUTER
G1 F2400 X75.175 Y129.55 E1.91246
G1 X73.575 Y129.55 E0.05322
G1 X73.575 Y70.45 E1.96567
G1 X126.425 Y70.45 E1.7578
G1 X126.425 Y72.05 E0.05322
G1 X75.175 Y72.05 E1.70458
G0 F7200 X75.175 Y72.25
G0 X74.675 Y72.25
G0 X74.385 Y71.26
;TYPE:SKIN
G1 F2400 X74.385 Y128.76 E1.91246
G1 X74.365 Y128.76 E0.00067
G1 X74.365 Y71.24 E1.91312
G1 X125.635 Y71.24 E1.70525
G1 X125.635 Y71.26 E0.00067
G1 X74.385 Y71.26 E1.70458
G0 F7200 X74.775 Y71.65
;TIME_ELAPSED:90.917967
;LAYER:4
G0 X74.775 Y71.65 Z1.1
;TYPE:WALL-INNER
G1 F4800 X74.775 Y129.15 E1.91246
G1 X73.975 Y129.15 E0.02661
G1 X73.975 Y70.85 E1.93907
G1 X126.025 Y70.85 E1.73119
G1 X126.025 Y71.65 E0.02661
G1 X74.775 Y71.65 E1.70458
G0 F7200 X75.175 Y72.05
;TYPE:WALL-OUTER
G1 F2400 X75.175 Y129.55 E1.91246
G1 X73.575 Y129.55 E0.05322
G1 X73.575 Y70.45 E1.96567
G1 X126.425 Y70.45 E1.7578
G1 X126.425 Y72.05 E0.05322
G1 X75.175 Y72.05 E1.70458
G0 F7200 X75.175 Y72.25
G0 X74.675 Y72.25
G0 X74.385 Y71.26
;TYPE:SKIN
G1 F2400 X74.385 Y128.76 E1.91246
G1 X74.365 Y128.76 E0.00067
G1 X74.365 Y71.24 E1.91312
G1 X125.635 Y71.24 E1.70525
G1 X125.635 Y71.26 E0.00067
G1 X74.385 Y71.26 E1.70458
G0 F7200 X74.775 Y71.65
;TIME_ELAPSED:104.993195
;LAYER:5
G0 X74.775 Y71.65 Z1.3
;TYPE:WALL-INNER
G1 F4800 X74.775 Y129.15 E1.91246
G1 X73.975 Y129.15 E0.02661
G1 X73.975 Y70.85 E1.93907
G1 X126.025 Y70.85 E1.73119
G1 X126.025 Y71.65 E0.02661
G1 X74.775 Y71.65 E1.70458
G0 F7200 X75.175 Y72.05
;TYPE:WALL-OUTER
G1 F2400 X75.175 Y129.55 E1.91246
G1 X73.575 Y129.55 E0.05322
G1 X73.575 Y70.45 E1.96567
G1 X126.425 Y70.45 E1.7578
G1 X126.425 Y72.05 E0.05322
G1 X75.175 Y72.05 E1.70458
G0 F7200 X75.175 Y72.25
G0 X74.675 Y72.25
G0 X74.385 Y71.26
;TYPE:SKIN
G1 F2400 X74.385 Y128.76 E1.91246
G1 X74.365 Y128.76 E0.00067
G1 X74.365 Y71.24 E1.91312
G1 X125.635 Y71.24 E1.70525
G1 X125.635 Y71.26 E0.00067
G1 X74.385 Y71.26 E1.70458
G0 F7200 X74.775 Y71.65
;TIME_ELAPSED:119.068424
;LAYER:6
G0 X74.775 Y71.65 Z1.5
;TYPE:WALL-INNER
G1 F4800 X74.775 Y129.15 E1.91246
G1 X73.975 Y129.15 E0.02661
G1 X73.975 Y70.85 E1.93907
G1 X126.025 Y70.85 E1.73119
G1 X126.025 Y71.65 E0.02661
G1 X74.775 Y71.65 E1.70458
G0 F7200 X75.175 Y72.05
;TYPE:WALL-OUTER
G1 F2400 X75.175 Y129.55 E1.91246
G1 X73.575 Y129.55 E0.05322
G1 X73.575 Y70.45 E1.96567
G1 X126.425 Y70.45 E1.7578
G1 X126.425 Y72.05 E0.05322
G1 X75.175 Y72.05 E1.70458
G0 F7200 X75.175 Y72.25
G0 X74.675 Y72.25
G0 X74.385 Y71.26
;TYPE:SKIN
G1 F2400 X74.385 Y128.76 E1.91246
G1 X74.365 Y128.76 E0.00067
G1 X74.365 Y71.24 E1.91312
G1 X125.635 Y71.24 E1.70525
G1 X125.635 Y71.26 E0.00067
G1 X74.385 Y71.26 E1.70458
G0 F7200 X74.775 Y71.65
;TIME_ELAPSED:133.143652
;LAYER:7
G0 X74.775 Y71.65 Z1.7
;TYPE:WALL-INNER
G1 F4800 X74.775 Y129.15 E1.91246
G1 X73.975 Y129.15 E0.02661
G1 X73.975 Y70.85 E1.93907
G1 X126.025 Y70.85 E1.73119
G1 X126.025 Y71.65 E0.02661
G1 X74.775 Y71.65 E1.70458
G0 F7200 X75.175 Y72.05
;TYPE:WALL-OUTER
G1 F2400 X75.175 Y129.55 E1.91246
G1 X73.575 Y129.55 E0.05322
G1 X73.575 Y70.45 E1.96567
G1 X126.425 Y70.45 E1.7578
G1 X126.425 Y72.05 E0.05322
G1 X75.175 Y72.05 E1.70458
G0 F7200 X75.175 Y72.25
G0 X74.675 Y72.25
G0 X74.385 Y71.26
;TYPE:SKIN
G1 F2400 X74.385 Y128.76 E1.91246
G1 X74.365 Y128.76 E0.00067
G1 X74.365 Y71.24 E1.91312
G1 X125.635 Y71.24 E1.70525
G1 X125.635 Y71.26 E0.00067
G1 X74.385 Y71.26 E1.70458
G0 F7200 X74.775 Y71.65
;TIME_ELAPSED:147.218880
;LAYER:8
G0 X74.775 Y71.65 Z1.9
;TYPE:WALL-INNER
G1 F4800 X74.775 Y129.15 E1.91246
G1 X73.975 Y129.15 E0.02661
G1 X73.975 Y70.85 E1.93907
G1 X126.025 Y70.85 E1.73119
G1 X126.025 Y71.65 E0.02661
G1 X74.775 Y71.65 E1.70458
G0 F7200 X75.175 Y72.05
;TYPE:WALL-OUTER
G1 F2400 X75.175 Y129.55 E1.91246
G1 X73.575 Y129.55 E0.05322
G1 X73.575 Y70.45 E1.96567
G1 X126.425 Y70.45 E1.7578
G1 X126.425 Y72.05 E0.05322
G1 X75.175 Y72.05 E1.70458
G0 F7200 X75.175 Y72.25
G0 X74.675 Y72.25
G0 X74.385 Y71.26
;TYPE:SKIN
G1 F2400 X74.385 Y128.76 E1.91246
G1 X74.365 Y128.76 E0.00067
G1 X74.365 Y71.24 E1.91312
G1 X125.635 Y71.24 E1.70525
G1 X125.635 Y71.26 E0.00067
G1 X74.385 Y71.26 E1.70458
G0 F7200 X74.775 Y71.65
;TIME_ELAPSED:161.294108
;LAYER:9
G0 X74.775 Y71.65 Z2.1
;TYPE:WALL-INNER
G1 F4800 X74.775 Y129.15 E1.91246
G1 X73.975 Y129.15 E0.02661
G1 X73.975 Y70.85 E1.93907
G1 X126.025 Y70.85 E1.73119
G1 X126.025 Y71.65 E0.02661
G1 X74.775 Y71.65 E1.70458
G0 F7200 X75.175 Y72.05
;TYPE:WALL-OUTER
G1 F2400 X75.175 Y129.55 E1.91246
G1 X73.575 Y129.55 E0.05322
G1 X73.575 Y70.45 E1.96567
G1 X126.425 Y70.45 E1.7578
G1 X126.425 Y72.05 E0.05322
G1 X75.175 Y72.05 E1.70458
G0 F7200 X75.175 Y72.25
G0 X74.675 Y72.25
G0 X74.385 Y71.26
;TYPE:SKIN
G1 F2400 X74.385 Y128.76 E1.91246
G1 X74.365 Y128.76 E0.00067
G1 X74.365 Y71.24 E1.91312
G1 X125.635 Y71.24 E1.70525
G1 X125.635 Y71.26 E0.00067
G1 X74.385 Y71.26 E1.70458
G0 F7200 X74.775 Y71.65
;TIME_ELAPSED:175.369337
;LAYER:10
G0 X74.775 Y71.65 Z2.3
;TYPE:WALL-INNER
G1 F4800 X74.775 Y129.15 E1.91246
G1 X73.975 Y129.15 E0.02661
G1 X73.975 Y70.85 E1.93907
G1 X126.025 Y70.85 E1.73119
G1 X126.025 Y71.65 E0.02661
G1 X74.775 Y71.65 E1.70458
G0 F7200 X75.175 Y72.05
;TYPE:WALL-OUTER
G1 F2400 X75.175 Y129.55 E1.91246
G1 X73.575 Y129.55 E0.05322
G1 X73.575 Y70.45 E1.96567
G1 X126.425 Y70.45 E1.7578
G1 X126.425 Y72.05 E0.05322
G1 X75.175 Y72.05 E1.70458
G0 F7200 X75.175 Y72.25
G0 X74.675 Y72.25
G0 X74.385 Y71.26
;TYPE:SKIN
G1 F2400 X74.385 Y128.76 E1.91246
G1 X74.365 Y128.76 E0.00067
G1 X74.365 Y71.24 E1.91312
G1 X125.635 Y71.24 E1.70525
G1 X125.635 Y71.26 E0.00067
G1 X74.385 Y71.26 E1.70458
G0 F7200 X74.775 Y71.65
;TIME_ELAPSED:189.444565
;LAYER:11
G0 X74.775 Y71.65 Z2.5
;TYPE:WALL-INNER
G1 F4800 X74.775 Y129.15 E1.91246
G1 X73.975 Y129.15 E0.02661
G1 X73.975 Y70.85 E1.93907
G1 X126.025 Y70.85 E1.73119
G1 X126.025 Y71.65 E0.02661
G1 X74.775 Y71.65 E1.70458
G0 F7200 X75.175 Y72.05
;TYPE:WALL-OUTER
G1 F2400 X75.175 Y129.55 E1.91246
G1 X73.575 Y129.55 E0.05322
G1 X73.575 Y70.45 E1.96567
G1 X126.425 Y70.45 E1.7578
G1 X126.425 Y72.05 E0.05322
G1 X75.175 Y72.05 E1.70458
G0 F7200 X75.175 Y72.25
G0 X74.675 Y72.25
G0 X74.385 Y71.26
;TYPE:SKIN
G1 F2400 X74.385 Y128.76 E1.91246
G1 X74.365 Y128.76 E0.00067
G1 X74.365 Y71.24 E1.91312
G1 X125.635 Y71.24 E1.70525
G1 X125.635 Y71.26 E0.00067
G1 X74.385 Y71.26 E1.70458
G0 F7200 X74.775 Y71.65
;TIME_ELAPSED:203.519793
;LAYER:12
G0 X74.775 Y71.65 Z2.7
;TYPE:WALL-INNER
G1 F4800 X74.775 Y129.15 E1.91246
G1 X73.975 Y129.15 E0.02661
G1 X73.975 Y70.85 E1.93907
G1 X126.025 Y70.85 E1.73119
G1 X126.025 Y71.65 E0.02661
G1 X74.775 Y71.65 E1.70458
G0 F7200 X75.175 Y72.05
;TYPE:WALL-OUTER
G1 F2400 X75.175 Y129.55 E1.91246
G1 X73.575 Y129.55 E0.05322
G1 X73.575 Y70.45 E1.96567
G1 X126.425 Y70.45 E1.7578
G1 X126.425 Y72.05 E0.05322
G1 X75.175 Y72.05 E1.70458
G0 F7200 X75.175 Y72.25
G0 X74.675 Y72.25
G0 X74.385 Y71.26
;TYPE:SKIN
G1 F2400 X74.385 Y128.76 E1.91246
G1 X74.365 Y128.76 E0.00067
G1 X74.365 Y71.24 E1.91312
G1 X125.635 Y71.24 E1.70525
G1 X125.635 Y71.26 E0.00067
G1 X74.385 Y71.26 E1.70458
G0 F7200 X74.775 Y71.65
;TIME_ELAPSED:217.595021
;LAYER:13
G0 X74.775 Y71.65 Z2.9
;TYPE:WALL-INNER
G1 F4800 X74.775 Y129.15 E1.91246
G1 X73.975 Y129.15 E0.02661
G1 X73.975 Y70.85 E1.93907
G1 X126.025 Y70.85 E1.73119
G1 X126.025 Y71.65 E0.02661
G1 X74.775 Y71.65 E1.70458
G0 F7200 X75.175 Y72.05
;TYPE:WALL-OUTER
G1 F2400 X75.175 Y129.55 E1.91246
G1 X73.575 Y129.55 E0.05322
G1 X73.575 Y70.45 E1.96567
G1 X126.425 Y70.45 E1.7578
G1 X126.425 Y72.05 E0.05322
G1 X75.175 Y72.05 E1.70458
G0 F7200 X75.175 Y72.25
G0 X74.675 Y72.25
G0 X74.385 Y71.26
;TYPE:SKIN
G1 F2400 X74.385 Y128.76 E1.91246
G1 X74.365 Y128.76 E0.00067
G1 X74.365 Y71.24 E1.91312
G1 X125.635 Y71.24 E1.70525
G1 X125.635 Y71.26 E0.00067
G1 X74.385 Y71.26 E1.70458
G0 F7200 X74.775 Y71.65
;TIME_ELAPSED:231.670249
;LAYER:14
G0 X74.775 Y71.65 Z3.1
;TYPE:WALL-INNER
G1 F4800 X74.775 Y129.15 E1.91246
G1 X73.975 Y129.15 E0.02661
G1 X73.975 Y70.85 E1.93907
G1 X126.025 Y70.85 E1.73119
