;FLAVOR:RepRap
;TIME:6107
;Filament used: 6.32951m
;Layer height: 0.2
;Generated with Cura_SteamEngine 3.2.1
T0
M190 S60
M104 S200
M109 S200
M82 ;absolute extrusion mode
G28 ;Home
G1 Z15.0 F6000 ;Move the platform down 15mm
;Prime the extruder
G92 E0
G1 F200 E3
G92 E0
M83 ;relative extrusion mode
;LAYER_COUNT:65
;LAYER:0
M106 S255
G0 F3600 X25.165 Y63.029 Z0.3
;TYPE:SKIRT
G1 F1800 X25.435 Y62.946 E0.01409
G1 X25.59 Y62.934 E0.00776
G1 X61.59 Y62.934 E1.79605
G1 X61.869 Y62.974 E0.01406
G1 X62.126 Y63.09 E0.01407
G1 X62.341 Y63.273 E0.01409
G1 X62.495 Y63.509 E0.01406
G1 X62.578 Y63.779 E0.01409
G1 X62.59 Y63.934 E0.00776
G1 X62.59 Y85.934 E1.09758
G1 X62.587 Y86.006 E0.0036
G1 X62.403 Y88.566 E0.12805
G1 X62.383 Y88.706 E0.00706
G1 X61.838 Y91.216 E0.12814
G1 X61.798 Y91.354 E0.00717
G1 X60.9 Y93.759 E0.12808
G1 X60.841 Y93.888 E0.00708
G1 X59.609 Y96.145 E0.12829
G1 X59.532 Y96.265 E0.00711
G1 X57.993 Y98.321 E0.12813
G1 X57.899 Y98.429 E0.00714
G1 X56.085 Y100.243 E0.12799
G1 X55.977 Y100.337 E0.00714
G1 X53.921 Y101.876 E0.12813
G1 X53.801 Y101.953 E0.00711
G1 X51.543 Y103.185 E0.12833
G1 X51.414 Y103.244 E0.00708
G1 X49.013 Y104.141 E0.12787
G1 X48.875 Y104.181 E0.00717
G1 X46.362 Y104.727 E0.1283
G1 X46.222 Y104.747 E0.00706
G1 X43.662 Y104.931 E0.12805
G1 X43.518 Y104.931 E0.00718
G1 X40.957 Y104.747 E0.1281
G1 X40.817 Y104.727 E0.00706
G1 X38.305 Y104.181 E0.12825
G1 X38.167 Y104.141 E0.00717
G1 X35.765 Y103.244 E0.12792
G1 X35.636 Y103.185 E0.00708
G1 X33.378 Y101.953 E0.12833
G1 X33.258 Y101.876 E0.00711
G1 X31.202 Y100.337 E0.12813
G1 X31.094 Y100.243 E0.00714
G1 X29.28 Y98.429 E0.12799
G1 X29.186 Y98.321 E0.00714
G1 X27.647 Y96.265 E0.12813
G1 X27.57 Y96.145 E0.00711
G1 X26.338 Y93.888 E0.12829
G1 X26.279 Y93.758 E0.00712
G1 X25.382 Y91.353 E0.12806
G1 X25.342 Y91.217 E0.00707
G1 X24.796 Y88.707 E0.12815
G1 X24.776 Y88.565 E0.00715
G1 X24.593 Y86.006 E0.128
G1 X24.59 Y85.935 E0.00355
G1 X24.59 Y63.934 E1.09763
G1 X24.63 Y63.655 E0.01406
G1 X24.746 Y63.398 E0.01407
G1 X24.929 Y63.183 E0.01409
G1 X25.165 Y63.029 E0.01406
G0 F3600 X25.316 Y63.4
G1 F1800 X25.59 Y63.334 E0.01406
G1 X61.59 Y63.334 E1.79605
G1 X61.805 Y63.374 E0.01091
G1 X61.991 Y63.487 E0.01086
G1 X62.124 Y63.66 E0.01089
G1 X62.19 Y63.934 E0.01406
G1 X62.19 Y85.934 E1.09758
G1 X62.188 Y85.977 E0.00215
G1 X62.004 Y88.537 E0.12805
G1 X61.992 Y88.621 E0.00423
G1 X61.447 Y91.131 E0.12814
G1 X61.423 Y91.214 E0.00431
G1 X60.525 Y93.619 E0.12808
G1 X60.49 Y93.696 E0.00422
G1 X59.258 Y95.953 E0.12829
G1 X59.211 Y96.026 E0.00433
G1 X57.672 Y98.082 E0.12813
G1 X57.616 Y98.146 E0.00424
G1 X55.802 Y99.96 E0.12799
G1 X55.738 Y100.016 E0.00424
G1 X53.682 Y101.555 E0.12813
G1 X53.609 Y101.602 E0.00433
G1 X51.351 Y102.834 E0.12833
G1 X51.274 Y102.869 E0.00422
G1 X48.873 Y103.766 E0.12787
G1 X48.79 Y103.79 E0.00431
G1 X46.277 Y104.336 E0.1283
G1 X46.193 Y104.348 E0.00423
G1 X43.633 Y104.532 E0.12805
G1 X43.547 Y104.532 E0.00429
G1 X40.986 Y104.348 E0.1281
G1 X40.902 Y104.336 E0.00423
G1 X38.39 Y103.79 E0.12825
G1 X38.307 Y103.766 E0.00431
G1 X35.905 Y102.869 E0.12792
G1 X35.828 Y102.834 E0.00422
G1 X33.57 Y101.602 E0.12833
G1 X33.497 Y101.555 E0.00433
G1 X31.441 Y100.016 E0.12813
G1 X31.377 Y99.96 E0.00424
G1 X29.563 Y98.146 E0.12799
G1 X29.507 Y98.082 E0.00424
G1 X27.968 Y96.026 E0.12813
G1 X27.921 Y95.953 E0.00433
G1 X26.689 Y93.696 E0.12829
G1 X26.654 Y93.619 E0.00422
G1 X25.757 Y91.214 E0.12806
G1 X25.733 Y91.132 E0.00426
G1 X25.187 Y88.622 E0.12815
G1 X25.175 Y88.537 E0.00428
G1 X24.992 Y85.978 E0.128
G1 X24.99 Y85.935 E0.00215
G1 X24.99 Y63.934 E1.09763
G1 X25.03 Y63.719 E0.01091
G1 X25.143 Y63.533 E0.01086
G1 X25.316 Y63.4 E0.01089
G0 F3600 X25.59 Y63.734
G1 F1800 X61.59 Y63.734 E1.79605
G1 X61.709 Y63.773 E0.00625
G1 X61.79 Y63.934 E0.00899
G1 X61.79 Y85.934 E1.09758
G1 X61.789 Y85.948 E0.0007
G1 X61.605 Y88.508 E0.12805
G1 X61.601 Y88.536 E0.00141
G1 X61.056 Y91.046 E0.12814
G1 X61.048 Y91.074 E0.00145
G1 X60.15 Y93.479 E0.12808
G1 X60.139 Y93.505 E0.00141
G1 X58.907 Y95.762 E0.12829
G1 X58.891 Y95.786 E0.00144
G1 X57.352 Y97.842 E0.12813
G1 X57.333 Y97.863 E0.00141
G1 X55.519 Y99.677 E0.12799
G1 X55.498 Y99.696 E0.00141
G1 X53.442 Y101.235 E0.12813
G1 X53.418 Y101.251 E0.00144
G1 X51.16 Y102.483 E0.12833
G1 X51.134 Y102.494 E0.00141
G1 X48.733 Y103.391 E0.12787
G1 X48.705 Y103.399 E0.00145
G1 X46.192 Y103.945 E0.1283
G1 X46.164 Y103.949 E0.00141
G1 X43.604 Y104.133 E0.12805
G1 X43.576 Y104.133 E0.0014
G1 X41.015 Y103.949 E0.1281
G1 X40.987 Y103.945 E0.00141
G1 X38.475 Y103.399 E0.12825
G1 X38.447 Y103.391 E0.00145
G1 X36.045 Y102.494 E0.12792
G1 X36.019 Y102.483 E0.00141
G1 X33.761 Y101.251 E0.12833
G1 X33.737 Y101.235 E0.00144
G1 X31.681 Y99.696 E0.12813
G1 X31.66 Y99.677 E0.00141
G1 X29.846 Y97.863 E0.12799
G1 X29.827 Y97.842 E0.00141
G1 X28.288 Y95.786 E0.12813
G1 X28.272 Y95.762 E0.00144
G1 X27.04 Y93.505 E0.12829
G1 X27.029 Y93.479 E0.00141
G1 X26.132 Y91.074 E0.12806
G1 X26.124 Y91.047 E0.0014
G1 X25.578 Y88.537 E0.12815
G1 X25.574 Y88.508 E0.00146
G1 X25.391 Y85.949 E0.128
G1 X25.39 Y85.935 E0.0007
G1 X25.39 Y63.934 E1.09763
G1 X25.429 Y63.815 E0.00625
G1 X25.59 Y63.734 E0.00899
G1 F1500 E-6.5
G1 F300 Z1.3
G0 F3600 X70.72 Y40.537 Z1.3
G1 F300 Z0.3
G1 F1500 E6.5
G1 F1800 X70.725 Y40.439 E0.0049
G1 X70.879 Y38.875 E0.07841
G1 X70.917 Y38.683 E0.00976
G1 X71.371 Y37.185 E0.07809
G1 X71.446 Y37.003 E0.00982
G1 X72.188 Y35.617 E0.07843
G1 X72.297 Y35.455 E0.00974
G1 X73.289 Y34.246 E0.07802
G1 X73.427 Y34.107 E0.00977
G1 X74.639 Y33.112 E0.07823
G1 X74.803 Y33.003 E0.00982
G1 X76.189 Y32.262 E0.07841
G1 X76.37 Y32.187 E0.00977
G1 X77.869 Y31.733 E0.07814
G1 X78.061 Y31.695 E0.00976
G1 X79.623 Y31.541 E0.07831
G1 X79.721 Y31.536 E0.0049
G1 X171.719 Y31.536 E4.5898
G1 X171.817 Y31.541 E0.0049
G1 X173.38 Y31.695 E0.07836
G1 X173.572 Y31.733 E0.00976
G1 X175.071 Y32.187 E0.07814
G1 X175.252 Y32.262 E0.00977
G1 X176.638 Y33.003 E0.07841
G1 X176.802 Y33.112 E0.00982
G1 X178.011 Y34.105 E0.07805
G1 X178.149 Y34.243 E0.00974
G1 X179.144 Y35.454 E0.07819
G1 X179.253 Y35.618 E0.00982
G1 X179.994 Y37.004 E0.07841
G1 X180.069 Y37.184 E0.00973
G1 X180.524 Y38.682 E0.07811
G1 X180.562 Y38.876 E0.00986
G1 X180.715 Y40.438 E0.0783
G1 X180.72 Y40.535 E0.00485
G1 X180.72 Y132.535 E4.5899
G1 X180.715 Y132.632 E0.00485
G1 X180.562 Y134.195 E0.07835
G1 X180.524 Y134.389 E0.00986
G1 X180.069 Y135.887 E0.07811
G1 X179.994 Y136.067 E0.00973
G1 X179.254 Y137.452 E0.07834
G1 X179.145 Y137.615 E0.00978
G1 X178.151 Y138.826 E0.07816
G1 X178.013 Y138.965 E0.00977
G1 X176.802 Y139.96 E0.07819
G1 X176.638 Y140.069 E0.00982
G1 X175.252 Y140.81 E0.07841
G1 X175.071 Y140.885 E0.00977
G1 X173.572 Y141.339 E0.07814
G1 X173.38 Y141.377 E0.00976
G1 X171.817 Y141.531 E0.07836
G1 X171.719 Y141.536 E0.0049
G1 X79.721 Y141.536 E4.5898
G1 X79.623 Y141.531 E0.0049
G1 X78.061 Y141.377 E0.07831
G1 X77.869 Y141.339 E0.00976
G1 X76.37 Y140.885 E0.07814
G1 X76.189 Y140.81 E0.00977
G1 X74.803 Y140.069 E0.07841
G1 X74.639 Y139.96 E0.00982
G1 X73.427 Y138.965 E0.07823
G1 X73.289 Y138.826 E0.00977
G1 X72.296 Y137.615 E0.07813
G1 X72.187 Y137.453 E0.00974
G1 X71.446 Y136.068 E0.07837
G1 X71.371 Y135.886 E0.00982
G1 X70.917 Y134.388 E0.07809
G1 X70.879 Y134.196 E0.00976
G1 X70.725 Y132.635 E0.07826
G1 X70.72 Y132.537 E0.0049
G1 X70.72 Y40.537 E4.5899
G0 F3600 X71.12 Y40.537
G1 F1800 X71.123 Y40.478 E0.00295
G1 X71.277 Y38.914 E0.07841
G1 X71.3 Y38.799 E0.00585
G1 X71.754 Y37.301 E0.07809
G1 X71.799 Y37.192 E0.00588
G1 X72.541 Y35.806 E0.07843
G1 X72.606 Y35.708 E0.00587
G1 X73.598 Y34.499 E0.07802
G1 X73.681 Y34.416 E0.00586
G1 X74.893 Y33.421 E0.07823
G1 X74.991 Y33.356 E0.00587
G1 X76.377 Y32.615 E0.07841
G1 X76.486 Y32.57 E0.00588
G1 X77.985 Y32.116 E0.07814
G1 X78.1 Y32.093 E0.00585
G1 X79.662 Y31.939 E0.07831
G1 X79.721 Y31.936 E0.00295
G1 X171.719 Y31.936 E4.5898
G1 X171.778 Y31.939 E0.00295
G1 X173.341 Y32.093 E0.07836
G1 X173.456 Y32.116 E0.00585
G1 X174.955 Y32.57 E0.07814
G1 X175.064 Y32.615 E0.00588
G1 X176.45 Y33.356 E0.07841
G1 X176.548 Y33.421 E0.00587
G1 X177.757 Y34.414 E0.07805
G1 X177.84 Y34.497 E0.00586
G1 X178.835 Y35.708 E0.07819
G1 X178.9 Y35.806 E0.00587
G1 X179.641 Y37.192 E0.07841
G1 X179.686 Y37.301 E0.00588
G1 X180.141 Y38.799 E0.07811
G1 X180.164 Y38.915 E0.0059
G1 X180.317 Y40.477 E0.0783
G1 X180.32 Y40.535 E0.0029
G1 X180.32 Y132.535 E4.5899
G1 X180.317 Y132.593 E0.0029
G1 X180.164 Y134.156 E0.07835
G1 X180.141 Y134.272 E0.0059
G1 X179.686 Y135.77 E0.07811
G1 X179.641 Y135.879 E0.00588
G1 X178.901 Y137.264 E0.07834
G1 X178.836 Y137.362 E0.00587
G1 X177.842 Y138.573 E0.07816
G1 X177.759 Y138.656 E0.00586
G1 X176.548 Y139.651 E0.07819
G1 X176.45 Y139.716 E0.00587
G1 X175.064 Y140.457 E0.07841
G1 X174.955 Y140.502 E0.00588
G1 X173.456 Y140.956 E0.07814
G1 X173.341 Y140.979 E0.00585
G1 X171.778 Y141.133 E0.07836
G1 X171.719 Y141.136 E0.00295
G1 X79.721 Y141.136 E4.5898
G1 X79.662 Y141.133 E0.00295
G1 X78.1 Y140.979 E0.07831
G1 X77.985 Y140.956 E0.00585
G1 X76.486 Y140.502 E0.07814
G1 X76.377 Y140.457 E0.00588
G1 X74.991 Y139.716 E0.07841
G1 X74.893 Y139.651 E0.00587
G1 X73.681 Y138.656 E0.07823
G1 X73.598 Y138.572 E0.00589
G1 X72.605 Y137.361 E0.07813
G1 X72.54 Y137.264 E0.00583
G1 X71.799 Y135.879 E0.07837
G1 X71.754 Y135.77 E0.00588
G1 X71.3 Y134.272 E0.07809
G1 X71.277 Y134.157 E0.00585
G1 X71.123 Y132.596 E0.07826
G1 X71.12 Y132.537 E0.00295
G1 X71.12 Y40.537 E4.5899
G0 F3600 X71.52 Y40.537
G1 F1800 X71.521 Y40.517 E0.001
G1 X71.675 Y38.953 E0.07841
G1 X71.683 Y38.915 E0.00194
G1 X72.137 Y37.417 E0.07809
G1 X72.152 Y37.381 E0.00195
G1 X72.894 Y35.995 E0.07843
G1 X72.915 Y35.962 E0.00195
G1 X73.907 Y34.753 E0.07802
G1 X73.935 Y34.725 E0.00198
G1 X75.147 Y33.73 E0.07823
G1 X75.18 Y33.709 E0.00195
G1 X76.566 Y32.968 E0.07841
G1 X76.602 Y32.953 E0.00195
G1 X78.101 Y32.499 E0.07814
G1 X78.139 Y32.491 E0.00194
G1 X79.701 Y32.337 E0.07831
G1 X79.721 Y32.336 E0.001
G1 X171.719 Y32.336 E4.5898
G1 X171.739 Y32.337 E0.001
G1 X173.302 Y32.491 E0.07836
G1 X173.34 Y32.499 E0.00194
G1 X174.839 Y32.953 E0.07814
G1 X174.875 Y32.968 E0.00195
G1 X176.261 Y33.709 E0.07841
G1 X176.294 Y33.73 E0.00195
G1 X177.503 Y34.723 E0.07805
G1 X177.531 Y34.751 E0.00198
G1 X178.526 Y35.962 E0.07819
G1 X178.547 Y35.995 E0.00195
G1 X179.288 Y37.381 E0.07841
G1 X179.303 Y37.417 E0.00195
G1 X179.758 Y38.915 E0.07811
G1 X179.766 Y38.954 E0.00199
G1 X179.919 Y40.516 E0.0783
G1 X179.92 Y40.535 E0.00095
G1 X179.92 Y132.535 E4.5899
G1 X179.919 Y132.554 E0.00095
G1 X179.766 Y134.117 E0.07835
G1 X179.758 Y134.156 E0.00199
G1 X179.303 Y135.654 E0.07811
G1 X179.288 Y135.69 E0.00195
G1 X178.548 Y137.075 E0.07834
G1 X178.527 Y137.108 E0.00195
G1 X177.533 Y138.319 E0.07816
G1 X177.505 Y138.347 E0.00198
G1 X176.294 Y139.342 E0.07819
G1 X176.261 Y139.363 E0.00195
G1 X174.875 Y140.104 E0.07841
G1 X174.839 Y140.119 E0.00195
G1 X173.34 Y140.573 E0.07814
G1 X173.302 Y140.581 E0.00194
G1 X171.739 Y140.735 E0.07836
G1 X171.719 Y140.736 E0.001
G1 X79.721 Y140.736 E4.5898
G1 X79.701 Y140.735 E0.001
G1 X78.139 Y140.581 E0.07831
G1 X78.101 Y140.573 E0.00194
G1 X76.602 Y140.119 E0.07814
G1 X76.566 Y140.104 E0.00195
G1 X75.18 Y139.363 E0.07841
G1 X75.147 Y139.342 E0.00195
G1 X73.935 Y138.347 E0.07823
G1 X73.907 Y138.319 E0.00198
G1 X72.914 Y137.108 E0.07813
G1 X72.893 Y137.075 E0.00195
G1 X72.152 Y135.69 E0.07837
G1 X72.137 Y135.654 E0.00195
G1 X71.683 Y134.156 E0.07809
G1 X71.675 Y134.118 E0.00194
G1 X71.521 Y132.557 E0.07826
G1 X71.52 Y132.537 E0.001
G1 X71.52 Y40.537 E4.5899
G1 F1500 E-6.5
G1 F300 Z1.3
G0 F3600 X61.39 Y85.934 Z1.3
;TYPE:WALL-OUTER
G1 F300 Z0.3
G1 F1500 E6.5
G1 F1800 X61.208 Y88.467 E0.1267
G1 X60.669 Y90.947 E0.12662
G1 X59.783 Y93.322 E0.12647
G1 X58.561 Y95.559 E0.12717
G1 X57.039 Y97.593 E0.12674
G1 X55.249 Y99.383 E0.12629
G1 X53.215 Y100.905 E0.12674
G1 X50.978 Y102.127 E0.12717
G1 X48.603 Y103.013 E0.12647
G1 X46.123 Y103.552 E0.12662
G1 X43.59 Y103.734 E0.1267
G1 X41.056 Y103.552 E0.12675
G1 X38.577 Y103.013 E0.12657
G1 X36.2 Y102.127 E0.12656
G1 X33.964 Y100.905 E0.12713
G1 X31.93 Y99.383 E0.12674
G1 X30.14 Y97.593 E0.12629
G1 X28.618 Y95.559 E0.12674
G1 X27.396 Y93.323 E0.12713
G1 X26.511 Y90.949 E0.1264
G1 X25.971 Y88.465 E0.12682
G1 X25.79 Y85.934 E0.12659
G1 X25.79 Y64.134 E1.08761
G1 X61.39 Y64.134 E1.77609
G1 X61.39 Y85.934 E1.08761
G0 F3600 X61.376 Y86.133
G0 X60.878 Y86.096
G0 X60.218 Y65.306
G0 X27.39 Y65.234
G0 X27.39 Y65.734
G1 F1800 X27.39 Y85.942 E1.00818
G1 X27.589 Y88.468 E0.12641
G1 X28.182 Y90.94 E0.12683
G1 X29.155 Y93.288 E0.1268
G1 X30.483 Y95.456 E0.12684
G1 X32.134 Y97.389 E0.12683
G1 X34.067 Y99.04 E0.12683
G1 X36.235 Y100.369 E0.12687
G1 X38.583 Y101.342 E0.1268
G1 X41.056 Y101.935 E0.12688
G1 X43.59 Y102.135 E0.12681
G1 X46.124 Y101.935 E0.12681
G1 X48.596 Y101.342 E0.12683
G1 X50.945 Y100.369 E0.12685
G1 X53.112 Y99.04 E0.12682
G1 X55.045 Y97.389 E0.12683
G1 X56.696 Y95.456 E0.12683
G1 X58.025 Y93.288 E0.12687
G1 X58.998 Y90.94 E0.1268
G1 X59.591 Y88.468 E0.12683
G1 X59.79 Y85.942 E0.12641
G1 X59.79 Y65.734 E1.00818
G1 X27.39 Y65.734 E1.61644
G0 F3600 X27.39 Y65.934
G0 X26.99 Y65.334
;TYPE:WALL-INNER
G1 F1800 X26.99 Y85.958 E1.02894
G1 X27.193 Y88.531 E0.12877
G1 X27.8 Y91.064 E0.12995
G1 X28.797 Y93.47 E0.12993
G1 X30.158 Y95.692 E0.13
G1 X31.85 Y97.673 E0.12998
G1 X33.831 Y99.365 E0.12998
G1 X36.053 Y100.726 E0.13
G1 X38.459 Y101.724 E0.12995
G1 X40.993 Y102.331 E0.13
G1 X43.59 Y102.536 E0.12997
G1 X46.187 Y102.331 E0.12997
G1 X48.72 Y101.724 E0.12995
G1 X51.127 Y100.726 E0.13
G1 X53.348 Y99.365 E0.12996
G1 X55.329 Y97.673 E0.12998
G1 X57.021 Y95.692 E0.12998
G1 X58.382 Y93.47 E0.13
G1 X59.38 Y91.064 E0.12995
G1 X59.987 Y88.531 E0.12995
G1 X60.19 Y85.958 E0.12877
G1 X60.19 Y65.334 E1.02894
G1 X26.99 Y65.334 E1.65635
G0 F3600 X26.92 Y65.264
G0 X60.218 Y65.306
G0 X60.891 Y85.916
G0 X60.99 Y85.919
G1 F1800 X60.811 Y88.409 E0.12455
G1 X60.284 Y90.833 E0.12376
G1 X59.417 Y93.157 E0.12375
G1 X58.223 Y95.343 E0.12427
G1 X56.737 Y97.329 E0.12375
G1 X54.985 Y99.081 E0.12361
G1 X52.999 Y100.567 E0.12375
G1 X50.813 Y101.761 E0.12427
G1 X48.489 Y102.628 E0.12375
G1 X46.065 Y103.155 E0.12376
G1 X43.59 Y103.333 E0.1238
G1 X41.114 Y103.155 E0.12385
G1 X38.691 Y102.628 E0.12371
G1 X36.365 Y101.761 E0.12384
G1 X34.18 Y100.567 E0.12422
G1 X32.194 Y99.081 E0.12375
G1 X30.442 Y97.329 E0.12361
G1 X28.956 Y95.343 E0.12375
G1 X27.762 Y93.158 E0.12422
G1 X26.896 Y90.835 E0.12369
G1 X26.368 Y88.407 E0.12396
G1 X26.19 Y85.919 E0.12444
G1 X26.19 Y64.534 E1.0669
G1 X60.99 Y64.534 E1.73618
G1 X60.99 Y85.919 E1.0669
G0 F3600 X60.6 Y85.905
;TYPE:SKIN
G1 F1800 X60.424 Y88.356 E0.1226
G1 X60.373 Y88.587 E0.0118
G1 X60.58 Y85.973 E0.13082
G1 X60.58 Y64.944 E1.04914
G1 X26.6 Y64.944 E1.69527
G1 X26.6 Y85.973 E1.04914
G1 X26.807 Y88.592 E0.13107
G1 X27.402 Y91.076 E0.12743
G1 X27.272 Y90.726 E0.01863
G1 X26.755 Y88.354 E0.12112
G1 X26.58 Y85.905 E0.12249
G1 X26.58 Y64.924 E1.04675
G1 X60.6 Y64.924 E1.69726
G1 X60.6 Y85.905 E1.04675
G0 F3600 X60.366 Y88.621
G1 F1800 X59.908 Y90.724 E0.10738
G1 X59.78 Y91.069 E0.01836
G1 X60.366 Y88.621 E0.12558
G0 F3600 X59.599 Y91.553
G1 F1800 X59.065 Y92.988 E0.07639
G1 X58.816 Y93.442 E0.02583
G1 X59.599 Y91.553 E0.10202
G0 F3600 X58.48 Y94.058
G1 F1800 X57.891 Y95.135 E0.06124
G1 X57.494 Y95.665 E0.03304
G1 X58.48 Y94.058 E0.09406
G0 F3600 X57.057 Y96.25
G1 F1800 X56.437 Y97.079 E0.05165
G1 X55.839 Y97.677 E0.04219
G1 X57.057 Y96.25 E0.0936
G0 F3600 X55.333 Y98.183
G1 F1800 X54.735 Y98.781 E0.04219
